DanielTruong99/RLHumanoidRobot/analysis/data/state_log.csv
time_step,c_x,c_y,c_z,base_x,base_y,base_z,base_vx,base_vy,base_vz,base_wx,base_wy,base_wz,pos_R_hip_joint,pos_R_hip2_joint,pos_R_thigh_joint,pos_R_calf_joint,pos_R_toe_joint,pos_L_hip_joint,pos_L_hip2_joint,pos_L_thigh_joint,pos_L_calf_joint,pos_L_toe_joint,vel_R_hip_joint,vel_R_hip2_joint,vel_R_thigh_joint,vel_R_calf_joint,vel_R_toe_joint,vel_L_hip_joint,vel_L_hip2_joint,vel_L_thigh_joint,vel_L_calf_joint,vel_L_toe_joint,torque_R_hip_joint,torque_R_hip2_joint,torque_R_thigh_joint,torque_R_calf_joint,torque_R_toe_joint,torque_L_hip_joint,torque_L_hip2_joint,torque_L_thigh_joint,torque_L_calf_joint,torque_L_toe_joint
0.01,0.0,0.0,0.0,-0.003342045471072197,-0.0006678116042166948,0.8209328651428223,0.18285830318927765,0.20564372837543488,1.2718336582183838,-1.944646954536438,1.2421151399612427,-0.49027907848358154,0.08074590563774109,0.1482798457145691,-0.28277745842933655,0.6791399121284485,-0.026824530214071274,-0.025634201243519783,0.1840112954378128,-0.20135723054409027,0.9642387628555298,-0.5892895460128784,-1.1942834854125977,1.2030073404312134,-8.691040992736816,8.305788040161133,15.340827941894531,-8.410158157348633,-0.6050666570663452,-5.611812591552734,3.6334228515625,41.53656005859375,14.350486755371094,-28.795364379882812,-40.96868133544922,-19.585445404052734,-119.91978454589844,23.61481475830078,-39.80079650878906,-145.29421997070312,30.0,30.0
0.02,0.0,0.0,0.0,-0.005040444433689117,-0.00034523196518421173,0.8347060680389404,0.15254855155944824,0.1432860940694809,1.4465569257736206,-1.9918088912963867,-0.22067119181156158,-0.4798484146595001,0.046578146517276764,0.1724281907081604,-0.32063353061676025,0.7615692019462585,-0.2119458168745041,-0.046538833528757095,0.1835229992866516,-0.2224174290895462,0.9054983258247375,-0.47667086124420166,-4.95902156829834,2.1001217365264893,0.8104280233383179,-5.210623741149902,11.388583183288574,1.946063756942749,-0.32312169671058655,-0.7223946452140808,-12.006193161010742,20.36760711669922,44.412559509277344,1.4801349639892578,-63.705562591552734,68.007080078125,-111.6808090209961,111.8060073852539,-134.31484985351562,54.413597106933594,-10.515838623046875,-30.0
0.03,0.0,0.0,0.0,-0.005630431696772575,-0.0013789571821689606,0.8490778803825378,0.11559417843818665,0.09441543370485306,1.4028881788253784,-4.644543170928955,-1.321426510810852,-0.4891868531703949,-0.04098164662718773,0.2289542406797409,-0.3020689785480499,0.7555748820304871,-0.25190234184265137,-0.061583977192640305,0.21587646007537842,-0.18767254054546356,0.805324912071228,-0.3547956347465515,-10.495277404785156,8.170093536376953,2.4784963130950928,1.6615108251571655,-4.130066394805908,-2.4747204780578613,5.197480201721191,8.267838478088379,-22.1958065032959,-2.7967987060546875,-28.000450134277344,-10.098709106445312,119.12505340576172,149.287353515625,-5.104669570922852,20.01725959777832,-86.14505767822266,50.50606918334961,30.0,3.2693710327148438
0.04,0.0,0.0,0.0,-0.0063306838274002075,-0.0014354223385453224,0.8626676201820374,0.16623836755752563,-0.01999625191092491,1.3022899627685547,0.19734075665473938,-0.40052351355552673,-0.9602535963058472,-0.07830286026000977,0.25197285413742065,-0.3104706108570099,0.8178057074546814,-0.3076302707195282,-0.059602249413728714,0.23022368550300598,-0.15043774247169495,0.724476158618927,-0.3321102559566498,0.19129370152950287,-2.339369058609009,-2.9381625652313232,8.219332695007324,-5.15636682510376,2.500194787979126,-2.7849767208099365,2.0887200832366943,-10.817082405090332,12.760885238647461,19.29840660095215,35.412574768066406,-141.2812042236328,-252.51124572753906,-57.88182067871094,18.718677520751953,77.8563003540039,14.819084167480469,-28.234901428222656,3.19720458984375
0.05,0.0,0.0,0.0,-0.007525349035859108,0.0005401261150836945,0.8754770755767822,0.19119402766227722,-0.018465189263224602,1.287691354751587,0.5819071531295776,-0.2641748785972595,-0.5845763683319092,-0.08897245675325394,0.22860686480998993,-0.3129952847957611,0.8240281939506531,-0.2886146008968353,-0.0337986946105957,0.19808220863342285,-0.134040966629982,0.6431899666786194,-0.3214690387248993,-1.659417986869812,-2.4082088470458984,1.086348533630371,-3.494978666305542,1.6631653308868408,2.962273359298706,-3.925224781036377,1.142594575881958,-7.650235176086426,-2.6721036434173584,3.446413040161133,-0.3323097229003906,-93.09378051757812,31.740859985351562,-42.00229263305664,16.333845138549805,-20.47705841064453,-54.99912643432617,-12.448265075683594,-4.665548324584961
0.06,0.0,0.0,0.0,-0.008711345493793488,0.0024124598130583763,0.8874852657318115,0.17951643466949463,0.009244237095117569,1.1684236526489258,0.056775301694869995,-0.10800804942846298,-0.5659528374671936,-0.1149277538061142,0.2146444171667099,-0.3012056052684784,0.7941237092018127,-0.30364152789115906,-0.00727462163195014,0.16374829411506653,-0.12441341578960419,0.5846575498580933,-0.39793309569358826,-3.0231986045837402,-0.5981160998344421,1.142604947090149,-2.6349260807037354,-1.5856183767318726,2.6108486652374268,-3.228606939315796,0.8382996916770935,-5.540075302124023,-9.86350154876709,0.18798446655273438,0.928685188293457,-30.54010009765625,75.23250579833984,-10.617829322814941,11.293766975402832,-8.396926879882812,8.323789596557617,-5.103279113769531,0.7344670295715332
0.07,0.0,0.0,0.0,-0.009890442714095116,0.003998910076916218,0.8982033729553223,0.14426861703395844,0.03314342349767685,1.0365813970565796,-0.13460753858089447,-0.11896875500679016,-0.4491104185581207,-0.14170272648334503,0.20968422293663025,-0.2965232729911804,0.7956586480140686,-0.33209726214408875,0.021873440593481064,0.13406877219676971,-0.1177402213215828,0.5259109735488892,-0.46520814299583435,-2.3821496963500977,-0.37556082010269165,0.18975558876991272,1.7752299308776855,-2.6497931480407715,2.898880958557129,-2.709459066390991,0.3610309958457947,-5.478612899780273,-6.543937683105469,-5.5482282638549805,13.371588706970215,18.887428283691406,0.16703557968139648,-33.482322692871094,42.86918258666992,-8.556049346923828,36.72758483886719,-0.424102783203125,2.992152214050293
0.08,0.0,0.0,0.0,-0.011032391339540482,0.005505707114934921,0.9078322052955627,0.10933646559715271,0.05734425038099289,0.9460893273353577,-0.25378212332725525,-0.32272180914878845,-0.30429136753082275,-0.15552517771720886,0.2029978483915329,-0.2896088659763336,0.7950223088264465,-0.3882516920566559,0.04244575276970863,0.1096479743719101,-0.1182144284248352,0.489554226398468,-0.4275375008583069,-0.6529772281646729,-0.9149562120437622,1.0073986053466797,-1.3848437070846558,-5.681777477264404,1.4483609199523926,-2.207184314727783,-0.40041932463645935,-1.629427194595337,4.091163158416748,-4.270396709442139,4.873893737792969,33.56810760498047,-41.06367874145508,16.535064697265625,-11.65971851348877,28.116294860839844,-21.433687210083008,2.4953441619873047,-1.9466724395751953
0.09,0.0,0.0,0.0,-0.012602061033248901,0.007139893248677254,0.916181743144989,0.1633695811033249,0.06559184938669205,0.8270357847213745,0.1654084026813507,1.2034958600997925,-0.14146925508975983,-0.1546574831008911,0.18990057706832886,-0.29696905612945557,0.7804359793663025,-0.39177826046943665,0.07023046910762787,0.08333615213632584,-0.14464417099952698,0.49639642238616943,-0.47004765272140503,0.45391905307769775,-1.6562117338180542,-1.887041449546814,-1.3408528566360474,-0.18675117194652557,3.250936508178711,-2.981879711151123,-3.956895351409912,1.2312158346176147,-4.312959671020508,-0.19494342803955078,-0.6810392737388611,-2.7394018173217773,-34.043190002441406,-46.35783767700195,-26.26178550720215,-10.722576141357422,-11.010774612426758,-0.5638389587402344,-0.8318599462509155
0.1,0.0,0.0,0.0,-0.01454516127705574,0.009392760694026947,0.9233936071395874,0.10583902895450592,0.05205871909856796,0.7418717741966248,1.3071504831314087,0.9253063201904297,-0.1521489918231964,-0.14245463907718658,0.1623980700969696,-0.3104776442050934,0.745691180229187,-0.35149672627449036,0.11256539076566696,0.0379507839679718,-0.18433482944965363,0.5186203718185425,-0.46856752038002014,1.6732054948806763,-3.638310670852661,-1.0123389959335327,-4.410102844238281,3.911757230758667,4.664053916931152,-5.743655681610107,-3.8315868377685547,2.9503211975097656,0.37137502431869507,5.46989631652832,5.891078472137451,-81.15977478027344,-24.58344841003418,10.5346097946167,7.921933174133301,16.292247772216797,-15.495279312133789,1.305802345275879,-0.8530120849609375
0.11,0.0,0.0,0.0,-0.016761278733611107,0.012272654101252556,0.9293525218963623,0.1040220707654953,0.05771200358867645,0.6112805008888245,1.9124438762664795,1.6356312036514282,-0.11888927221298218,-0.11464083939790726,0.12090075761079788,-0.3256821930408478,0.6887233853340149,-0.25927186012268066,0.16662649810314178,-0.0315103754401207,-0.2308688908815384,0.5664766430854797,-0.46980154514312744,3.3215315341949463,-4.540161609649658,-1.9359647035598755,-5.9609575271606445,9.016509056091309,5.600039482116699,-7.815954685211182,-5.104948043823242,5.5009565353393555,-0.009810095652937889,0.4772014617919922,7.225198745727539,-62.2509651184082,0.38396263122558594,-12.887880325317383,-7.405909538269043,6.893852233886719,-11.70582389831543,0.7176966071128845,-0.7549209594726562
0.12,0.0,0.0,0.0,-0.019047552719712257,0.015291430056095123,0.9340200424194336,0.06090541183948517,0.08666156232357025,0.4848369359970093,1.7426037788391113,1.4002817869186401,-0.06945127993822098,-0.07539641112089157,0.07493499666452408,-0.33945921063423157,0.6246968507766724,-0.14424724876880646,0.21848516166210175,-0.11142698675394058,-0.27685579657554626,0.6267310976982117,-0.457044392824173,4.150058269500732,-4.5471696853637695,-1.1027441024780273,-6.076940059661865,11.176685333251953,4.822922229766846,-7.948937892913818,-4.348071098327637,6.230798721313477,1.350393295288086,-1.6950187683105469,7.073732376098633,-4.318199157714844,7.145219802856445,-2.4672088623046875,19.655778884887695,4.965301513671875,8.621200561523438,0.5409646034240723,0.5441360473632812
0.13,0.0,0.0,0.0,-0.021234864369034767,0.018044915050268173,0.9372156262397766,0.03696208819746971,0.11654213070869446,0.3213214874267578,1.3248127698898315,1.462067723274231,0.011682476848363876,-0.027677595615386963,0.028730381280183792,-0.35657456517219543,0.5875310301780701,-0.0580739863216877,0.24569277465343475,-0.185945525765419,-0.3295341730117798,0.7155466079711914,-0.44348275661468506,4.944034099578857,-4.5972819328308105,-2.0084786415100098,-2.2746124267578125,8.401890754699707,1.5002237558364868,-6.8973798751831055,-5.724481582641602,10.01113224029541,1.5215320587158203,-7.607855796813965,0.3831634521484375,48.33794403076172,-23.165063858032227,-3.6474761962890625,-1.0935897827148438,16.5577392578125,16.96137237548828,1.6897850036621094,1.5031356811523438
0.14,0.0,0.0,0.0,-0.02320440672338009,0.02085977979004383,0.9391463994979858,-0.023322168737649918,0.11090325564146042,0.20645226538181305,1.7979497909545898,0.7858344316482544,-0.03813348710536957,0.03493864834308624,-0.0317106693983078,-0.37238359451293945,0.5756568312644958,-0.02122538350522518,0.2488602250814438,-0.25201112031936646,-0.38053783774375916,0.8175966739654541,-0.40171247720718384,6.704780578613281,-7.045344829559326,-1.2443537712097168,-0.7702913880348206,3.483865976333618,-0.31064528226852417,-6.248001575469971,-4.478661060333252,10.238981246948242,4.240967750549316,-6.420138359069824,-12.267078399658203,77.6192626953125,-103.76602172851562,37.05823516845703,-21.999046325683594,21.079444885253906,-2.0625109672546387,1.6179084777832031,-0.10108566284179688
0.15,0.0,0.0,0.0,-0.0246858112514019,0.024079671129584312,0.9403624534606934,-0.10065773874521255,0.10507558286190033,0.13922999799251556,2.2174057960510254,-0.4313143789768219,-0.0745973289012909,0.10014354437589645,-0.11227047443389893,-0.3660483658313751,0.555942714214325,-0.015856733545660973,0.23920196294784546,-0.3075345456600189,-0.4070151746273041,0.9086772799491882,-0.3643653690814972,5.902685642242432,-8.690509796142578,1.48384428024292,-2.562619209289551,0.3314249813556671,-1.318854570388794,-4.908819675445557,-1.270056962966919,8.352901458740234,3.6321451663970947,-15.365297317504883,-22.843616485595703,100.96733856201172,-100.67737579345703,81.04206848144531,-42.615150451660156,22.98453140258789,-19.73198890686035,1.5899505615234375,-1.7533173561096191
0.16,0.0,0.0,0.0,-0.02530922181904316,0.027127038687467575,0.9411864876747131,-0.2135334014892578,0.12782645225524902,0.0871339738368988,1.3121517896652222,-2.347140312194824,-0.16628998517990112,0.1410820484161377,-0.19148601591587067,-0.3328542709350586,0.5180674195289612,-0.02198978140950203,0.20648571848869324,-0.3306289315223694,-0.4051974415779114,0.9967795014381409,-0.360015869140625,2.48048734664917,-7.305582523345947,3.875051736831665,-3.95009708404541,-0.739684522151947,-4.315932750701904,-0.17192605137825012,1.5438473224639893,8.811980247497559,0.42249393463134766,-36.01158905029297,-22.64698028564453,200.22264099121094,-81.63187408447266,127.94661712646484,-70.71515655517578,41.859954833984375,-20.281513214111328,3.3688063621520996,-1.7100448608398438
0.17,0.0,0.0,0.0,-0.025049742311239243,0.02947567217051983,0.9414830207824707,-0.28972381353378296,0.13583895564079285,-0.0023727065417915583,0.3998720943927765,-3.5084314346313477,-0.3151487708091736,0.14130908250808716,-0.2564690411090851,-0.28812071681022644,0.4571419954299927,-0.02238166704773903,0.1512211710214615,-0.31327006220817566,-0.3794664144515991,1.1001254320144653,-0.3903825879096985,-1.779639720916748,-6.001707553863525,4.206284046173096,-6.556819438934326,-0.22127078473567963,-6.122230529785156,3.432776927947998,3.57424259185791,10.933122634887695,-2.9068384170532227,-37.53053283691406,-13.94182300567627,178.20883178710938,-85.61768341064453,120.0681381225586,-85.09609985351562,48.234375,-31.494564056396484,3.9836854934692383,-2.6368863582611084
0.18,0.0,0.0,0.0,-0.02431447245180607,0.030918018892407417,0.9407849311828613,-0.3138701915740967,0.14423441886901855,-0.12013791501522064,-0.6370673179626465,-3.539431095123291,-0.398703396320343,0.09156439453363419,-0.30293843150138855,-0.26461488008499146,0.3992424011230469,-0.003390881232917309,0.0782192200422287,-0.2724206745624542,-0.33737996220588684,1.2054226398468018,-0.42426544427871704,-6.4087347984313965,-3.7141125202178955,1.0305626392364502,-4.653340816497803,1.903630256652832,-7.8646559715271,4.904104232788086,4.57442045211792,10.162854194641113,-3.2809157371520996,-22.8607177734375,1.784505844116211,65.35690307617188,18.96963119506836,43.38125991821289,-50.063575744628906,6.853450775146484,-3.9047107696533203,0.7795524597167969,0.1147003173828125
0.19,0.0,0.0,0.0,-0.02350032515823841,0.03163885697722435,0.9389747381210327,-0.3229811489582062,0.16140472888946533,-0.22385306656360626,-1.194145917892456,-3.139662504196167,-0.6068740487098694,0.030202265828847885,-0.33213356137275696,-0.26554837822914124,0.36546629667282104,0.029158541932702065,-0.0014875929336994886,-0.22927168011665344,-0.28305190801620483,1.2880091667175293,-0.44816410541534424,-5.469823360443115,-2.2933590412139893,-0.6994343400001526,-2.2566545009613037,3.2521097660064697,-7.871884346008301,4.220756530761719,5.515273094177246,7.186366081237793,-2.369044780731201,6.442939758300781,13.036445617675781,-19.09505271911621,65.32758331298828,-26.77411460876465,1.9790706634521484,-25.487621307373047,11.751508712768555,-1.8440961837768555,1.2652873992919922
0.2,0.0,0.0,0.0,-0.022803980857133865,0.03204108774662018,0.9362547397613525,-0.32106393575668335,0.18136411905288696,-0.2938553988933563,-1.4468950033187866,-2.660207509994507,-0.7295434474945068,-0.008488280698657036,-0.35144656896591187,-0.27314987778663635,0.35152652859687805,0.05090693011879921,-0.07685759663581848,-0.19558222591876984,-0.22033759951591492,1.3292350769042969,-0.4578504264354706,-2.7468056678771973,-1.6012567281723022,-0.8001091480255127,-0.7769773006439209,2.114706516265869,-7.144765377044678,3.114490509033203,6.155745983123779,2.3793606758117676,-1.0574990510940552,22.053247451782227,5.784341812133789,-24.77774429321289,56.65245819091797,-66.44467163085938,33.90556335449219,-50.72233581542969,16.898963928222656,-3.924304485321045,1.3960065841674805
0.21,0.0,0.0,0.0,-0.022350579500198364,0.03219304978847504,0.9328586459159851,-0.3066161274909973,0.19422730803489685,-0.3377121686935425,-1.7177929878234863,-1.9985167980194092,-0.6368032693862915,-0.024224501103162766,-0.3641662895679474,-0.2840130925178528,0.36329156160354614,0.04329462721943855,-0.14083176851272583,-0.16739152371883392,-0.15535052120685577,1.3138905763626099,-0.4404914379119873,-0.8028703927993774,-0.965542733669281,-1.177910566329956,2.0843026638031006,-0.6996241211891174,-5.726690292358398,3.0186753273010254,6.152311325073242,-3.7633023262023926,1.5375664234161377,29.94207000732422,-7.626797676086426,7.492155075073242,40.85267639160156,-95.72396087646484,57.404518127441406,-72.41989135742188,28.959774017333984,-5.679787635803223,2.4342808723449707
0.22,0.0,0.0,0.0,-0.022417258471250534,0.03194310888648033,0.9286537170410156,-0.26472458243370056,0.1909589022397995,-0.4022916853427887,-1.8692071437835693,-0.6706915497779846,-0.42646270990371704,-0.03236417844891548,-0.370136022567749,-0.31604671478271484,0.4309130012989044,-0.00013587156718131155,-0.18481013178825378,-0.13452522456645966,-0.10182923823595047,1.2441902160644531,-0.3913682699203491,-0.4858167767524719,-0.33900541067123413,-3.936246633529663,8.573644638061523,-3.961808681488037,-3.319324016571045,3.8085880279541016,4.3373613357543945,-8.658278465270996,4.629121780395508,39.48562240600586,-15.970252990722656,15.511476516723633,35.85661315917969,-126.1868896484375,67.69068908691406,-74.77118682861328,43.99093246459961,-6.004249572753906,4.121513366699219
0.23,0.0,0.0,0.0,-0.02288122847676277,0.03163488954305649,0.923576831817627,-0.26715773344039917,0.2068418562412262,-0.4743925631046295,-1.6310123205184937,-0.213096022605896,-0.22476178407669067,-0.033751606941223145,-0.37398403882980347,-0.3521988093852997,0.5165796279907227,-0.06457014381885529,-0.20430682599544525,-0.09944809973239899,-0.06216045096516609,1.1445211172103882,-0.35231709480285645,0.046605609357357025,-0.38389459252357483,-3.198488712310791,7.938441753387451,-6.249439239501953,-0.9122987985610962,3.365818738937378,3.212541341781616,-10.322522163391113,3.5752313137054443,40.64081573486328,-15.306966781616211,-36.43495559692383,38.38303756713867,-92.85935974121094,61.05815887451172,-37.44662857055664,15.963294982910156,-3.1457386016845703,1.0161819458007812
0.24,0.0,0.0,0.0,-0.023558050394058228,0.03162805363535881,0.91752028465271,-0.28698208928108215,0.22399462759494781,-0.5649718642234802,-1.2848258018493652,0.04436543956398964,-0.04514097794890404,-0.034590091556310654,-0.38009804487228394,-0.3810078501701355,0.5882980823516846,-0.1311907172203064,-0.2019641250371933,-0.06866317987442017,-0.03427835926413536,1.0387322902679443,-0.3072164058685303,-0.16967709362506866,-0.7803889513015747,-2.5407307147979736,6.331376075744629,-6.459628105163574,1.0064572095870972,2.8466312885284424,2.1009273529052734,-10.064704895019531,4.269531726837158,27.783809661865234,-12.325345039367676,-32.916831970214844,14.241925239562988,-54.196998596191406,35.97472381591797,-11.244796752929688,4.273365020751953,-1.0176582336425781,0.10062789916992188
0.25,0.0,0.0,0.0,-0.02438550814986229,0.03197907656431198,0.9103012681007385,-0.31846433877944946,0.24110276997089386,-0.6710620522499084,-0.9288893938064575,0.19503390789031982,-0.03884493559598923,-0.035843100398778915,-0.3904848098754883,-0.40573081374168396,0.6481823921203613,-0.18609744310379028,-0.18663667142391205,-0.04535717889666557,-0.018106168136000633,0.9433234333992004,-0.26016852259635925,-0.07948218286037445,-1.220044732093811,-2.3126587867736816,5.528158664703369,-5.260417461395264,1.7886916399002075,1.8912138938903809,1.0297303199768066,-8.590723037719727,4.499262809753418,16.14875602722168,-2.8044023513793945,-40.693931579589844,13.89836597442627,-26.156211853027344,14.277107238769531,3.949474334716797,1.013946533203125,0.27659034729003906,0.07502555847167969
0.26,0.0,0.0,0.0,-0.025302741676568985,0.03262653201818466,0.9018749594688416,-0.3538394272327423,0.25727954506874084,-0.7771966457366943,-0.6725831031799316,0.2571021616458893,-0.06524407863616943,-0.035312470048666,-0.4047635495662689,-0.42855507135391235,0.7025976181030273,-0.23212283849716187,-0.166952982544899,-0.0310906283557415,-0.01110721193253994,0.8628868460655212,-0.21388545632362366,0.15134108066558838,-1.5566492080688477,-2.1525299549102783,5.1501946449279785,-4.399874210357666,1.96964430809021,1.0454957485198975,0.30135324597358704,-7.1969099044799805,4.437620639801025,8.551543235778809,0.4791334271430969,-32.262020111083984,11.220884323120117,-12.271346092224121,6.407726764678955,6.226600646972656,0.5038585662841797,0.5041904449462891,0.10520362854003906
0.27,0.0,0.0,0.0,-0.026282191276550293,0.03346901014447212,0.8922723531723022,-0.3863619565963745,0.27264124155044556,-0.8815905451774597,-0.5009976625442505,0.3358769416809082,-0.08970381319522858,-0.03260336071252823,-0.42158469557762146,-0.45052510499954224,0.7550547122955322,-0.27197593450546265,-0.14706237614154816,-0.024516161531209946,-0.011174294166266918,0.7962681651115417,-0.17268748581409454,0.3718068599700928,-1.7391988039016724,-2.108470916748047,5.064253807067871,-3.8013663291931152,1.897544026374817,0.35136497020721436,-0.34216293692588806,-5.948960781097412,3.945981502532959,5.594213485717773,1.7685303688049316,-27.592708587646484,13.152271270751953,-10.440526008605957,4.6667633056640625,4.5787200927734375,1.3522071838378906,0.41100502014160156,0.1870250701904297
0.28,0.0,0.0,0.0,-0.027323395013809204,0.03442498296499252,0.8815251588821411,-0.41604912281036377,0.2879229187965393,-0.984474241733551,-0.4005239009857178,0.4280259907245636,-0.1064227819442749,-0.027711166068911552,-0.4395909607410431,-0.472324937582016,0.8076026439666748,-0.3061378598213196,-0.12780137360095978,-0.023892832919955254,-0.0175546295940876,0.7419856190681458,-0.14079301059246063,0.5938982367515564,-1.8031842708587646,-2.1011803150177,5.137718200683594,-3.24552059173584,1.8556314706802368,-0.15935613214969635,-0.9281399250030518,-4.838827133178711,3.041229724884033,4.608132362365723,2.036400079727173,-23.320077896118164,14.361624717712402,-10.684728622436523,5.011502265930176,2.7653121948242188,2.4038314819335938,0.29524898529052734,0.25920677185058594
0.29,0.0,0.0,0.0,-0.02841564267873764,0.03540630638599396,0.8697628378868103,-0.4448995292186737,0.2744435667991638,-1.048383116722107,-0.27972516417503357,0.3504277765750885,-0.2011614441871643,-0.020143713802099228,-0.45813417434692383,-0.4929457902908325,0.8600499629974365,-0.33473482728004456,-0.10964185744524002,-0.025912204757332802,-0.032360516488552094,0.7350980639457703,-0.18153762817382812,0.9540377855300903,-1.8362418413162231,-1.773908019065857,5.025079727172852,-2.705230474472046,1.5240217447280884,0.24721837043762207,-1.7712312936782837,4.527066230773926,-9.982208251953125,4.24830436706543,1.9267513751983643,-19.81303596496582,11.99751091003418,-5.773351669311523,4.715590476989746,-13.959060668945312,1.9643878936767578,30.0,0.23049163818359375
0.3,0.0,0.0,0.0,-0.02984754368662834,0.03609117865562439,0.858391284942627,-0.295520544052124,0.2160099744796753,-0.9372687935829163,-0.0736314058303833,1.9344984292984009,0.04884785786271095,-0.008687996305525303,-0.4619593024253845,-0.5159763693809509,0.934270441532135,-0.35505181550979614,-0.07794348895549774,-0.02546105533838272,-0.053496867418289185,0.7385674715042114,-0.28659161925315857,1.3692573308944702,0.877720296382904,-2.3507916927337646,8.646440505981445,-1.7468016147613525,4.160139083862305,-0.28181400895118713,-2.6613337993621826,-2.6891977787017822,-10.215483665466309,57.320430755615234,-15.402188301086426,-184.3104248046875,218.69972229003906,-274.52349853515625,137.14488220214844,-206.9566650390625,67.16229248046875,30.0,4.346597671508789
0.31,0.0,0.0,0.0,-0.03202315792441368,0.03655112162232399,0.8482745289802551,-0.1806478053331375,0.046290501952171326,-0.7489228248596191,1.0501247644424438,2.938370704650879,-0.2528478801250458,0.018927084282040596,-0.4460999369621277,-0.5396300554275513,1.0467135906219482,-0.4231572151184082,-0.06418424099683762,-0.03667868301272392,-0.11036071181297302,0.7701550126075745,-0.3448903560638428,3.8621206283569336,2.2279715538024902,-1.8447823524475098,12.113798141479492,-6.745564937591553,2.189542293548584,-0.7417956590652466,-7.682790279388428,6.941957950592041,0.30106115341186523,69.7806167602539,4.5537872314453125,-233.5727081298828,201.66622924804688,-217.1493377685547,106.89498138427734,-215.89511108398438,56.82773208618164,26.73370361328125,3.6535682678222656
0.32,0.0,0.0,0.0,-0.0341833233833313,0.03694339469075203,0.8414492011070251,-0.11963453888893127,-0.0502333790063858,-0.40386179089546204,1.4520915746688843,1.836974024772644,0.0314018540084362,0.058525387197732925,-0.40870752930641174,-0.5299040675163269,1.1367794275283813,-0.43808677792549133,-0.06323263794183731,-0.0509461984038353,-0.16428503394126892,0.8143928050994873,-0.35791274905204773,3.788616180419922,4.897660732269287,2.8137385845184326,7.374166011810303,-1.4190161228179932,1.1901507377624512,-1.3025561571121216,-4.031009674072266,2.847418785095215,-1.5771647691726685,-5.466479778289795,-13.666244506835938,-83.63900756835938,148.24044799804688,-122.6043701171875,86.453125,-268.73883056640625,17.45960235595703,-13.186944961547852,0.35549306869506836
0.33,0.0,0.0,0.0,-0.03601841628551483,0.03727802634239197,0.8379919528961182,-0.020249133929610252,-0.13751690089702606,-0.14442791044712067,1.8570560216903687,1.827726125717163,0.28022658824920654,0.08896183967590332,-0.3564997613430023,-0.4963226020336151,1.1895793676376343,-0.43958261609077454,-0.06470213085412979,-0.06970758736133575,-0.19807793200016022,0.8288260102272034,-0.35813724994659424,2.6391994953155518,5.289933204650879,3.550947666168213,4.366176128387451,-0.24308907985687256,0.6742788553237915,-1.8413153886795044,-2.660108804702759,0.31865280866622925,-0.3760840892791748,-43.37494659423828,-2.18544864654541,100.13285064697266,-5.217369079589844,-50.79852294921875,-7.070384979248047,-239.58950805664062,-0.9552803039550781,-30.0,-0.8443711996078491
0.34,0.0,0.0,0.0,-0.037727199494838715,0.0375630185008049,0.8368902802467346,0.04694574326276779,-0.1677623838186264,0.034468941390514374,1.9974708557128906,1.9224605560302734,0.28117626905441284,0.11161132156848907,-0.3086473345756531,-0.4596835970878601,1.2074275016784668,-0.41968661546707153,-0.06788609176874161,-0.09083437919616699,-0.2229817658662796,0.8240015506744385,-0.34750404953956604,2.1277718544006348,4.207551002502441,3.427079677581787,0.7343136072158813,1.8297219276428223,0.17964565753936768,-2.175203800201416,-1.9507685899734497,-1.4490947723388672,0.3081979751586914,-59.457847595214844,7.7337646484375,202.36732482910156,-97.89579772949219,30.892690658569336,-60.037620544433594,-163.73802185058594,-22.271642684936523,-30.0,-2.462167739868164
0.35000000000000003,0.0,0.0,0.0,-0.03931272774934769,0.03776443749666214,0.8373903036117554,0.054979078471660614,-0.15323887765407562,0.15501728653907776,1.6325042247772217,1.5739657878875732,0.18975408375263214,0.12928056716918945,-0.2690584659576416,-0.42278215289115906,1.193084478378296,-0.3944651186466217,-0.07115212827920914,-0.11000464856624603,-0.24028989672660828,0.8082143664360046,-0.3335498869419098,1.5471700429916382,3.665713310241699,3.596278429031372,-2.31803822517395,2.295321226119995,-0.0688638985157013,-1.7535583972930908,-1.0930776596069336,-2.3445804119110107,1.4154341220855713,-43.769371032714844,3.509052276611328,217.2462158203125,-97.30658721923828,68.30402374267578,-56.51530456542969,-100.66277313232422,-21.154653549194336,-30.0,-2.265078544616699
0.36,0.0,0.0,0.0,-0.04072001576423645,0.037810564041137695,0.838942289352417,0.05447719991207123,-0.12697657942771912,0.23219169676303864,1.203297734260559,1.281407356262207,0.099160335958004,0.1443098783493042,-0.23464687168598175,-0.38362717628479004,1.1546505689620972,-0.38191837072372437,-0.07364020496606827,-0.12444434314966202,-0.2498631775379181,0.7863259315490723,-0.3160817325115204,1.4240052700042725,3.229637861251831,3.8740944862365723,-4.396760940551758,1.013573169708252,-0.3333205580711365,-1.2592461109161377,-0.5022607445716858,-2.7812609672546387,1.8431525230407715,-30.473106384277344,2.050528049468994,193.4757537841797,-82.7547836303711,51.432369232177734,-37.007362365722656,-80.97322082519531,-12.753719329833984,-30.0,-1.6451387405395508
0.37,0.0,0.0,0.0,-0.04200689494609833,0.037670690566301346,0.841120719909668,0.06179787591099739,-0.10229039937257767,0.2698945105075836,0.7713381052017212,1.2185901403427124,0.0338500440120697,0.15839079022407532,-0.20406167209148407,-0.34457093477249146,1.1031311750411987,-0.37831375002861023,-0.07604224979877472,-0.13388922810554504,-0.2558552324771881,0.7624913454055786,-0.2985636591911316,1.3427040576934814,2.9461498260498047,3.7046799659729004,-5.170947551727295,0.160162553191185,-0.3345221281051636,-0.7250832915306091,-0.0800945833325386,-3.257134437561035,1.845181941986084,-22.100086212158203,0.6328878402709961,168.29669189453125,-66.32110595703125,26.44241714477539,-21.834278106689453,-74.43020629882812,-1.6967506408691406,-30.0,-0.7314696311950684
0.38,0.0,0.0,0.0,-0.043247587978839874,0.03736560046672821,0.8435684442520142,0.06654255837202072,-0.09037872403860092,0.2832520604133606,0.5567838549613953,1.2642529010772705,-0.017266498878598213,0.17094109952449799,-0.17738355696201324,-0.3095117211341858,1.0501981973648071,-0.3753756880760193,-0.07885300368070602,-0.1396561861038208,-0.2621288597583771,0.7409039735794067,-0.2888110280036926,1.1606895923614502,2.4934680461883545,3.216991901397705,-4.890704154968262,0.15663708746433258,-0.5399933457374573,-0.475710928440094,-0.2613389492034912,-2.967421770095825,1.8871960639953613,-15.888534545898438,-0.46581172943115234,133.42959594726562,-54.9140510559082,13.69251823425293,-12.860162734985352,-64.94572448730469,6.066936492919922,-30.0,0.07139992713928223
0.39,0.0,0.0,0.0,-0.044474128633737564,0.03699753060936928,0.8461310267448425,0.06395509093999863,-0.08747634291648865,0.2958480417728424,0.5389918088912964,1.2575825452804565,-0.05184585228562355,0.18233425915241241,-0.15639683604240417,-0.2787492275238037,1.0019758939743042,-0.36733677983283997,-0.08338286727666855,-0.14427590370178223,-0.2703913450241089,0.7253327965736389,-0.29562655091285706,1.0894429683685303,1.8107680082321167,2.8759655952453613,-4.335899353027344,0.7082241773605347,-0.7614900469779968,-0.48139625787734985,-0.6092702150344849,-2.026780366897583,-0.3131800889968872,-15.450443267822266,0.1634511947631836,114.65697479248047,-53.16674041748047,13.037564277648926,-7.290872573852539,-62.12725830078125,8.367606163024902,-30.0,0.19179391860961914
0.4,0.0,0.0,0.0,-0.045705147087574005,0.03670462220907211,0.8487794399261475,0.055482227355241776,-0.09377181529998779,0.30437982082366943,0.7491887807846069,1.2126140594482422,-0.1329686939716339,0.19402892887592316,-0.1435520350933075,-0.25033384561538696,0.9592323899269104,-0.35478195548057556,-0.09077184647321701,-0.15056465566158295,-0.28181689977645874,0.7205758690834045,-0.33595576882362366,1.1790368556976318,0.8647054433822632,2.732095241546631,-3.8652303218841553,1.1749064922332764,-1.1691125631332397,-0.7621331214904785,-1.2064906358718872,-0.19630149006843567,-5.536740779876709,-9.79635238647461,1.234792709350586,89.2252426147461,-51.04286575317383,13.680089950561523,-4.418997764587402,-59.52609634399414,6.948362350463867,-30.0,0.1411757469177246
0.41000000000000003,0.0,0.0,0.0,-0.046912334859371185,0.0365741103887558,0.8513383865356445,0.037522971630096436,-0.09515421092510223,0.27145054936408997,0.9302272796630859,1.034428596496582,-0.285468190908432,0.20468105375766754,-0.13934551179409027,-0.22094087302684784,0.9175781011581421,-0.34259411692619324,-0.09955831617116928,-0.15964865684509277,-0.2936871647834778,0.721623420715332,-0.3990212380886078,0.9465445876121521,0.09672803431749344,2.9734675884246826,-4.018265724182129,1.077041506767273,-1.0658025741577148,-1.0073450803756714,-0.8338508605957031,0.1049148365855217,-7.581265449523926,1.8932371139526367,-1.4749441146850586,60.38029479980469,-42.10539245605469,13.36461067199707,0.4971036911010742,-35.24570846557617,2.5786819458007812,-30.0,-0.1069951057434082
0.42,0.0,0.0,0.0,-0.04808972030878067,0.03649188205599785,0.8534191250801086,0.013632720336318016,-0.09482870995998383,0.21406027674674988,0.9075560569763184,0.9605915546417236,-0.2898159921169281,0.2071596384048462,-0.1404784768819809,-0.19059069454669952,0.8737629652023315,-0.33230602741241455,-0.10027799755334854,-0.16839389503002167,-0.3025742769241333,0.7254498600959778,-0.4712600111961365,-0.23944063484668732,-0.2695976197719574,2.954373598098755,-4.293488502502441,0.9151509404182434,0.5295926928520203,-0.7351135015487671,-0.7846883535385132,0.5473581552505493,-7.373754024505615,2.754864454269409,-5.580061912536621,48.66551971435547,-27.77568244934082,12.95577621459961,0.46563053131103516,-13.710131645202637,0.9055995941162109,-22.430233001708984,-0.1785140037536621
0.43,0.0,0.0,0.0,-0.04931620508432388,0.036329008638858795,0.8547653555870056,-0.0072942995466291904,-0.09161332994699478,0.13353976607322693,0.7943218946456909,0.9661315679550171,-0.28239455819129944,0.1996169537305832,-0.14388251304626465,-0.16345004737377167,0.8333562612533569,-0.3175564110279083,-0.09083962440490723,-0.17513780295848846,-0.3109839856624603,0.7313159108161926,-0.5335814952850342,-1.056759238243103,-0.375865638256073,2.4539058208465576,-3.556663751602173,1.412932276725769,1.1276135444641113,-0.5859237313270569,-0.9618257880210876,0.8005545735359192,-5.627140045166016,-2.0636370182037354,-2.608110189437866,36.6909065246582,-13.808822631835938,12.314339637756348,-4.168478965759277,-4.332777976989746,4.927926063537598,-9.121349334716797,0.21342849731445312
0.44,0.0,0.0,0.0,-0.0506155751645565,0.036052972078323364,0.8553702235221863,-0.019172044470906258,-0.08948610723018646,0.06609612703323364,0.6650528311729431,1.0150624513626099,-0.2843170464038849,0.18720512092113495,-0.1478516012430191,-0.1426488608121872,0.8043113350868225,-0.2950066924095154,-0.08090799301862717,-0.18082332611083984,-0.3206341862678528,0.7329656481742859,-0.5634080767631531,-1.2903398275375366,-0.36715996265411377,1.7694841623306274,-2.2266392707824707,2.2202959060668945,0.730606198310852,-0.491389662027359,-1.0671621561050415,0.17886827886104584,-2.4044907093048096,-8.207259178161621,0.755091667175293,40.67522048950195,-8.596311569213867,8.485307693481445,-5.685115814208984,-17.25643539428711,7.863918304443359,-15.621554374694824,0.48365116119384766
0.45,0.0,0.0,0.0,-0.05198711156845093,0.035688165575265884,0.8556479215621948,-0.027139389887452126,-0.07667427510023117,0.06555991619825363,0.5030738711357117,1.0379979610443115,-0.3076091706752777,0.17813223600387573,-0.1516915261745453,-0.12979868054389954,0.7893466353416443,-0.3119226396083832,-0.0807270035147667,-0.1860647201538086,-0.3309880197048187,0.7234039902687073,-0.5518048405647278,-0.5946522355079651,-0.3591756224632263,0.881752073764801,-1.3010220527648926,-0.8614743947982788,-0.3793434798717499,-0.4891783595085144,-1.0672184228897095,-1.1072767972946167,1.4930039644241333,-18.077407836914062,4.86838960647583,51.53275680541992,-0.15072870254516602,8.207012176513672,-8.511026382446289,-45.08240509033203,8.796317100524902,-30.0,26.46706199645996
0.46,0.0,0.0,0.0,-0.053476832807064056,0.03507577255368233,0.8563937544822693,-0.05524524301290512,-0.025245139375329018,0.15128114819526672,-0.3256787657737732,0.8646802306175232,-0.14449907839298248,0.15536366403102875,-0.15469440817832947,-0.1288844347000122,0.7690001726150513,-0.32865622639656067,-0.08527173846960068,-0.18529760837554932,-0.34054383635520935,0.7106542587280273,-0.5283101797103882,-3.2194299697875977,-0.09830199927091599,-0.5211910009384155,-2.6428000926971436,1.3018198013305664,0.08192861080169678,0.5215222239494324,-0.7105140089988708,-1.1504919528961182,2.5291357040405273,-29.767526626586914,-6.490874290466309,144.44317626953125,-24.644695281982422,47.165645599365234,-23.35488510131836,-52.4588623046875,3.026003837585449,-30.0,30.0
0.47000000000000003,0.0,0.0,0.0,-0.054993972182273865,0.034272078424692154,0.8577942252159119,-0.07547616958618164,-0.03667035698890686,0.19916857779026031,-0.19965192675590515,0.5645744204521179,-0.1576758474111557,0.13307228684425354,-0.1541317105293274,-0.13259536027908325,0.7497593760490417,-0.32954466342926025,-0.08940205723047256,-0.1808944195508957,-0.34979256987571716,0.7111291289329529,-0.544059157371521,-1.5520814657211304,0.12623940408229828,-0.20239873230457306,-2.0720372200012207,1.2851428985595703,-0.4711323380470276,0.37162214517593384,-0.6229091286659241,0.15728753805160522,-3.305663585662842,-9.805704116821289,4.578079700469971,30.120418548583984,7.766347408294678,-4.072000503540039,11.168614387512207,-73.64009857177734,11.051799774169922,-30.0,28.092266082763672
0.48,0.0,0.0,0.0,-0.05647009611129761,0.033483050763607025,0.8595374822616577,-0.0752585381269455,-0.04009268060326576,0.21503086388111115,-0.18726131319999695,0.5513292551040649,-0.16452115774154663,0.12022395431995392,-0.153046652674675,-0.13399481773376465,0.7309788465499878,-0.3263244330883026,-0.08955001831054688,-0.17706559598445892,-0.3545980751514435,0.7088586091995239,-0.5629613995552063,-1.0958126783370972,0.15831178426742554,-0.08328619599342346,-2.0532915592193604,0.9530667066574097,0.15420854091644287,0.42254364490509033,-0.24115325510501862,-0.3350464701652527,-2.8839216232299805,1.6324219703674316,-1.6732573509216309,27.061426162719727,8.026479721069336,-17.557357788085938,9.83162784576416,-62.795589447021484,1.9693679809570312,-30.0,22.67814064025879
0.49,0.0,0.0,0.0,-0.05789850652217865,0.03270864114165306,0.8613969087600708,-0.08910101652145386,-0.041687238961458206,0.22014743089675903,-0.1327570676803589,0.3482830822467804,-0.16155555844306946,0.10996289551258087,-0.15172936022281647,-0.13155727088451385,0.7086356282234192,-0.32403379678726196,-0.08540813624858856,-0.17344877123832703,-0.35723549127578735,0.7095865607261658,-0.5957913994789124,-0.9491680264472961,0.1377364844083786,0.4748099744319916,-2.4946932792663574,0.6254445910453796,0.5200767517089844,0.28067976236343384,-0.0018093287944793701,0.04277591407299042,-5.446186065673828,5.081352233886719,-3.366926670074463,17.258888244628906,8.092249870300293,-7.992378234863281,10.240510940551758,-48.35188674926758,-0.8539142608642578,-30.0,20.78719711303711
0.5,0.0,0.0,0.0,-0.05928653106093407,0.03197407349944115,0.8630889058113098,-0.0985691100358963,-0.043268464505672455,0.1868959218263626,-0.0791471004486084,0.30795496702194214,-0.19081783294677734,0.09619245678186417,-0.15083256363868713,-0.1257668137550354,0.6818460822105408,-0.3253754675388336,-0.07617031782865524,-0.17029127478599548,-0.35825246572494507,0.7143664956092834,-0.6426350474357605,-1.5574209690093994,0.04567323625087738,0.625451385974884,-2.830087184906006,-0.23645275831222534,1.3305857181549072,0.21362414956092834,-0.08589661866426468,0.5452472567558289,-5.898287773132324,6.4563164710998535,-4.100225925445557,12.906057357788086,-9.348073959350586,1.0569013357162476,-1.2091870307922363,-17.631065368652344,-7.992530822753906,-9.53348159790039,25.622325897216797
0.51,0.0,0.0,0.0,-0.06065874919295311,0.03128160536289215,0.8642770051956177,-0.11175278574228287,-0.04014106094837189,0.12033553421497345,-0.11211282759904861,0.19072413444519043,-0.2094477415084839,0.07359515130519867,-0.15037322044372559,-0.11837877333164215,0.65259850025177,-0.33248239755630493,-0.058747824281454086,-0.1674187183380127,-0.3573724329471588,0.7217938303947449,-0.6880913972854614,-2.56514048576355,0.05486571788787842,0.8011340498924255,-3.0706191062927246,-0.8631548881530762,1.9777928590774536,0.3467002511024475,0.25337493419647217,0.8619449734687805,-4.354443073272705,2.0481929779052734,-4.110976219177246,13.975573539733887,-24.021263122558594,14.955145835876465,-8.982196807861328,8.284566879272461,-13.633712768554688,1.2764205932617188,30.0
0.52,0.0,0.0,0.0,-0.06196969747543335,0.030664432793855667,0.8646228313446045,-0.15734334290027618,-0.035585466772317886,0.023543450981378555,-0.0055449469946324825,-0.3142235279083252,-0.4070635437965393,0.021267050877213478,-0.15587042272090912,-0.10656771808862686,0.6026614904403687,-0.3483726978302002,-0.035286661237478256,-0.16060271859169006,-0.3633914291858673,0.7854224443435669,-0.6422284245491028,-6.260079383850098,-1.255777359008789,1.4981622695922852,-5.479631423950195,-2.096627950668335,2.6173274517059326,0.8870460391044617,-0.61012202501297,9.766890525817871,5.098449230194092,-7.269815921783447,-2.1163101196289062,59.30885696411133,-110.72710418701172,106.81990814208984,-69.98413848876953,83.77825927734375,-56.236236572265625,6.183746337890625,30.0
0.53,0.0,0.0,0.0,-0.063310906291008,0.029992805793881416,0.8638937473297119,-0.13414984941482544,-0.02751730941236019,-0.0881962701678276,-0.3249611258506775,0.19840998947620392,-0.636735737323761,-0.04092102870345116,-0.162422776222229,-0.10441744327545166,0.5617978572845459,-0.3675362169742584,-0.026763197034597397,-0.1481296569108963,-0.37573936581611633,0.89431232213974,-0.6282340884208679,-5.753768444061279,-0.1966542750597,-0.5814106464385986,-3.2708418369293213,-1.565158724784851,-0.15300630033016205,1.3355743885040283,-1.3545442819595337,10.899637222290039,1.3225919008255005,-24.82017707824707,8.071855545043945,-33.23155975341797,49.21440124511719,40.18480682373047,-61.9138069152832,16.469955444335938,-16.378475189208984,1.2827715873718262,8.011343002319336
0.54,0.0,0.0,0.0,-0.06462535262107849,0.02926609478890896,0.8627373576164246,-0.124702088534832,0.02489520236849785,-0.08020889759063721,-0.7691672444343567,0.11043667793273926,-0.3856866657733917,-0.06339415162801743,-0.1565534472465515,-0.11432480067014694,0.5649185180664062,-0.371589720249176,-0.03318037465214729,-0.1357536017894745,-0.37892407178878784,0.9781566858291626,-0.5990666151046753,-1.0257673263549805,1.0380446910858154,-1.0609660148620605,0.7404957413673401,1.137589454650879,-1.0779505968093872,1.1135811805725098,0.36221379041671753,6.724067211151123,2.775385618209839,-13.839763641357422,-16.766698837280273,-61.394779205322266,85.71939086914062,20.340848922729492,-22.59390640258789,-13.914070129394531,-22.99392318725586,-0.9022359848022461,-30.0
0.55,0.0,0.0,0.0,-0.06544121354818344,0.028857607394456863,0.8621153831481934,-0.10528261214494705,0.052475705742836,-0.004253998398780823,-0.6870047450065613,-0.43185943365097046,-0.023374788463115692,-0.06307349354028702,-0.14852923154830933,-0.11255823820829391,0.564835250377655,-0.371590793132782,-0.04602281376719475,-0.12785138189792633,-0.3530391752719879,0.9982591271400452,-0.5521222949028015,0.9088889360427856,0.8982452154159546,0.9133462905883789,-0.9651710987091064,1.664473295211792,-1.5030083656311035,0.6268283128738403,3.8370678424835205,-0.7387373447418213,4.404119968414307,-6.159642696380615,-25.452672958374023,-20.114337921142578,2.1390233039855957,25.038850784301758,-30.874713897705078,-29.922029495239258,-65.59144592285156,-2.3362903594970703,-30.0
0.56,0.0,0.0,0.0,-0.06579861789941788,0.028721880167722702,0.862071692943573,-0.07386530190706253,0.047852128744125366,0.030166612938046455,-0.5110573768615723,-0.5024776458740234,-0.053006965667009354,-0.061609163880348206,-0.1419483721256256,-0.10346011072397232,0.5583428144454956,-0.3679805099964142,-0.0662856325507164,-0.1191822737455368,-0.30457383394241333,0.9678952693939209,-0.5001750588417053,0.4968414902687073,0.6669835448265076,1.0662544965744019,-1.0064712762832642,0.730652928352356,-2.329695463180542,1.1324666738510132,5.320474624633789,-4.141331195831299,4.9242963790893555,-5.105836868286133,-0.7665560245513916,59.15669250488281,-105.23126220703125,23.122825622558594,-47.7063102722168,-7.423708915710449,-75.5730209350586,-0.6775779724121094,-30.0
0.5700000000000001,0.0,0.0,0.0,-0.06599731743335724,0.028697963804006577,0.8621602654457092,-0.03756370767951012,0.051960453391075134,0.026260709390044212,-0.5035079121589661,-0.17798607051372528,-0.050137024372816086,-0.060464344918727875,-0.1362352967262268,-0.09595847874879837,0.5513190627098083,-0.3645116686820984,-0.09152188897132874,-0.10425199568271637,-0.25215795636177063,0.9192682504653931,-0.4439174234867096,0.3653970956802368,0.67375248670578,0.6405284404754639,-0.9099224805831909,1.1634819507598877,-2.5155327320098877,1.878373146057129,4.937404155731201,-4.871964454650879,5.38162088394165,2.1017799377441406,12.730731010437012,67.67598724365234,-106.14706420898438,-16.045331954956055,-16.44023895263672,-4.933940887451172,-54.755863189697266,-0.5474777221679688,-30.0
0.58,0.0,0.0,0.0,-0.06625457853078842,0.028765389695763588,0.8620634078979492,-0.010775518603622913,0.061699043959379196,-0.0021733024623245,-0.4509085714817047,0.20211315155029297,-0.04569847509264946,-0.05927642434835434,-0.1306970715522766,-0.09434470534324646,0.5474253296852112,-0.361908495426178,-0.11379192769527435,-0.0843801200389862,-0.20542050898075104,0.8638108372688293,-0.37451666593551636,-0.17036913335323334,0.5333167314529419,-0.17877084016799927,-0.25853487849235535,0.4159148931503296,-1.912216305732727,2.162379503250122,4.200319766998291,-5.446592330932617,6.690452575683594,6.6729583740234375,15.164773941040039,36.06840515136719,-67.98783111572266,-36.15735626220703,8.101791381835938,-10.68687629699707,-31.778411865234375,-0.9657058715820312,-30.0
0.59,0.0,0.0,0.0,-0.06668150424957275,0.02896139584481716,0.8614998459815979,0.006595213897526264,0.07734557241201401,-0.06006902456283569,-0.429225891828537,0.5808593034744263,-0.053684599697589874,-0.05894694849848747,-0.12585310637950897,-0.1020093634724617,0.5539165735244751,-0.371833473443985,-0.12828591465950012,-0.06296717375516891,-0.166751429438591,0.8030730485916138,-0.29910895228385925,-0.1009092628955841,0.44780176877975464,-1.1374073028564453,0.9588518142700195,-1.3644543886184692,-1.0747466087341309,2.133497476577759,3.307037830352783,-5.613818645477295,2.8301568031311035,7.887699127197266,12.3418550491333,4.85976505279541,-19.6434268951416,-43.190067291259766,20.912996292114258,-14.345895767211914,-9.976091384887695,-1.216094970703125,-21.313810348510742
0.6,0.0,0.0,0.0,-0.0673038437962532,0.029443765059113503,0.8605160713195801,-0.006455664988607168,0.06617730855941772,-0.08240294456481934,-0.2818807363510132,0.5810438394546509,0.010353488847613335,-0.04630574956536293,-0.11526024341583252,-0.11541104316711426,0.5883433222770691,-0.4124997556209564,-0.12188146263360977,-0.059655625373125076,-0.1394186019897461,0.7515053749084473,-0.3522629737854004,1.868896722793579,1.8649585247039795,-1.1491848230361938,4.456119537353516,-3.888211250305176,1.3566045761108398,0.4939761459827423,2.3742902278900146,-4.465740203857422,-5.002993583679199,23.20437240600586,-8.407770156860352,-86.57806396484375,123.49954223632812,-72.32012176513672,66.77757263183594,-55.75823211669922,36.42354965209961,30.0,3.889497756958008
0.61,0.0,0.0,0.0,-0.0680834949016571,0.02970287948846817,0.8593285083770752,-0.014751707203686237,0.01955392211675644,-0.10668893158435822,0.1020161360502243,0.66388338804245,0.05069825425744057,-0.026190700009465218,-0.09329205751419067,-0.1292026937007904,0.6434007883071899,-0.4028905928134918,-0.09116068482398987,-0.05667218193411827,-0.12175355106592178,0.7141322493553162,-0.3949797451496124,1.9798938035964966,2.5284013748168945,-1.2625641822814941,6.086840629577637,1.1960140466690063,4.020893573760986,0.21976760029792786,1.4520022869110107,-3.197942018508911,-3.0343053340911865,29.817907333374023,-11.184039115905762,-89.26032257080078,88.20127868652344,-66.42870330810547,56.05955505371094,-45.919254302978516,27.94806671142578,30.0,2.4732322692871094
0.62,0.0,0.0,0.0,-0.06889868527650833,0.029930951073765755,0.8579462766647339,-0.008980254642665386,-0.013803238980472088,-0.12085290253162384,0.44223538041114807,0.7132323384284973,0.051047611981630325,-0.008270992897450924,-0.06772836297750473,-0.1385350376367569,0.6912528872489929,-0.3710569441318512,-0.05628253147006035,-0.05751464515924454,-0.11147427558898926,0.6865648031234741,-0.4225993752479553,1.6643590927124023,2.5770819187164307,-0.6655070185661316,3.956244707107544,3.114140033721924,2.401055097579956,-0.3798292279243469,0.7104981541633606,-2.5451929569244385,-2.654726266860962,9.43415641784668,-4.204621315002441,-37.62061309814453,34.54053497314453,-22.617212295532227,9.538496971130371,-25.382593154907227,-4.7206573486328125,30.0,-0.469085693359375
0.63,0.0,0.0,0.0,-0.06967799365520477,0.030214808881282806,0.8565152287483215,-0.010207024402916431,-0.018994219601154327,-0.11319492757320404,0.567561686038971,0.6683118343353271,-0.12624870240688324,0.0038609071634709835,-0.04604613035917282,-0.14300253987312317,0.7202456593513489,-0.38170957565307617,-0.043386947363615036,-0.06230393424630165,-0.1063433364033699,0.6651735901832581,-0.44639426469802856,0.8504601120948792,1.7613401412963867,-0.32632508873939514,1.8323163986206055,-0.5819549560546875,0.8452348113059998,-0.5345691442489624,0.41855573654174805,-2.0709526538848877,-1.9421391487121582,16.033573150634766,-4.6481523513793945,28.65758514404297,-12.086441993713379,-5.253839015960693,0.14788353443145752,-18.218168258666992,-7.9646315574646,30.0,15.934972763061523
0.64,0.0,0.0,0.0,-0.07046680897474289,0.030594628304243088,0.8552749156951904,-0.010188170708715916,0.0038685984909534454,-0.08780917525291443,0.40102049708366394,0.667255699634552,-0.15343300998210907,0.004665064625442028,-0.033709798008203506,-0.1429893672466278,0.7234498858451843,-0.4025228023529053,-0.03865199536085129,-0.06682601571083069,-0.10472730547189713,0.6488779783248901,-0.46370986104011536,-0.3748576045036316,0.8000240921974182,0.15008506178855896,-0.6733561754226685,-1.3357555866241455,0.1824221909046173,-0.3121471405029297,-0.025440741330385208,-1.3417549133300781,-1.385650396347046,17.01158905029297,-4.929255485534668,50.15171432495117,-10.366902351379395,-21.038576126098633,15.419371604919434,-24.084321975708008,-4.2110137939453125,30.0,30.0
0.65,0.0,0.0,0.0,-0.07127901166677475,0.031040729954838753,0.8542426228523254,-0.018304893746972084,0.025750093162059784,-0.06805789470672607,0.22760717570781708,0.5644051432609558,-0.132877379655838,-0.0017650143709033728,-0.030380019918084145,-0.14106494188308716,0.7170733213424683,-0.4173910617828369,-0.036454733461141586,-0.07050449401140213,-0.10512804239988327,0.6364619135856628,-0.477487713098526,-0.48889315128326416,0.06764785945415497,0.253551721572876,-0.7904931306838989,-0.4585484266281128,-0.7577458620071411,-0.3524794280529022,-0.1189388781785965,-1.095170259475708,-0.8861746788024902,15.621809959411621,-2.7815189361572266,54.028255462646484,-4.838523864746094,-35.37464141845703,36.61170959472656,-36.407432556152344,15.755256652832031,30.0,30.0
0.66,0.0,0.0,0.0,-0.07212264835834503,0.031488772481679916,0.8536006212234497,-0.030233077704906464,0.01982245407998562,-0.008727244101464748,0.27644598484039307,0.46694961190223694,-0.044218651950359344,-0.004478896502405405,-0.03256751596927643,-0.1397264301776886,0.7101670503616333,-0.43328699469566345,-0.036179911345243454,-0.07378961890935898,-0.11059790849685669,0.6336036920547485,-0.4829433262348175,-0.21894735097885132,-0.35075074434280396,0.13374656438827515,-0.9032427668571472,0.440883994102478,-0.18773165345191956,-0.38911184668540955,-0.8487458229064941,0.12164685130119324,1.0516146421432495,13.146657943725586,-3.5225744247436523,43.761573791503906,-2.537738800048828,-44.475311279296875,46.16236114501953,-50.96141815185547,25.272001266479492,30.0,30.0
0.67,0.0,0.0,0.0,-0.07288271933794022,0.03183154761791229,0.8535798788070679,-0.030116630718111992,0.013206432573497295,0.04896321892738342,0.17351070046424866,0.323539137840271,-0.06224566698074341,-0.0049585080705583096,-0.035513997077941895,-0.13915665447711945,0.7018380165100098,-0.4427341818809509,-0.03608713299036026,-0.07668852806091309,-0.11624352633953094,0.6332805156707764,-0.4813556671142578,0.020400110632181168,-0.23472313582897186,0.0072181448340415955,-0.945209801197052,0.9200828671455383,-0.23558664321899414,-0.24951717257499695,-0.3414531350135803,-0.41618743538856506,0.8874834775924683,6.572843551635742,-2.6230387687683105,46.36769485473633,6.749706268310547,-39.480796813964844,36.282257080078125,-64.0285873413086,22.90140724182129,30.0,30.0
0.68,0.0,0.0,0.0,-0.0734904333949089,0.032012857496738434,0.8541237115859985,-0.026579085737466812,0.007485434412956238,0.10032537579536438,0.07126818597316742,0.19996601343154907,-0.05250953510403633,-0.004601961467415094,-0.037203650921583176,-0.13876992464065552,0.6940480470657349,-0.4443642795085907,-0.03559533506631851,-0.07819808274507523,-0.1179484874010086,0.6286312937736511,-0.4774537682533264,-0.0023137014359235764,-0.10068130493164062,0.08483922481536865,-0.9743227958679199,0.969622015953064,-0.2689654231071472,-0.12823262810707092,0.03009728714823723,-0.8614161014556885,0.8749117851257324,6.542672157287598,-2.369807481765747,42.35213851928711,7.614806175231934,-38.157291412353516,33.415645599365234,-61.612335205078125,17.76958465576172,30.0,30.0
0.6900000000000001,0.0,0.0,0.0,-0.07394351065158844,0.03205350786447525,0.8551076650619507,-0.01936477981507778,0.0020408511627465487,0.1362030953168869,-0.009607450105249882,0.1362491399049759,-0.04832443222403526,-0.004177137743681669,-0.03764729201793671,-0.13714124262332916,0.6853268146514893,-0.4409812092781067,-0.03541506826877594,-0.07855243235826492,-0.11669554561376572,0.6205126047134399,-0.4720839560031891,-0.023837905377149582,0.011877724900841713,0.2156665325164795,-1.0758750438690186,1.2467749118804932,-0.2241935133934021,0.004731915891170502,0.26895055174827576,-1.1324257850646973,0.9197563529014587,6.852690696716309,-1.7478313446044922,40.66558837890625,0.8421785831451416,-35.12890625,27.950008392333984,-54.263057708740234,11.928130149841309,30.0,30.0
0.7000000000000001,0.0,0.0,0.0,-0.07427240163087845,0.03198597580194473,0.8563626408576965,-0.01220609713345766,-0.0019355148542672396,0.15456077456474304,-0.06704946607351303,0.10419933497905731,-0.04335391893982887,-0.0038456139154732227,-0.03715593367815018,-0.13404153287410736,0.6747032999992371,-0.43516162037849426,-0.03511395677924156,-0.07794832438230515,-0.11365724354982376,0.6102790236473083,-0.4657386243343353,0.05177085101604462,0.10436027497053146,0.36442121863365173,-1.2815320491790771,1.2944483757019043,-0.18288809061050415,0.08773744851350784,0.40356922149658203,-1.286761999130249,0.9843624830245972,6.345242500305176,-1.015829086303711,38.167781829833984,-6.240617752075195,-29.589134216308594,22.323204040527344,-43.65287780761719,7.364304065704346,30.0,29.71051788330078
0.71,0.0,0.0,0.0,-0.07451808452606201,0.03184277564287186,0.8577116131782532,-0.0067352610640227795,-0.004140494391322136,0.156053364276886,-0.1085672527551651,0.1008489653468132,-0.044392965734004974,-0.0036521211732178926,-0.03599553927779198,-0.12985889613628387,0.6624045372009277,-0.42867451906204224,-0.034802332520484924,-0.07667484879493713,-0.10993896424770355,0.5993152856826782,-0.45925822854042053,0.1358637809753418,0.16585379838943481,0.4503714442253113,-1.3883565664291382,1.2425217628479004,-0.18693755567073822,0.14235936105251312,0.4182201325893402,-1.284529447555542,0.9736741781234741,5.893166542053223,-0.44707977771759033,37.92618179321289,-15.176360130310059,-23.645103454589844,17.06602668762207,-32.38993835449219,3.860840320587158,30.0,30.0
0.72,0.0,0.0,0.0,-0.07472345978021622,0.031652696430683136,0.8590119481086731,-0.003172598546370864,-0.005196812562644482,0.14584709703922272,-0.13329167664051056,0.11984723806381226,-0.04200970008969307,-0.0034008920192718506,-0.03437967225909233,-0.12533952295780182,0.6494082808494568,-0.42249545454978943,-0.03451430797576904,-0.07496148347854614,-0.10654458403587341,0.5889263153076172,-0.453176885843277,0.13665270805358887,0.1985703706741333,0.4508592486381531,-1.4054580926895142,1.1374502182006836,-0.18987655639648438,0.17440250515937805,0.34797510504722595,-1.1736186742782593,0.9172849655151367,5.28316593170166,-0.32230016589164734,39.07434844970703,-24.25469398498535,-19.52515983581543,13.766687393188477,-23.860776901245117,1.708716869354248,30.0,30.0
0.73,0.0,0.0,0.0,-0.07492232322692871,0.03143993020057678,0.8601745367050171,-0.001187497633509338,-0.005799339152872562,0.12916749715805054,-0.1414165496826172,0.14684024453163147,-0.042588748037815094,-0.0035028003621846437,-0.032608985900878906,-0.12125373631715775,0.6368348598480225,-0.41709840297698975,-0.03424670174717903,-0.07303458452224731,-0.10409078001976013,0.5799095630645752,-0.4478585422039032,0.22299876809120178,0.21790683269500732,0.402144193649292,-1.342038631439209,1.04453706741333,-0.1935601383447647,0.18440736830234528,0.23789620399475098,-1.0081082582473755,0.8373463153839111,5.1570539474487305,-0.11050117015838623,40.72201156616211,-31.5042724609375,-17.131147384643555,12.194890022277832,-18.663551330566406,0.8683075904846191,30.0,30.0
0.74,0.0,0.0,0.0,-0.07513058930635452,0.03121948428452015,0.861162543296814,-0.0006797228124924004,-0.006337510887533426,0.11175452172756195,-0.1375439316034317,0.17118754982948303,-0.042301300913095474,-0.0032766773365437984,-0.03075619973242283,-0.11794454604387283,0.6252858638763428,-0.4125657379627228,-0.03399224951863289,-0.07108312100172043,-0.10275349020957947,0.5725364685058594,-0.44339701533317566,0.22132611274719238,0.2118486613035202,0.3040666878223419,-1.2108901739120483,0.9907026290893555,-0.20582908391952515,0.1784619837999344,0.12560372054576874,-0.8407596945762634,0.7668486833572388,5.211160659790039,-0.264395534992218,43.275081634521484,-36.939979553222656,-15.752553939819336,11.655045509338379,-16.3929500579834,1.164316177368164,30.0,30.0
0.75,0.0,0.0,0.0,-0.07535159587860107,0.031002722680568695,0.8619861006736755,-0.0010003928327932954,-0.0071718450635671616,0.09615123271942139,-0.1228143498301506,0.18165069818496704,-0.043201711028814316,-0.003162435721606016,-0.029055234044790268,-0.11559200286865234,0.6153244376182556,-0.4087598919868469,-0.033741362392902374,-0.06925341486930847,-0.10235194861888885,0.5666487812995911,-0.439706027507782,0.23127751052379608,0.1938115954399109,0.22935469448566437,-1.0793412923812866,0.8914141654968262,-0.21375486254692078,0.15918931365013123,0.046334609389305115,-0.7059063911437988,0.7049734592437744,5.420176982879639,-0.04416745901107788,45.02362823486328,-40.31175994873047,-15.441951751708984,12.088531494140625,-16.019960403442383,1.0371031761169434,30.0,30.0
0.76,0.0,0.0,0.0,-0.07557976990938187,0.03079451248049736,0.8626701235771179,-0.0016192771727219224,-0.008122812025249004,0.08384682983160019,-0.10555651038885117,0.18267297744750977,-0.044477678835392,-0.0031829264480620623,-0.027584310621023178,-0.11397416144609451,0.6067203879356384,-0.405617892742157,-0.033472735434770584,-0.06763244420289993,-0.10258878767490387,0.5619126558303833,-0.43660950660705566,0.26104849576950073,0.17539763450622559,0.16402409970760345,-0.9590554237365723,0.8220163583755493,-0.22167706489562988,0.13674373924732208,-0.003602743148803711,-0.6077519655227661,0.6611640453338623,5.560947418212891,-0.7430712580680847,47.135650634765625,-42.718204498291016,-15.589764595031738,12.544276237487793,-16.617326736450195,1.4893794059753418,30.0,30.0
0.77,0.0,0.0,0.0,-0.07580684125423431,0.030594952404499054,0.8632485270500183,-0.002456825692206621,-0.009098123759031296,0.07473187148571014,-0.08842511475086212,0.17340894043445587,-0.0433913879096508,-0.002939044963568449,-0.026274193078279495,-0.11287563294172287,0.5992467999458313,-0.4029836654663086,-0.03319275379180908,-0.06622756272554398,-0.10315701365470886,0.5579825043678284,-0.43394795060157776,0.24076911807060242,0.15074513852596283,0.11722464859485626,-0.8193399310112,0.8292937278747559,-0.23088248074054718,0.11452777683734894,-0.02423037961125374,-0.5437623262405396,0.6311028003692627,5.7200188636779785,-1.0076466798782349,48.79722213745117,-44.13721466064453,-15.689348220825195,12.955589294433594,-17.30948257446289,1.5183525085449219,30.0,30.0
0.78,0.0,0.0,0.0,-0.07602615654468536,0.030404765158891678,0.8637523651123047,-0.002738313050940633,-0.01020103506743908,0.06830961257219315,-0.07292551547288895,0.15922558307647705,-0.04474462941288948,-0.003023400204256177,-0.025233302265405655,-0.11211411654949188,0.5927814841270447,-0.4006907045841217,-0.03291187435388565,-0.06503374874591827,-0.10382194817066193,0.5545420050621033,-0.43159037828445435,0.37048906087875366,0.15195542573928833,0.10739359259605408,-0.7287799119949341,0.7924754619598389,-0.23066239058971405,0.09512436389923096,-0.022117644548416138,-0.5084707736968994,0.6052095890045166,5.752861976623535,-0.7142904996871948,49.663150787353516,-44.56950378417969,-15.75140380859375,12.920745849609375,-17.971477508544922,1.2476584911346436,30.0,30.0
0.79,0.0,0.0,0.0,-0.07623115926980972,0.030220236629247665,0.8642024397850037,-0.0029727856162935495,-0.0109402509406209,0.06379453837871552,-0.061199966818094254,0.14551594853401184,-0.04806634783744812,-0.002923953579738736,-0.024309659376740456,-0.1113792285323143,0.586751401424408,-0.3987303674221039,-0.03257805109024048,-0.06400832533836365,-0.10442642122507095,0.5513868927955627,-0.4294428825378418,0.29865580797195435,0.12091286480426788,0.10189464688301086,-0.696956992149353,0.7355382442474365,-0.23446477949619293,0.07974608987569809,-0.015365555882453918,-0.48607441782951355,0.5934061408042908,5.72653341293335,-1.6725850105285645,51.286537170410156,-45.52391815185547,-15.026213645935059,12.107081413269043,-17.965492248535156,0.9441826343536377,30.0,30.0
0.8,0.0,0.0,0.0,-0.07642168551683426,0.030039574950933456,0.8646131753921509,-0.0031462241895496845,-0.011628678068518639,0.06025150418281555,-0.055854856967926025,0.1308656930923462,-0.04323210567235947,-0.0027673065196722746,-0.023499486967921257,-0.11075952649116516,0.5813230276107788,-0.3969053626060486,-0.032260965555906296,-0.06309793889522552,-0.10497093200683594,0.5484727025032043,-0.42743465304374695,0.36379435658454895,0.13370709121227264,0.0859978124499321,-0.6098017692565918,0.7958251237869263,-0.23589152097702026,0.07332998514175415,-0.005556311458349228,-0.46533942222595215,0.5732710361480713,5.5898942947387695,-1.3947933912277222,52.018836975097656,-46.06999969482422,-15.48764419555664,12.673069953918457,-18.26435089111328,1.598130464553833,30.0,30.0
0.81,0.0,0.0,0.0,-0.07659516483545303,0.029861779883503914,0.8649947643280029,-0.003231203416362405,-0.011823060922324657,0.05788164213299751,-0.05076538398861885,0.1165679395198822,-0.04367712140083313,-0.0021764638368040323,-0.022688003256917,-0.1101764664053917,0.5764545202255249,-0.3950209617614746,-0.03195349872112274,-0.06226399540901184,-0.10537729412317276,0.5457057356834412,-0.42557063698768616,0.24640458822250366,0.10923044383525848,0.08061504364013672,-0.6119778752326965,0.633969247341156,-0.2406800240278244,0.06610047072172165,0.008496340364217758,-0.45584478974342346,0.5647019147872925,5.7139739990234375,-1.407101035118103,52.250003814697266,-46.507720947265625,-14.463956832885742,11.628756523132324,-17.695539474487305,0.5241208076477051,30.0,30.0
0.8200000000000001,0.0,0.0,0.0,-0.07675512135028839,0.02968953549861908,0.8653464317321777,-0.003025796264410019,-0.012597321532666683,0.0538635179400444,-0.04164448007941246,0.102666936814785,-0.046374816447496414,-0.00270355143584311,-0.02213073894381523,-0.10965611040592194,0.5718734860420227,-0.39351776242256165,-0.03160565346479416,-0.06152748316526413,-0.10569044947624207,0.5430918335914612,-0.42379820346832275,0.4108532965183258,0.12609794735908508,0.09591569751501083,-0.5410047769546509,0.7227874994277954,-0.23363207280635834,0.05500878766179085,0.020255574956536293,-0.43670278787612915,0.5416680574417114,5.7017998695373535,-2.0184457302093506,52.464534759521484,-47.421714782714844,-14.868307113647461,11.938882827758789,-17.50571060180664,0.7879579067230225,30.0,30.0
0.8300000000000001,0.0,0.0,0.0,-0.07689919322729111,0.029519304633140564,0.8656664490699768,-0.0028749096672981977,-0.012516286224126816,0.051783282309770584,-0.040566179901361465,0.09525652229785919,-0.04245023801922798,-0.002081833779811859,-0.021464943885803223,-0.10904951393604279,0.5676497220993042,-0.39198383688926697,-0.03127667307853699,-0.06085401773452759,-0.10592939704656601,0.5406529903411865,-0.4222024977207184,0.26937851309776306,0.10006599128246307,0.08419588953256607,-0.5637117624282837,0.5758028030395508,-0.24000687897205353,0.052953656762838364,0.019838077947497368,-0.41849181056022644,0.540334939956665,5.494241237640381,-1.6528903245925903,53.76598358154297,-47.791717529296875,-13.951430320739746,10.995593070983887,-17.166217803955078,0.5295207500457764,30.0,30.0
0.84,0.0,0.0,0.0,-0.0770326554775238,0.02935219183564186,0.8659600615501404,-0.0030358603689819574,-0.012723978608846664,0.048373062163591385,-0.03535947576165199,0.08292023837566376,-0.04151298478245735,-0.0019205330172553658,-0.020906196907162666,-0.10859452933073044,0.5638253092765808,-0.3906026780605316,-0.030945969745516777,-0.06022486463189125,-0.10614506900310516,0.5384306311607361,-0.4207161068916321,0.3225659728050232,0.09998687356710434,0.07245194911956787,-0.4480568468570709,0.6950667500495911,-0.2414557784795761,0.04595620930194855,0.027102895081043243,-0.3976875841617584,0.5171772241592407,5.6571946144104,-1.9467108249664307,53.429656982421875,-48.49890899658203,-14.082429885864258,11.418397903442383,-16.728919982910156,0.7234151363372803,30.0,30.0
0.85,0.0,0.0,0.0,-0.077154241502285,0.029189622029662132,0.8662271499633789,-0.002640071790665388,-0.012747715227305889,0.04660222679376602,-0.031737834215164185,0.07806190848350525,-0.040375303477048874,-0.0014038779772818089,-0.020360004156827927,-0.10821209102869034,0.5605175495147705,-0.38919517397880554,-0.030636517331004143,-0.05966099724173546,-0.10631538182497025,0.5363603830337524,-0.41935402154922485,0.2657812237739563,0.09138630330562592,0.05947135016322136,-0.46726155281066895,0.5252121090888977,-0.23795142769813538,0.04153061658143997,0.028113514184951782,-0.38566240668296814,0.5158126354217529,5.475114345550537,-1.6095833778381348,53.435302734375,-48.52899169921875,-13.51391315460205,10.46204662322998,-16.526506423950195,0.11342716217041016,30.0,30.0
0.86,0.0,0.0,0.0,-0.0772659182548523,0.02903241291642189,0.866472065448761,-0.0027194239664822817,-0.01247754879295826,0.04387124255299568,-0.026445399969816208,0.0668247863650322,-0.04094576835632324,-0.0011175925610587,-0.01988992467522621,-0.10794980078935623,0.5575527548789978,-0.3879505693912506,-0.03030395321547985,-0.05915278196334839,-0.10644224286079407,0.5344335436820984,-0.4180983304977417,0.2912869453430176,0.07311666756868362,0.056111011654138565,-0.40625566244125366,0.6029660701751709,-0.2413541078567505,0.03359776735305786,0.03596684709191322,-0.37060725688934326,0.5009210109710693,5.663766860961914,-1.8649811744689941,53.63908004760742,-49.180274963378906,-13.330927848815918,10.677302360534668,-15.967706680297852,0.15006518363952637,30.0,30.0
0.87,0.0,0.0,0.0,-0.07736758142709732,0.028882063925266266,0.8666946291923523,-0.0024268890265375376,-0.012382296845316887,0.041739899665117264,-0.02183167263865471,0.0592486672103405,-0.04234188422560692,-0.0011053694179281592,-0.019530436024069786,-0.1077466607093811,0.5549893975257874,-0.38677695393562317,-0.029965892434120178,-0.058703240007162094,-0.10651475936174393,0.5326360464096069,-0.41694527864456177,0.33059319853782654,0.07123219966888428,0.059201136231422424,-0.3640332818031311,0.6110921502113342,-0.23317314684391022,0.02769518457353115,0.04151501506567001,-0.35842564702033997,0.49295055866241455,5.47388219833374,-1.350266695022583,53.4535026550293,-49.22745895385742,-13.052179336547852,10.218816757202148,-15.760042190551758,-0.2042086124420166,30.0,30.0
0.88,0.0,0.0,0.0,-0.07745961844921112,0.02873779647052288,0.8668947219848633,-0.0020444062538444996,-0.012677585706114769,0.039509210735559464,-0.018023883923888206,0.054831959307193756,-0.040891826152801514,-0.000939021585509181,-0.019215859472751617,-0.10748714953660965,0.55246901512146,-0.3858259916305542,-0.029624635353684425,-0.05832134559750557,-0.10656388849020004,0.5309632420539856,-0.41589680314064026,0.3681538999080658,0.08886734396219254,0.05871700495481491,-0.3327041268348694,0.6186933517456055,-0.23406437039375305,0.023004917427897453,0.04074211046099663,-0.343131959438324,0.48084425926208496,5.354132175445557,-1.6828817129135132,53.593223571777344,-49.26805877685547,-12.687003135681152,9.71953296661377,-15.488871574401855,-0.024402141571044922,30.0,30.0
0.89,0.0,0.0,0.0,-0.07754291594028473,0.028597954660654068,0.8670746088027954,-0.001955474028363824,-0.012247683480381966,0.037806980311870575,-0.016710128635168076,0.049906060099601746,-0.03968130424618721,-0.0003842876758426428,-0.018874015659093857,-0.10721079260110855,0.5501830577850342,-0.38493695855140686,-0.029297567903995514,-0.057984694838523865,-0.10661352425813675,0.5294440984725952,-0.4149496257305145,0.2797529697418213,0.0683196485042572,0.05590818449854851,-0.3739002048969269,0.4645879864692688,-0.23872199654579163,0.020296119153499603,0.04012416675686836,-0.32915759086608887,0.472745418548584,5.407270908355713,-1.8727176189422607,53.96636199951172,-49.41367721557617,-11.992622375488281,9.19481086730957,-14.983549118041992,-0.472883939743042,30.0,30.0
0.9,0.0,0.0,0.0,-0.0776209607720375,0.02846328355371952,0.8672329187393188,-0.0021171870175749063,-0.012132761999964714,0.03502975404262543,-0.012555238790810108,0.042168766260147095,-0.03914099186658859,-0.00020613445667549968,-0.018620388582348824,-0.10704121738672256,0.5481250882148743,-0.3842499852180481,-0.028961030766367912,-0.05768486484885216,-0.10667465627193451,0.5281044840812683,-0.41408494114875793,0.3407825827598572,0.06897920370101929,0.04692718759179115,-0.27097776532173157,0.5840784311294556,-0.23988866806030273,0.01438656821846962,0.041481442749500275,-0.30984026193618774,0.4557429552078247,5.5367255210876465,-2.2043447494506836,54.080928802490234,-50.05225372314453,-12.245661735534668,9.666332244873047,-14.764291763305664,-0.18644392490386963,30.0,30.0
0.91,0.0,0.0,0.0,-0.07769253104925156,0.02833397313952446,0.8673714399337769,-0.001830472145229578,-0.011882518418133259,0.034005071967840195,-0.010527548380196095,0.04064561426639557,-0.038527149707078934,0.00028783283778466284,-0.018371457234025,-0.10691717267036438,0.5464324951171875,-0.38355880975723267,-0.028643546625971794,-0.057432789355516434,-0.10673339664936066,0.5268961787223816,-0.4133252501487732,0.27970296144485474,0.06005813181400299,0.03803456947207451,-0.3112753629684448,0.43288522958755493,-0.2370026558637619,0.011690033599734306,0.039145953953266144,-0.30086126923561096,0.45753633975982666,5.368913173675537,-1.9339265823364258,53.996429443359375,-49.728031158447266,-11.76816177368164,8.839754104614258,-14.724721908569336,-0.6633449792861938,30.0,30.0
0.92,0.0,0.0,0.0,-0.07775901257991791,0.028210118412971497,0.8674956560134888,-0.0019906761590391397,-0.011636168695986271,0.03196738660335541,-0.006886299699544907,0.03196607157588005,-0.038933511823415756,0.0004690829664468765,-0.018196165561676025,-0.10687948018312454,0.5449051856994629,-0.383023738861084,-0.02830367721617222,-0.05721801519393921,-0.10677625983953476,0.5257943868637085,-0.4126284718513489,0.3428404629230499,0.05746970325708389,0.03674956411123276,-0.22229455411434174,0.5532326698303223,-0.24009203910827637,0.006092891097068787,0.04511682689189911,-0.2890748977661133,0.4444993734359741,5.561000347137451,-2.2712419033050537,54.07463455200195,-50.11137008666992,-11.783920288085938,9.236796379089355,-14.404207229614258,-0.5441200733184814,30.0,30.0
0.93,0.0,0.0,0.0,-0.07781893759965897,0.02809162810444832,0.8676060438156128,-0.0016046204837039113,-0.01139414869248867,0.031144142150878906,-0.00404414301738143,0.0305054672062397,-0.03812932223081589,0.0008255630382336676,-0.01803625002503395,-0.10683327168226242,0.5435724258422852,-0.3825276494026184,-0.027979407459497452,-0.05704374611377716,-0.1067894846200943,0.5247686505317688,-0.4120025634765625,0.335055410861969,0.04983562231063843,0.032795459032058716,-0.20983603596687317,0.5263572931289673,-0.23554687201976776,0.002456584945321083,0.04516956955194473,-0.2840592861175537,0.44476577639579773,5.335131645202637,-2.147357225418091,53.927486419677734,-49.79197692871094,-11.39713191986084,8.450740814208984,-14.383152961730957,-1.0482069253921509,30.0,30.0
0.9400000000000001,0.0,0.0,0.0,-0.0778731033205986,0.027978256344795227,0.8677078485488892,-0.0014996050158515573,-0.01104689110070467,0.030451292172074318,-0.0033354726620018482,0.02706090547144413,-0.03754439577460289,0.0012906960910186172,-0.017895866185426712,-0.10680782794952393,0.5424199104309082,-0.3820531964302063,-0.02765747532248497,-0.056901801377534866,-0.10678327828645706,0.523792564868927,-0.411419540643692,0.28058964014053345,0.04439060389995575,0.031074825674295425,-0.251290887594223,0.42110878229141235,-0.23660501837730408,0.0009778495877981186,0.047708965837955475,-0.2794886529445648,0.4394701421260834,5.335336208343506,-2.101422071456909,53.733036041259766,-49.62208557128906,-11.0184907913208,8.242864608764648,-14.027880668640137,-1.072657585144043,30.0,30.0
0.9500000000000001,0.0,0.0,0.0,-0.07792284339666367,0.027870049700140953,0.8677986860275269,-0.0016731377691030502,-0.01062928419560194,0.028865914791822433,-0.0009557705488987267,0.020048346370458603,-0.03718798607587814,0.0015303962863981724,-0.017801571637392044,-0.10682957619428635,0.541395902633667,-0.38167330622673035,-0.027322327718138695,-0.056783102452754974,-0.10675544291734695,0.5229068398475647,-0.4108709692955017,0.3114258944988251,0.03797436133027077,0.030381161719560623,-0.19199678301811218,0.4918535053730011,-0.2387045919895172,-0.003017529845237732,0.0520353689789772,-0.269237220287323,0.43037840723991394,5.484598159790039,-2.5148141384124756,53.74951171875,-49.9947509765625,-11.1353120803833,8.579405784606934,-13.764386177062988,-0.99896639585495,30.0,30.0
0.96,0.0,0.0,0.0,-0.07796824723482132,0.02776755951344967,0.8678779602050781,-0.0013963048113510013,-0.010383396409451962,0.028079671785235405,0.0007652087952010334,0.018315453082323074,-0.03755299001932144,0.001783230109140277,-0.017740556970238686,-0.10687007009983063,0.5405428409576416,-0.3813425600528717,-0.02700338326394558,-0.056695356965065,-0.10670948028564453,0.5220876336097717,-0.4103957712650299,0.3605786859989166,0.04443548247218132,0.025281116366386414,-0.16074375808238983,0.5245698094367981,-0.23358792066574097,-0.005292066372931004,0.05242041498422623,-0.2638162076473236,0.4285232424736023,5.348823547363281,-1.9358092546463013,53.49947738647461,-49.60049057006836,-10.897202491760254,8.032705307006836,-13.745359420776367,-1.0295449495315552,30.0,30.0
0.97,0.0,0.0,0.0,-0.0780085027217865,0.027670081704854965,0.8679500818252563,-0.0012325476855039597,-0.009988299570977688,0.027570534497499466,0.0018533035181462765,0.01617385447025299,-0.037177812308073044,0.0022676363587379456,-0.01767062582075596,-0.10687457025051117,0.5397636890411377,-0.3810345232486725,-0.02667992375791073,-0.05663391202688217,-0.1066405326128006,0.5213059782981873,-0.409955233335495,0.2833271622657776,0.032946597784757614,0.031103763729333878,-0.20870789885520935,0.4001930356025696,-0.2346268594264984,-0.007300643250346184,0.053703658282756805,-0.2606290280818939,0.4266763925552368,5.314388275146484,-2.2009780406951904,53.341766357421875,-49.36256408691406,-10.35565185546875,7.543485641479492,-13.388404846191406,-1.6278388500213623,30.0,30.0
0.98,0.0,0.0,0.0,-0.07804699242115021,0.027577979490160942,0.8680139780044556,-0.0012968926457688212,-0.009744713082909584,0.0261114239692688,0.0028573900926858187,0.010531545616686344,-0.040423955768346786,0.0019374842522665858,-0.017736058682203293,-0.10696030408143997,0.5390956401824951,-0.38085946440696716,-0.026321690529584885,-0.056589655578136444,-0.10657442361116409,0.5205973982810974,-0.40954816341400146,0.4041985273361206,0.04830614849925041,0.034398555755615234,-0.14204289019107819,0.48887863755226135,-0.2306470423936844,-0.009141073562204838,0.05756167694926262,-0.2506840229034424,0.41464027762413025,5.389029026031494,-2.117219924926758,53.41070556640625,-49.46642303466797,-10.62881088256836,7.998680114746094,-13.26984977722168,-0.7664657831192017,30.0,30.0
0.99,0.0,0.0,0.0,-0.07808070629835129,0.027489028871059418,0.8680660128593445,-0.0010495965834707022,-0.00959695689380169,0.025312324985861778,0.005838902201503515,0.0119223827496171,-0.03663928806781769,0.0023729607928544283,-0.01770971529185772,-0.10690032690763474,0.5383486151695251,-0.380778044462204,-0.025981925427913666,-0.056570664048194885,-0.10650090873241425,0.5199598670005798,-0.4092036187648773,0.3116413950920105,0.027344638481736183,0.038882479071617126,-0.17364026606082916,0.42967456579208374,-0.23387280106544495,-0.01309244055300951,0.05126703158020973,-0.2433454841375351,0.41764506697654724,5.209723949432373,-2.416259765625,53.690521240234375,-49.40256881713867,-10.323202133178711,7.409348011016846,-13.360755920410156,-1.473134160041809,30.0,30.0
1.0,0.0,0.0,0.0,-0.07811388373374939,0.027402890846133232,0.8681086897850037,-0.0011295924196019769,-0.009649503976106644,0.024233944714069366,0.004472630098462105,0.009564545005559921,-0.03653104230761528,0.0025235996581614017,-0.01775220036506653,-0.1068948283791542,0.5376776456832886,-0.3808153569698334,-0.025657176971435547,-0.056571003049612045,-0.10647858679294586,0.5194260478019714,-0.4089072048664093,0.3763161897659302,0.05284501984715462,0.030973251909017563,-0.1365174949169159,0.4876170754432678,-0.23399309813976288,-0.011384151875972748,0.04969518631696701,-0.23240569233894348,0.40488114953041077,5.27531099319458,-2.1763248443603516,53.44721984863281,-48.97766876220703,-10.269746780395508,7.574122905731201,-13.197482109069824,-0.8443163633346558,30.0,30.0
1.01,0.0,0.0,0.0,-0.07814435660839081,0.027317972853779793,0.8681433796882629,-0.001134079648181796,-0.009176276624202728,0.023895349353551865,0.0036848741583526134,0.008416267111897469,-0.03624661639332771,0.0030473426450043917,-0.01772516779601574,-0.10687298327684402,0.5371355414390564,-0.3807995319366455,-0.025341274216771126,-0.05656787008047104,-0.10646187514066696,0.5189741849899292,-0.40866073966026306,0.2844110131263733,0.03245812654495239,0.034327223896980286,-0.19661086797714233,0.35179081559181213,-0.2366275191307068,-0.011196265928447247,0.048135653138160706,-0.2273346483707428,0.40508028864860535,5.304683208465576,-2.348499059677124,53.62431335449219,-49.02031326293945,-9.796422004699707,7.033936500549316,-12.99728775024414,-1.5577589273452759,30.0,30.0
1.02,0.0,0.0,0.0,-0.07817400246858597,0.02723505347967148,0.8681708574295044,-0.0013170052552595735,-0.0089813731610775,0.022688839584589005,0.005523400846868753,0.005203411914408207,-0.0343625582754612,0.0033034775406122208,-0.017733760178089142,-0.10689719021320343,0.5366288423538208,-0.38089218735694885,-0.025020074099302292,-0.05656684562563896,-0.10646550357341766,0.5186100006103516,-0.40843862295150757,0.31321629881858826,0.026874277740716934,0.029298067092895508,-0.138433039188385,0.4271587133407593,-0.23880045115947723,-0.013971593230962753,0.04775059595704079,-0.2180774211883545,0.39724278450012207,5.363420009613037,-2.736628293991089,53.69424819946289,-49.46571731567383,-10.221120834350586,7.605352878570557,-13.054469108581543,-1.1912410259246826,30.0,30.0
1.03,0.0,0.0,0.0,-0.07820256799459457,0.02715448848903179,0.868191659450531,-0.001151731121353805,-0.009009789675474167,0.0224368404597044,0.0044844974763691425,0.004664650186896324,-0.03572608157992363,0.0034688455052673817,-0.01777530275285244,-0.10696953535079956,0.5362617373466492,-0.3809886872768402,-0.024710560217499733,-0.056575123220682144,-0.10647641122341156,0.5182933211326599,-0.4082687497138977,0.3806028664112091,0.04807274043560028,0.02375403419137001,-0.10422912240028381,0.4717046618461609,-0.23439526557922363,-0.012412730604410172,0.04733269661664963,-0.21438056230545044,0.39607203006744385,5.269010066986084,-2.2137887477874756,53.498573303222656,-48.984493255615234,-9.87812614440918,7.0245771408081055,-13.043188095092773,-1.2832183837890625,30.0,30.0
1.04,0.0,0.0,0.0,-0.07822778075933456,0.027074988931417465,0.8682119250297546,-0.001021015108563006,-0.008619742467999458,0.022752897813916206,0.0035470447037369013,0.004087032284587622,-0.03510621562600136,0.003979498520493507,-0.017755240201950073,-0.10699113458395004,0.535923957824707,-0.38102665543556213,-0.024401264265179634,-0.05657847225666046,-0.10646632313728333,0.5179840326309204,-0.40811625123023987,0.28574636578559875,0.030961884185671806,0.031116928905248642,-0.17420479655265808,0.33802077174186707,-0.23666086792945862,-0.0118283461779356,0.048600245267152786,-0.21620646119117737,0.39870598912239075,5.223043441772461,-2.482457399368286,53.573455810546875,-48.956939697265625,-9.343550682067871,6.498647212982178,-12.798321723937988,-1.9542183876037598,30.0,30.0
1.05,0.0,0.0,0.0,-0.0782516673207283,0.026997243985533714,0.8682300448417664,-0.0011878018267452717,-0.008385528810322285,0.021952293813228607,0.004290892276912928,0.0008287534583359957,-0.03323730453848839,0.004218847956508398,-0.017763806506991386,-0.10703343152999878,0.5355709195137024,-0.38113483786582947,-0.02408653311431408,-0.056577567011117935,-0.10645224899053574,0.5177082419395447,-0.40795642137527466,0.3081715404987335,0.027169810608029366,0.02755672112107277,-0.12202174961566925,0.4176667630672455,-0.23892366886138916,-0.013251980766654015,0.050046056509017944,-0.21033048629760742,0.39116424322128296,5.294052600860596,-2.862353563308716,53.610198974609375,-49.369110107421875,-9.70769214630127,7.080957889556885,-12.746692657470703,-1.548248052597046,30.0,30.0
1.06,0.0,0.0,0.0,-0.07827438414096832,0.026921620592474937,0.8682442903518677,-0.0009888814529404044,-0.008404940366744995,0.02183959260582924,0.0034253636840730906,0.00038821512134745717,-0.03446173667907715,0.0043638767674565315,-0.017800049856305122,-0.10710196942090988,0.5353132486343384,-0.3812304437160492,-0.02378675900399685,-0.05658150464296341,-0.10643786191940308,0.517460823059082,-0.4078356921672821,0.38711798191070557,0.04862310364842415,0.02448713406920433,-0.09056613594293594,0.45852333307266235,-0.23414048552513123,-0.01187871489673853,0.05043205991387367,-0.2083890736103058,0.39064231514930725,5.200323104858398,-2.302906036376953,53.30398178100586,-48.87294006347656,-9.398990631103516,6.530622959136963,-12.706136703491211,-1.6239529848098755,30.0,30.0
1.07,0.0,0.0,0.0,-0.07829409092664719,0.02684706449508667,0.8682595491409302,-0.0008532694773748517,-0.007975717075169086,0.022152824327349663,0.0029801728669553995,0.0002563870220910758,-0.03397151455283165,0.0048276460729539394,-0.017771590501070023,-0.10712724179029465,0.5350452661514282,-0.38127776980400085,-0.023481931537389755,-0.05657604709267616,-0.10639984160661697,0.5172054767608643,-0.4077222943305969,0.29468756914138794,0.02721855416893959,0.028683200478553772,-0.11857342720031738,0.396308571100235,-0.23653683066368103,-0.01197899505496025,0.05145789682865143,-0.21082238852977753,0.39333558082580566,5.136377334594727,-2.400909423828125,53.40208435058594,-48.994686126708984,-8.787467002868652,5.958271503448486,-12.401036262512207,-2.417600631713867,30.0,30.0
1.08,0.0,0.0,0.0,-0.07831313461065292,0.026774819940328598,0.8682746887207031,-0.0007314058020710945,-0.00802906509488821,0.021809905767440796,0.0023908705916255713,-0.0008718260796740651,-0.03303060680627823,0.004912897944450378,-0.017809009179472923,-0.1071794405579567,0.5347875952720642,-0.38136425614356995,-0.02318570949137211,-0.05657459422945976,-0.10637014359235764,0.5169594287872314,-0.40759986639022827,0.40009361505508423,0.05379292741417885,0.025661610066890717,-0.08683796972036362,0.4511885643005371,-0.23331788182258606,-0.010934998281300068,0.05270210653543472,-0.20812276005744934,0.385648638010025,5.090399265289307,-2.4497549533843994,53.10270690917969,-48.82703399658203,-9.10543155670166,6.296370506286621,-12.435763359069824,-1.7246533632278442,30.0,30.0
1.09,0.0,0.0,0.0,-0.0783294066786766,0.02670370042324066,0.8682878613471985,-0.0007250195485539734,-0.007537745404988527,0.021938728168606758,0.0012734385672956705,-0.0013672986533492804,-0.033519625663757324,0.005469276569783688,-0.017764484509825706,-0.10717469453811646,0.5345454216003418,-0.38141003251075745,-0.02289327047765255,-0.05656645447015762,-0.10632223635911942,0.516726553440094,-0.40750283002853394,0.2865511178970337,0.030989833176136017,0.03285093978047371,-0.1555274873971939,0.3226020336151123,-0.23670543730258942,-0.010420684702694416,0.05216648057103157,-0.20731157064437866,0.389523446559906,5.135313034057617,-2.6003623008728027,53.32912826538086,-48.847877502441406,-8.290128707885742,5.512249946594238,-11.970026016235352,-2.5531063079833984,30.0,30.0
1.1,0.0,0.0,0.0,-0.07834696024656296,0.02663501724600792,0.8682981133460999,-0.0008268081583082676,-0.007576616480946541,0.020965760573744774,0.001548057422041893,-0.0053554559126496315,-0.035908252000808716,0.005002229940146208,-0.017865024507045746,-0.10724756121635437,0.5343119502067566,-0.3815617859363556,-0.022568633779883385,-0.0565548874437809,-0.10628800094127655,0.5165366530418396,-0.40740999579429626,0.4450541138648987,0.057862505316734314,0.03609037771821022,-0.08644133806228638,0.4290682375431061,-0.23138108849525452,-0.01072925515472889,0.05585716664791107,-0.20097140967845917,0.37744665145874023,5.133964538574219,-2.862809896469116,53.24217224121094,-49.1351203918457,-8.866362571716309,6.2331109046936035,-12.079520225524902,-1.9599025249481201,30.0,30.0
1.11,0.0,0.0,0.0,-0.0783616304397583,0.026566730812191963,0.8683033585548401,-0.0006976940203458071,-0.00734504871070385,0.021007467061281204,0.0023018151987344027,-0.002068809000775218,-0.033312052488327026,0.005521256942301989,-0.01782388985157013,-0.10719109326601028,0.5340172648429871,-0.3817085921764374,-0.022259337827563286,-0.05654485523700714,-0.10624631494283676,0.5163784027099609,-0.407362163066864,0.2863348722457886,0.026528604328632355,0.035945113748311996,-0.12332338094711304,0.3798195719718933,-0.2357482612133026,-0.0120222307741642,0.04859219118952751,-0.19811031222343445,0.387172669172287,4.98220157623291,-2.3125929832458496,53.741641998291016,-49.134883880615234,-8.28530216217041,5.399052619934082,-12.059568405151367,-2.465860366821289,30.0,30.0
1.12,0.0,0.0,0.0,-0.0783776193857193,0.026499396190047264,0.8683058619499207,-0.0006824609590694308,-0.0076375724747776985,0.020399227738380432,0.0021051757503300905,-0.0025465853977948427,-0.031324341893196106,0.0055996691808104515,-0.01786213181912899,-0.10719023644924164,0.5337352752685547,-0.381931334733963,-0.021972492337226868,-0.0565447174012661,-0.10625429451465607,0.5162700414657593,-0.40732014179229736,0.3786190152168274,0.054397061467170715,0.031102590262889862,-0.0938253179192543,0.4307742118835449,-0.23403531312942505,-0.01115263719111681,0.04757101833820343,-0.19278350472450256,0.3758270740509033,4.957836151123047,-2.5962586402893066,53.109867095947266,-48.60007095336914,-8.725234031677246,5.934119701385498,-12.216137886047363,-1.6657795906066895,30.0,30.0
1.1300000000000001,0.0,0.0,0.0,-0.07839237153530121,0.026431338861584663,0.8683047890663147,-0.0007168669253587723,-0.007205873262137175,0.020466363057494164,0.0005805022665299475,-0.0025562916416674852,-0.032166190445423126,0.006092846859246492,-0.0178192388266325,-0.10715795308351517,0.5335057377815247,-0.3820938467979431,-0.021693030372262,-0.05653604492545128,-0.10626664757728577,0.5161968469619751,-0.40731093287467957,0.2873975932598114,0.030384650453925133,0.03545859828591347,-0.15196165442466736,0.3175320029258728,-0.23763631284236908,-0.010080717504024506,0.04574660211801529,-0.19069170951843262,0.3786161541938782,5.0318403244018555,-2.6838746070861816,53.47964859008789,-48.65282440185547,-7.943475246429443,5.155979156494141,-11.833963394165039,-2.5082719326019287,30.0,30.0
1.1400000000000001,0.0,0.0,0.0,-0.0784076601266861,0.02636347897350788,0.8683013916015625,-0.0008891583420336246,-0.0071693784557282925,0.01985626108944416,0.001619018497876823,-0.003908122424036264,-0.02968376688659191,0.006325974129140377,-0.0178065188229084,-0.10717370361089706,0.5332874655723572,-0.38232186436653137,-0.021408621221780777,-0.05651792511343956,-0.10630156099796295,0.516176700592041,-0.40729445219039917,0.2986384332180023,0.02808966301381588,0.0283384770154953,-0.10509546101093292,0.39001354575157166,-0.23837269842624664,-0.01141323707997799,0.04492010921239853,-0.1855732798576355,0.37425971031188965,4.999318599700928,-2.978957414627075,53.46552658081055,-49.18581771850586,-8.426745414733887,5.747432231903076,-11.982711791992188,-2.066033363342285,30.0,30.0
1.1500000000000001,0.0,0.0,0.0,-0.07842311263084412,0.026296522468328476,0.868295431137085,-0.000721474876627326,-0.007367550395429134,0.019839145243167877,0.000173906737472862,-0.004002368543297052,-0.03125407174229622,0.006409335881471634,-0.017826352268457413,-0.10721946507692337,0.5331358909606934,-0.3825339376926422,-0.0211379025131464,-0.05650325119495392,-0.10634170472621918,0.516170859336853,-0.4073147177696228,0.3831644058227539,0.0552092120051384,0.027899932116270065,-0.07889863848686218,0.4163617789745331,-0.23520994186401367,-0.009181183762848377,0.045085690915584564,-0.18418830633163452,0.3724061846733093,4.945165157318115,-2.5521373748779297,53.2411003112793,-48.6897087097168,-8.108390808105469,5.224660873413086,-11.943618774414062,-2.230349540710449,30.0,30.0
1.16,0.0,0.0,0.0,-0.0784362256526947,0.02622886560857296,0.8682911396026611,-0.0006046709604561329,-0.006981504615396261,0.020368734374642372,-0.000815676583442837,-0.003373135346919298,-0.030558248981833458,0.006895067170262337,-0.017763657495379448,-0.10719703137874603,0.5329511165618896,-0.38269853591918945,-0.020868325605988503,-0.05647477135062218,-0.10636653006076813,0.516154408454895,-0.4073365330696106,0.29130449891090393,0.03126857429742813,0.03496482968330383,-0.14376860857009888,0.31386712193489075,-0.2379840612411499,-0.008549124002456665,0.04511527717113495,-0.18731874227523804,0.37779268622398376,4.8915510177612305,-2.8503270149230957,53.6243896484375,-48.893280029296875,-7.53237247467041,4.655803203582764,-11.702768325805664,-2.869019031524658,30.0,30.0
1.17,0.0,0.0,0.0,-0.07844983041286469,0.026161761954426765,0.8682884573936462,-0.0007849860121496022,-0.006815084721893072,0.020130043849349022,-0.0013564648106694221,-0.006159849464893341,-0.03276555612683296,0.006679559592157602,-0.01779480092227459,-0.10722898691892624,0.5328139066696167,-0.3828805685043335,-0.02057703398168087,-0.05643449351191521,-0.10638869553804398,0.5161435008049011,-0.4073449969291687,0.3176860809326172,0.03203029930591583,0.035170283168554306,-0.14037469029426575,0.3662680983543396,-0.23377595841884613,-0.00807133223861456,0.04918593540787697,-0.18629658222198486,0.3716996908187866,4.8959503173828125,-2.977140426635742,53.535423278808594,-49.280948638916016,-7.8511881828308105,5.188931465148926,-11.68567180633545,-2.388411521911621,30.0,30.0
1.18,0.0,0.0,0.0,-0.07846169173717499,0.026095082983374596,0.8682835102081299,-0.0008361267391592264,-0.007040869444608688,0.0200729351490736,-0.0027508907951414585,-0.006680127698928118,-0.02888767048716545,0.0069234659895300865,-0.017769496887922287,-0.10721022635698318,0.5326634645462036,-0.3830214738845825,-0.020297275856137276,-0.05639375001192093,-0.10638988763093948,0.5161454081535339,-0.40735936164855957,0.2790936827659607,0.04835124686360359,0.03559271618723869,-0.15418663620948792,0.2604391872882843,-0.23642055690288544,-0.00593253318220377,0.04767310619354248,-0.18285828828811646,0.37169042229652405,4.786087989807129,-2.950296401977539,53.52552032470703,-49.2067756652832,-7.982903003692627,5.19427490234375,-11.83480453491211,-2.347038745880127,30.0,30.0
1.19,0.0,0.0,0.0,-0.078473299741745,0.026027968153357506,0.8682753443717957,-0.0008923739660531282,-0.006851484067738056,0.01952870935201645,-0.0017964234575629234,-0.007387892808765173,-0.02917098067700863,0.00721470732241869,-0.017712490633130074,-0.10718714445829391,0.5324888229370117,-0.38323450088500977,-0.02003317140042782,-0.05635019391775131,-0.10640496760606766,0.5161901712417603,-0.4074106216430664,0.28999510407447815,0.03428564965724945,0.03630004823207855,-0.14435741305351257,0.31075388193130493,-0.24141338467597961,-0.007776766084134579,0.045640651136636734,-0.17832247912883759,0.37105894088745117,5.007757186889648,-2.8313188552856445,53.81925964355469,-49.2172966003418,-7.844407558441162,5.090825080871582,-11.678556442260742,-2.4253172874450684,30.0,30.0
1.2,0.0,0.0,0.0,-0.07848495990037918,0.025960871949791908,0.8682645559310913,-0.0008399100042879581,-0.0068971398286521435,0.01931333914399147,-0.0005984727758914232,-0.007193333934992552,-0.0278201624751091,0.007430722936987877,-0.01767008751630783,-0.10716667026281357,0.5323054194450378,-0.38347309827804565,-0.019774165004491806,-0.05630624294281006,-0.10643384605646133,0.5162634253501892,-0.40746748447418213,0.30159568786621094,0.030699046328663826,0.03367427736520767,-0.10024309158325195,0.3615502715110779,-0.23946069180965424,-0.009051449596881866,0.04475347325205803,-0.17676524817943573,0.37098872661590576,4.824577808380127,-3.086637020111084,53.70401382446289,-49.323158264160156,-7.698690414428711,4.854764461517334,-11.711444854736328,-2.6289639472961426,30.0,30.0
1.21,0.0,0.0,0.0,-0.0784967914223671,0.025893837213516235,0.8682546019554138,-0.0005342544754967093,-0.007238086313009262,0.01969156228005886,-0.0038142630364745855,-0.005297648720443249,-0.029414240270853043,0.0074218339286744595,-0.017675625160336494,-0.10717176645994186,0.5321549773216248,-0.38367944955825806,-0.019522318616509438,-0.056261785328388214,-0.10647671669721603,0.5163244605064392,-0.40753597021102905,0.36950770020484924,0.0685058981180191,0.030321627855300903,-0.08776506781578064,0.357888400554657,-0.23542264103889465,-0.004269139841198921,0.04378676414489746,-0.17737093567848206,0.36733269691467285,4.701698303222656,-2.732234001159668,53.54851150512695,-48.9172477722168,-7.315215587615967,4.2977166175842285,-11.61247730255127,-2.716477870941162,30.0,30.0
1.22,0.0,0.0,0.0,-0.07850635051727295,0.025825003162026405,0.8682489991188049,-0.00047547160647809505,-0.006729602813720703,0.02020171284675598,-0.004540777765214443,-0.005505046341568232,-0.027648763731122017,0.007951893843710423,-0.017555562779307365,-0.10712002217769623,0.5319565534591675,-0.3838341534137726,-0.019276291131973267,-0.05619240552186966,-0.10650691390037537,0.5163689255714417,-0.4075961709022522,0.2916809320449829,0.036245208233594894,0.03811795264482498,-0.14341184496879578,0.3009558320045471,-0.2416752427816391,-0.004317405633628368,0.045193154364824295,-0.181533545255661,0.37036800384521484,4.73957633972168,-2.945021390914917,54.04499053955078,-49.323516845703125,-6.813555717468262,3.97381591796875,-11.327779769897461,-3.187072992324829,30.0,30.0
1.23,0.0,0.0,0.0,-0.07851589471101761,0.025756409391760826,0.8682447075843811,-0.0005986982141621411,-0.0066874329932034016,0.019906379282474518,-0.003610063809901476,-0.006899184547364712,-0.026579782366752625,0.008146312087774277,-0.017481455579400063,-0.10709072649478912,0.5317350625991821,-0.38400396704673767,-0.01903044804930687,-0.056114561855793,-0.10653747618198395,0.5164216160774231,-0.40762579441070557,0.3033915162086487,0.03441871330142021,0.03296174854040146,-0.10085240006446838,0.3728310465812683,-0.23977264761924744,-0.005415932275354862,0.04671042039990425,-0.1801968216896057,0.3669315576553345,4.688250541687012,-3.147361993789673,53.743812561035156,-49.71858596801758,-6.965691566467285,4.240676403045654,-11.211833953857422,-2.9311981201171875,30.0,30.0
1.24,0.0,0.0,0.0,-0.07852555811405182,0.0256891380995512,0.8682398200035095,-0.0003496072313282639,-0.007009338121861219,0.020030206069350243,-0.005393683444708586,-0.00592919671908021,-0.02819523587822914,0.008124039508402348,-0.017460975795984268,-0.10708130896091461,0.5315568447113037,-0.3841378688812256,-0.018791314214468002,-0.05604516342282295,-0.10656926780939102,0.5164651274681091,-0.40767401456832886,0.38041895627975464,0.07024982571601868,0.0325072705745697,-0.08468371629714966,0.35946470499038696,-0.2349807769060135,-0.0024667419493198395,0.04622022062540054,-0.17966938018798828,0.3651570677757263,4.57907772064209,-2.799185276031494,53.49759292602539,-49.27336883544922,-6.7026872634887695,3.739912271499634,-11.154338836669922,-3.094309091567993,30.0,30.0
1.25,0.0,0.0,0.0,-0.07853322476148605,0.02562112919986248,0.8682369589805603,-0.00027643650537356734,-0.006500766146928072,0.020423442125320435,-0.005354192573577166,-0.005269935820251703,-0.026490647345781326,0.008648712188005447,-0.017325786873698235,-0.10701597481966019,0.531334400177002,-0.3842616677284241,-0.018557628616690636,-0.05596143752336502,-0.10659072548151016,0.5164939761161804,-0.4077230989933014,0.29505056142807007,0.03616794943809509,0.038066744804382324,-0.13759785890579224,0.2991006672382355,-0.24086615443229675,-0.0034553594887256622,0.04521750658750534,-0.1820715367794037,0.37242650985717773,4.596895694732666,-3.0391812324523926,54.07624435424805,-49.622806549072266,-6.199502944946289,3.3421566486358643,-10.910528182983398,-3.563234806060791,30.0,30.0
1.26,0.0,0.0,0.0,-0.07854211330413818,0.02555423602461815,0.8682351112365723,-0.0003870472137350589,-0.00646670488640666,0.02008690871298313,-0.004686728585511446,-0.008026831783354282,-0.029304437339305878,0.008345621638000011,-0.017314566299319267,-0.1070210337638855,0.5311605930328369,-0.38437992334365845,-0.01830274797976017,-0.05587298795580864,-0.1066136434674263,0.5165244936943054,-0.40775588154792786,0.3901991546154022,0.04594721272587776,0.03625274449586868,-0.0804242417216301,0.37705397605895996,-0.23443132638931274,-0.00420221034437418,0.050050459802150726,-0.18187566101551056,0.3657405376434326,4.548168182373047,-3.0758168697357178,53.745689392089844,-49.81645584106445,-6.4030351638793945,3.70401668548584,-10.851949691772461,-3.1180672645568848,30.0,30.0
1.27,0.0,0.0,0.0,-0.07854956388473511,0.025488149374723434,0.868232250213623,-0.00016749449423514307,-0.006933910772204399,0.020189160481095314,-0.005459874868392944,-0.005111090838909149,-0.02764708176255226,0.008436935022473335,-0.017272628843784332,-0.10695520788431168,0.5309002995491028,-0.3845217525959015,-0.018052712082862854,-0.05579550936818123,-0.106621652841568,0.5165370106697083,-0.40779680013656616,0.3255595862865448,0.06569872796535492,0.03762280195951462,-0.0944351777434349,0.32179057598114014,-0.2345356047153473,-0.0024687815457582474,0.04569429159164429,-0.1805742084980011,0.36644697189331055,4.35613489151001,-3.3140416145324707,53.9049072265625,-49.69178009033203,-6.153082370758057,3.158672571182251,-10.904816627502441,-3.6618571281433105,30.0,30.0
