DanielTruong99/RLHumanoidRobot/analysis/data/state_log.csv
time_step,c_x,c_y,c_z,base_x,base_y,base_z,base_vx,base_vy,base_vz,base_wx,base_wy,base_wz,pos_R_hip_joint,pos_R_hip2_joint,pos_R_thigh_joint,pos_R_calf_joint,pos_R_toe_joint,pos_L_hip_joint,pos_L_hip2_joint,pos_L_thigh_joint,pos_L_calf_joint,pos_L_toe_joint,vel_R_hip_joint,vel_R_hip2_joint,vel_R_thigh_joint,vel_R_calf_joint,vel_R_toe_joint,vel_L_hip_joint,vel_L_hip2_joint,vel_L_thigh_joint,vel_L_calf_joint,vel_L_toe_joint,torque_R_hip_joint,torque_R_hip2_joint,torque_R_thigh_joint,torque_R_calf_joint,torque_R_toe_joint,torque_L_hip_joint,torque_L_hip2_joint,torque_L_thigh_joint,torque_L_calf_joint,torque_L_toe_joint
0.01,9.052566528320312,0.30831480026245117,-0.6833436489105225,-90.00682830810547,4.232488572597504e-05,1.0355472564697266,-0.4779714345932007,0.5739471316337585,-0.705044150352478,-5.923243999481201,2.0629994869232178,0.4583182632923126,-0.0661403015255928,0.003808478359133005,-0.4283222556114197,0.995465874671936,-0.07240456342697144,-0.18459776043891907,0.25876641273498535,-0.37400391697883606,0.7553750276565552,-0.3272303342819214,-20.738595962524414,14.796582221984863,-20.795278549194336,50.00001525878906,-18.192352294921875,-32.75196838378906,16.773799896240234,-5.455613136291504,49.20067596435547,-33.919342041015625,-50.41194152832031,-56.6263427734375,193.41119384765625,300.0,300.0,-218.7291259765625,300.0,300.0,1.3997802734375,15.733184814453125
0.02,9.05163288116455,0.5288481116294861,-0.6588554382324219,-90.01615905761719,-0.0009698867797851562,1.0273817777633667,0.49255210161209106,0.5342695713043213,-1.4301660060882568,-7.185832500457764,10.805671691894531,-8.526949882507324,0.09646675735712051,0.13521631062030792,-0.7579408884048462,1.4979660511016846,-0.5689324736595154,-0.007587091531604528,0.36933037638664246,-0.6205745339393616,1.2067846059799194,-0.7835933566093445,33.43049621582031,12.183388710021973,-40.554115295410156,49.943084716796875,-49.9189567565918,32.8648681640625,10.86709976196289,-32.649906158447266,39.35108184814453,-26.25050926208496,139.7061004638672,300.0,22.54309844970703,111.1594009399414,-300.0,-300.0,-65.83499145507812,300.0,-30.0,-30.0
0.03,9.039584159851074,0.8725115656852722,-0.6201775074005127,-90.03215026855469,0.002175514353439212,1.014074683189392,1.2901029586791992,0.8100325465202332,-1.9112274646759033,-3.4223785400390625,16.29595184326172,-5.49050235748291,0.36756330728530884,0.12433093786239624,-1.2577087879180908,1.9827635288238525,-0.8002643585205078,0.18423281610012054,0.4078353941440582,-1.0645190477371216,1.6976680755615234,-0.7999999523162842,26.3265323638916,-6.860222339630127,-46.22041320800781,27.581039428710938,50.00001907348633,7.541990756988525,2.977449655532837,-41.79094696044922,48.685081481933594,2.5028366508195177e-06,-300.0,95.11172485351562,-225.86746215820312,-48.7160530090332,-300.0,-300.0,300.0,300.0,-30.0,-30.0
0.04,9.021297454833984,1.143832802772522,-0.589400053024292,-90.04580688476562,0.006636821664869785,1.0041561126708984,1.7895467281341553,0.9873303771018982,-1.469764232635498,-4.914715766906738,19.975830078125,-3.1357674598693848,0.454588383436203,0.13133130967617035,-1.6437963247299194,1.9970976114273071,-0.7999756932258606,0.36006227135658264,0.3817773759365082,-1.5398741960525513,2.0000154972076416,-0.6228142976760864,0.5308499932289124,7.896005630493164,-38.448974609375,0.09798747301101685,4.5709311962127686e-06,17.928190231323242,-6.730091094970703,-44.54979705810547,-0.059385720640420914,43.87670135498047,45.651771545410156,-220.27664184570312,-60.63457489013672,134.1240692138672,-300.0,-131.12945556640625,300.0,300.0,-30.0,-30.0
0.05,9.002882957458496,1.3002455234527588,-0.571570634841919,-90.04974365234375,0.010395573452115059,1.0025763511657715,-0.1590249091386795,0.40917569398880005,0.0924406349658966,0.2505081295967102,-0.8817843198776245,-1.266862154006958,0.4612332880496979,0.2016734480857849,-1.6312229633331299,2.000007390975952,-0.7999902367591858,0.4033213257789612,0.32097798585891724,-1.7000035047531128,1.9968127012252808,-0.800000011920929,-0.21782106161117554,1.7601053714752197,14.733595848083496,0.008650874719023705,-3.72505746781826e-06,-2.9005579948425293,-4.627805233001709,0.009493828751146793,0.0005477711674757302,1.9464905562927015e-05,-36.25907516479492,-29.488021850585938,-29.611045837402344,-145.51638793945312,-300.0,300.0,300.0,300.0,-30.0,-30.0
0.06,8.93436050415039,1.6980335712432861,-0.5268981456756592,-90.04853057861328,0.01347426138818264,1.0024834871292114,-0.31203243136405945,0.4529323875904083,0.10704506188631058,-2.4133546352386475,-5.357895851135254,-4.610645294189453,0.4619123339653015,0.2438431680202484,-1.4198484420776367,1.9991552829742432,-0.799898087978363,0.4351673722267151,0.3696587085723877,-1.6999443769454956,2.0000267028808594,-0.7999999523162842,0.36847439408302307,5.7873992919921875,25.959856033325195,-0.00036957859992980957,-0.1628844290971756,8.28840160369873,11.592597007751465,1.2759119272232056e-06,0.02323017083108425,-1.372554834233597e-07,273.5694885253906,-48.97865676879883,172.7484893798828,-40.809715270996094,-300.0,272.70562744140625,300.0,300.0,-30.0,-30.0
0.07,8.904888153076172,1.8357117176055908,-0.511021614074707,-90.04742431640625,0.01751033402979374,1.0009294748306274,-0.18436351418495178,0.4062443673610687,-0.07464761286973953,0.9769573211669922,-3.3459267616271973,1.0132511854171753,0.37124544382095337,0.302380234003067,-1.1668022871017456,2.000169277191162,-0.8000918030738831,0.45562562346458435,0.3748878538608551,-1.7000075578689575,1.999981164932251,-0.7999999523162842,-15.858414649963379,6.084066867828369,25.004209518432617,-0.005603027995675802,0.0017634577816352248,-2.711064100265503,-7.411325454711914,-0.00010081948130391538,1.1362135410308838e-07,-0.01939144730567932,-190.41152954101562,-158.275146484375,-174.32864379882812,22.643245697021484,-300.0,-54.93273162841797,300.0,182.4545135498047,-30.0,-30.0
0.08,8.945199966430664,1.622553825378418,-0.534360408782959,-90.04777526855469,0.02234693616628647,0.9978132843971252,-0.13891077041625977,0.42645153403282166,-0.34921154379844666,-0.2922308146953583,-3.3763680458068848,1.9139561653137207,0.18044070899486542,0.36771005392074585,-0.9268592000007629,2.0000486373901367,-0.8000462651252747,0.40701383352279663,0.3394524157047272,-1.7000067234039307,1.9999443292617798,-0.800000011920929,-20.650178909301758,8.669273376464844,23.088966369628906,0.005425714887678623,-0.0005874318303540349,-6.26270866394043,-0.6104231476783752,-0.001518996199592948,4.6566128730773926e-07,-0.05059808865189552,-61.061668395996094,-4.59979248046875,32.518775939941406,135.8043975830078,-300.0,-79.23774719238281,300.0,197.43988037109375,-30.0,-30.0
0.09,8.989978790283203,1.35295569896698,-0.5638823509216309,-90.04914855957031,0.02706264704465866,0.9928938150405884,0.026628075167536736,0.5180376172065735,-0.514695942401886,-0.26934555172920227,-2.0496389865875244,2.7005600929260254,0.042559921741485596,0.4050716161727905,-0.7414100170135498,2.000091075897217,-0.800100564956665,0.31278374791145325,0.3209921419620514,-1.7000043392181396,1.9999597072601318,-0.7999999523162842,-8.14030933380127,3.027930736541748,14.815905570983887,-0.0018878534901887178,0.0019941991195082664,-11.952512741088867,-2.61041259765625,-0.0005036952206864953,1.601874828338623e-07,-0.02487899549305439,-179.45428466796875,162.2893524169922,-56.890907287597656,145.6337127685547,-300.0,-66.31924438476562,300.0,198.006591796875,-30.0,-30.0
0.1,8.98762321472168,1.3728283643722534,-0.561133623123169,-90.05111694335938,0.03169361501932144,0.9861733317375183,0.30287104845046997,0.5662875771522522,-0.6865729689598083,-1.0727232694625854,-0.21382121741771698,-2.2241249084472656,0.19546301662921906,0.3975004255771637,-0.7159397006034851,2.000014066696167,-0.8000140190124512,0.21392403542995453,0.3463740348815918,-1.7000033855438232,1.9999897480010986,-0.800000011920929,32.16814422607422,-2.2358875274658203,-6.232393264770508,-0.005894286558032036,0.0019101505167782307,-8.369336128234863,6.3847336769104,0.00019951589638367295,0.0013993821339681745,1.4712421034346335e-05,-4.736228942871094,300.0,69.09569549560547,75.59759521484375,-300.0,-117.72019958496094,300.0,300.0,-30.0,-30.0
0.11,8.893856048583984,1.8939659595489502,-0.5023305416107178,-90.05384826660156,0.0362183153629303,0.9786577224731445,0.3741777241230011,0.46737176179885864,-0.7570672035217285,0.007257381919771433,1.0991655588150024,-6.186610698699951,0.5068999528884888,0.35525164008140564,-0.806011974811554,2.000063180923462,-0.8000003099441528,0.18562936782836914,0.3202824294567108,-1.7000133991241455,1.9998775720596313,-0.800000011920929,33.037269592285156,-5.341570854187012,-11.063309669494629,-0.0024086779449135065,-0.000542420195415616,1.1543312072753906,-8.639856338500977,-0.0018973331898450851,1.5273690223693848e-07,-0.12847588956356049,106.46013641357422,49.30516052246094,-110.91609191894531,39.333587646484375,-300.0,-78.26657104492188,300.0,300.0,-30.0,-30.0
0.12,8.637667655944824,2.8514456748962402,-0.3927433490753174,-90.0579605102539,0.04028061032295227,0.9719264507293701,0.5119829773902893,0.3310708999633789,-0.7749127149581909,0.6449024677276611,4.940661430358887,-9.831284523010254,0.7254432439804077,0.2498176097869873,-0.926632821559906,2.000089645385742,-0.800029456615448,0.26561087369918823,0.227677583694458,-1.7000420093536377,1.999569058418274,-0.8000000715255737,17.73023796081543,-14.651330947875977,-15.072549819946289,0.006199052557349205,-0.013197076506912708,12.128873825073242,-8.57068920135498,0.00796184130012989,5.364418029785156e-07,-0.3020622134208679,300.0,-300.0,69.8407974243164,-236.5653076171875,-300.0,-269.49371337890625,300.0,300.0,-30.0,-23.629615783691406
0.13,8.133617401123047,4.082434177398682,-0.24581480026245117,-90.06375885009766,0.04432705044746399,0.9658417105674744,0.7319602370262146,0.24416394531726837,-0.8869203925132751,1.8914942741394043,7.743542671203613,-11.299308776855469,0.7628547549247742,0.08482425659894943,-1.0627247095108032,2.0000314712524414,-0.7999431490898132,0.4412485361099243,0.08197833597660065,-1.7000244855880737,1.9997164011001587,-0.8000000715255737,-0.5795952081680298,-19.048328399658203,-15.395581245422363,-0.0055357348173856735,-0.002851789817214012,22.61985969543457,-18.006271362304688,-0.0011390324216336012,7.450580596923828e-08,-0.21404604613780975,268.347900390625,-300.0,-4.768913269042969,-168.04421997070312,-300.0,-142.5693359375,300.0,300.0,-30.0,-30.0
0.14,7.53302526473999,5.114889144897461,-0.11371922492980957,-90.07025909423828,0.04998519644141197,0.9581262469291687,1.0560247898101807,0.3409520387649536,-1.049161434173584,3.5053212642669678,9.098444938659668,-5.9897541999816895,0.6034441590309143,-0.05912281200289726,-1.2171971797943115,1.9999955892562866,-0.7999844551086426,0.6248509287834167,-0.11400825530290604,-1.6999012231826782,1.9999781847000122,-0.7999998927116394,-20.140867233276367,-14.691534042358398,-15.939227104187012,-0.00011945515871047974,-0.024819975718855858,16.708524703979492,-19.784021377563477,-1.5718142094556242e-06,0.0042906152084469795,0.0011720182374119759,29.444549560546875,-300.0,20.006484985351562,-111.23770141601562,-300.0,22.42272186279297,300.0,89.56776428222656,-30.0,-30.0
0.15,7.431024074554443,5.268024444580078,-0.09262228012084961,-90.07579803466797,0.05692804232239723,0.9475943446159363,1.1281204223632812,0.5486916303634644,-1.1000276803970337,2.7588083744049072,6.582449913024902,3.688922166824341,0.2850761115550995,-0.0651397630572319,-1.3721716403961182,1.9999518394470215,-0.8000184893608093,0.6942914724349976,-0.2887449860572815,-1.6999543905258179,2.0000152587890625,-0.7999998927116394,-36.383487701416016,5.3749799728393555,-13.07143783569336,-3.0841329135000706e-07,0.0017186542972922325,1.5748423337936401,-15.467792510986328,-9.313225746154785e-09,0.008759102784097195,1.2038071872666478e-07,-133.75006103515625,-300.0,-5.1608428955078125,73.67059326171875,-300.0,158.41819763183594,300.0,133.87098693847656,-30.0,-30.0
0.16,8.05451774597168,4.259150981903076,-0.2220461368560791,-90.08015441894531,0.06377904862165451,0.93536376953125,1.280519723892212,0.6551854610443115,-1.1276576519012451,1.4171788692474365,5.581276893615723,12.381477355957031,-0.09467850625514984,0.09785179048776627,-1.4851490259170532,2.000061273574829,-0.8000460863113403,0.6313138604164124,-0.4356878697872162,-1.7000304460525513,1.9997549057006836,-0.8000000715255737,-43.7576789855957,24.340444564819336,-9.934555053710938,-0.007283857092261314,-0.0005100771086290479,-11.788263320922852,-14.988104820251465,0.005727536976337433,-5.960464477539063e-08,-0.17275837063789368,-151.052490234375,-300.0,-37.9095458984375,144.3007049560547,-300.0,1.3462257385253906,300.0,208.1500244140625,-30.0,-30.0
0.17,8.653876304626465,2.857022523880005,-0.3890805244445801,-90.08329772949219,0.06766390800476074,0.922370433807373,1.2592926025390625,0.32049766182899475,-0.9732561111450195,-0.5669134259223938,3.009100914001465,7.854831218719482,-0.27723971009254456,0.20771247148513794,-1.5401664972305298,1.9999788999557495,-0.7999945878982544,0.5455449819564819,-0.49999451637268066,-1.6999726295471191,2.0000064373016357,-0.800000011920929,-11.325363159179688,7.4370317459106445,-4.063609600067139,-1.4530960470438004e-06,-0.008722277358174324,-7.501401424407959,4.516914486885071e-07,-2.8870999813079834e-08,0.0007026931270956993,3.722366272995714e-07,-3.2433509826660156,300.0,-110.5711669921875,-35.411827087402344,-300.0,56.30326461791992,300.0,300.0,-30.0,-29.935787200927734
0.18,8.861928939819336,2.1338696479797363,-0.4714648723602295,-90.08563232421875,0.06891584396362305,0.9085642099380493,1.2052863836288452,0.14872780442237854,-0.9019137024879456,-1.5764710903167725,1.1049915552139282,2.768728256225586,-0.23933131992816925,0.14530886709690094,-1.563662052154541,1.9998319149017334,-0.799970269203186,0.5258620381355286,-0.49996423721313477,-1.6998426914215088,2.0000522136688232,-0.7999998927116394,10.588044166564941,-13.935081481933594,0.21556995809078217,-0.0001428350806236267,-0.04752932861447334,0.7833648920059204,7.209135219454765e-06,7.692724466323853e-07,0.009365655481815338,-2.062843122985214e-07,48.69499206542969,300.0,-140.42117309570312,-145.8490753173828,-300.0,194.99620056152344,300.0,300.0,-30.0,-19.836713790893555
0.19,8.828486442565918,2.2762935161590576,-0.4554407596588135,-90.08750915527344,0.06818903982639313,0.8935711979866028,1.3326034545898438,-0.016900798305869102,-0.9720717668533325,-1.6186305284500122,1.0986671447753906,-3.379791498184204,-0.0350663848221302,-0.05125584453344345,-1.5643210411071777,1.999984622001648,-0.7999853491783142,0.5910142660140991,-0.49998268485069275,-1.699877142906189,2.0000269412994385,-0.7999999523162842,26.351707458496094,-23.207956314086914,0.04645253345370293,0.004311922937631607,1.1275988072156906e-06,10.264683723449707,6.898771971464157e-07,2.3283064365386963e-07,-0.009335281327366829,7.642483978997916e-08,84.86968994140625,300.0,-219.30506896972656,-68.8656005859375,-300.0,6.214020729064941,300.0,300.0,-30.0,-21.212514877319336
0.2,8.650177001953125,2.886263847351074,-0.3857138156890869,-90.08926391601562,0.06786881387233734,0.8772411346435547,1.4087002277374268,0.11348719149827957,-1.0164985656738281,-0.8900153636932373,0.6322464942932129,-3.917722702026367,0.14691336452960968,-0.21937045454978943,-1.5457854270935059,1.9999698400497437,-0.7999764084815979,0.7064494490623474,-0.49997439980506897,-1.6999253034591675,2.0000314712524414,-0.7999998331069946,16.374187469482422,-16.906858444213867,2.472316265106201,-5.293986760079861e-08,-0.0034813587553799152,12.709671020507812,6.634509190917015e-07,2.551823854446411e-07,0.0013810531236231327,7.020134944468737e-07,97.78548431396484,-91.4954605102539,-300.0,-58.70062255859375,-300.0,34.299983978271484,300.0,300.0,-30.0,-13.290138244628906
0.21,8.468786239624023,3.3866937160491943,-0.3271481990814209,-90.09152221679688,0.06906617432832718,0.8595018982887268,1.657423496246338,0.19134266674518585,-1.161887526512146,0.4883265793323517,2.0847010612487793,-2.134181261062622,0.2218722403049469,-0.3533592224121094,-1.547802209854126,2.0000157356262207,-0.79999178647995,0.8271796107292175,-0.4999840557575226,-1.7000019550323486,1.9999924898147583,-0.800000011920929,0.9949484467506409,-12.035382270812988,-2.9465482234954834,-0.0015408869367092848,6.257323548197746e-09,11.586539268493652,5.064066499471664e-07,0.0004210398765280843,0.0037010652013123035,-9.110212886298541e-07,96.65234375,-270.08563232421875,-300.0,-51.78197479248047,-300.0,-61.23421096801758,300.0,239.84397888183594,-30.0,-30.0
0.22,8.441408157348633,3.4605355262756348,-0.31815242767333984,-90.09465789794922,0.07167216390371323,0.8402915596961975,1.8576749563217163,0.33174407482147217,-1.2515616416931152,0.28015923500061035,2.958117961883545,1.2168219089508057,0.13346701860427856,-0.3681989312171936,-1.6165982484817505,2.0000460147857666,-0.8000332713127136,0.9107240438461304,-0.5000267028808594,-1.7000216245651245,1.9998520612716675,-0.8000000715255737,-15.627485275268555,5.824474334716797,-9.762442588806152,-0.00232188799418509,0.0007041741628199816,5.799738883972168,0.004102359060198069,-0.002305566566064954,3.725290298461914e-09,-0.13329745829105377,-55.826576232910156,-154.26077270507812,-300.0,115.32431030273438,-300.0,-52.07008361816406,300.0,162.7665557861328,-30.0,-30.0
0.23,8.577521324157715,3.1148242950439453,-0.3584620952606201,-90.09793853759766,0.07467393577098846,0.8204039931297302,1.6699883937835693,0.4218035042285919,-1.0701100826263428,-1.168299913406372,0.5856518149375916,2.7751352787017822,-0.002958821365609765,-0.265843003988266,-1.7005419731140137,1.9990226030349731,-0.799956202507019,0.9336454272270203,-0.49988582730293274,-1.6999136209487915,2.000098705291748,-0.7999997735023499,-8.839332580566406,12.190181732177734,0.3355453610420227,-0.0004564821720123291,-0.07014501094818115,0.200619176030159,1.4517456293106079e-05,1.5795230865478516e-06,0.018746182322502136,-5.489637260325253e-07,-188.86001586914062,150.2530059814453,-300.0,87.43096923828125,-300.0,-55.3120002746582,300.0,187.4697723388672,-30.0,-30.0
0.24,8.666041374206543,2.8645694255828857,-0.38725900650024414,-90.1002197265625,0.07678864896297455,0.8007513880729675,1.802965760231018,0.24614712595939636,-1.0926395654678345,-0.5814021825790405,1.4907623529434204,0.6255056262016296,-0.007047837134450674,-0.23668324947357178,-1.7000528573989868,2.0000386238098145,-0.8000301718711853,0.9306843876838684,-0.5000309348106384,-1.7000231742858887,1.9998564720153809,-0.7999999523162842,5.033023357391357,-3.116276502609253,-0.008747933432459831,-0.023133138194680214,0.001406137365847826,-1.386385202407837,0.012832880020141602,-0.007961156778037548,7.82310962677002e-08,-0.15595640242099762,-139.73390197753906,300.0,-300.0,-70.37483215332031,-300.0,-208.49180603027344,300.0,196.88978576660156,-30.0,-30.0
0.25,8.630476951599121,2.976325511932373,-0.3742330074310303,-90.1026382446289,0.07783225923776627,0.7805172801017761,1.9269500970840454,0.15731468796730042,-1.0985976457595825,-0.8084309697151184,1.7321687936782837,-1.3947616815567017,0.0978885143995285,-0.2961185574531555,-1.7000188827514648,2.000044107437134,-0.800021231174469,0.9216036796569824,-0.500033438205719,-1.7000110149383545,1.999891757965088,-0.7999999523162842,14.665278434753418,-7.619020462036133,0.0020650613587349653,0.0021749187726527452,-0.0010839435271918774,-0.7067275047302246,0.0012519598240032792,-0.0025728303007781506,4.470348358154297e-07,-0.0887020155787468,-77.60833740234375,222.24266052246094,-300.0,6.484130859375,-300.0,-224.23963928222656,300.0,185.3585968017578,-30.0,-30.0
0.26,8.626996040344238,2.9926748275756836,-0.3722245693206787,-90.1050796508789,0.07898033410310745,0.7593886852264404,2.017591714859009,0.2535374164581299,-1.1112775802612305,-0.4912050664424896,1.706775426864624,0.9873151779174805,0.2083749920129776,-0.35943934321403503,-1.7000136375427246,1.9999942779541016,-0.8000063896179199,0.8902298808097839,-0.5000004172325134,-1.7000069618225098,1.9999412298202515,-0.7999999523162842,8.233867645263672,-5.102162837982178,0.002747833961620927,0.0011732315178960562,0.00018166418885812163,-4.932104110717773,0.0008744722581468523,-0.0006156158051453531,1.2200325727462769e-07,-0.037144679576158524,-34.38450622558594,-102.98214721679688,-300.0,8.60986328125,-300.0,-175.49453735351562,300.0,167.09991455078125,-30.0,-30.0
0.27,8.787233352661133,2.489675283432007,-0.4296896457672119,-90.10765075683594,0.08158935606479645,0.737384021282196,2.1229119300842285,0.30205094814300537,-1.1288917064666748,0.1873956024646759,1.786138892173767,3.3909199237823486,0.2447022646665573,-0.41254860162734985,-1.7000055313110352,1.999969244003296,-0.7999902963638306,0.8232511281967163,-0.49998414516448975,-1.6999934911727905,2.0000088214874268,-0.7999998927116394,-0.015509218908846378,-5.32502555847168,0.0014285438228398561,0.00043969450052827597,1.8777791410684586e-07,-7.882787227630615,1.4116812963038683e-07,-9.988434612751007e-08,0.0009248327696695924,-8.816268746159039e-07,24.504131317138672,-188.3292236328125,-300.0,-32.765419006347656,-300.0,-227.17295837402344,300.0,105.15515899658203,-30.0,-30.0
0.28,9.002706527709961,1.5467805862426758,-0.5351560115814209,-90.1102294921875,0.08538317680358887,0.7145843505859375,2.225837469100952,0.2811807692050934,-1.12019944190979,0.3561267852783203,1.7581853866577148,4.495882511138916,0.21348319947719574,-0.44974786043167114,-1.6999919414520264,1.9891746044158936,-0.7999905347824097,0.7395462393760681,-0.49998876452445984,-1.699991226196289,2.0000085830688477,-0.800000011920929,-5.501372814178467,-2.53802227973938,-0.0011609656503424048,-1.932215690612793,1.4295801520347595e-07,-8.600571632385254,3.245077095925808e-08,-2.1420419216156006e-07,0.0013345961924642324,-3.3979813451878726e-07,31.43532371520996,-123.37896728515625,-300.0,1.6295623779296875,-300.0,-267.2630920410156,300.0,-17.101497650146484,-30.0,-30.0
0.29,9.132925987243652,0.22428053617477417,-0.6801736354827881,-90.11264038085938,0.09023575484752655,0.6916998624801636,2.310068368911743,0.2811279296875,-1.0431393384933472,0.5175822973251343,2.3104023933410645,5.7428436279296875,0.11674918234348297,-0.4450390040874481,-1.6999545097351074,1.904765248298645,-0.8000025153160095,0.6419800519943237,-0.49999722838401794,-1.700007438659668,1.9999492168426514,-0.800000011920929,-12.774773597717285,2.5081143379211426,-0.0038758704904466867,-13.108148574829102,0.0013232702622190118,-10.533777236938477,1.0017538443207741e-07,0.00019762921147048473,-7.683411240577698e-07,-0.03537167236208916,2.259754180908203,-136.03829956054688,-300.0,17.838157653808594,-300.0,-173.6149139404297,300.0,-113.38002014160156,-30.0,-30.0
0.3,8.965044975280762,-1.7579360008239746,-0.8975920677185059,-90.11455535888672,0.09695713222026825,0.668917179107666,2.3305251598358154,0.30500635504722595,-0.9563838243484497,0.7973054647445679,1.368615746498108,9.812840461730957,-0.0737285390496254,-0.37750381231307983,-1.6790077686309814,1.7377806901931763,-0.7999894618988037,0.5018479824066162,-0.4998992085456848,-1.7000032663345337,1.9999970197677612,-0.7999999523162842,-23.61471939086914,9.142509460449219,3.943913698196411,-18.867481231689453,-1.0349322110414505e-06,-16.533615112304688,-3.1851232051849365e-07,0.004461681004613638,0.0005187400383874774,-1.9140312360832468e-05,-34.319236755371094,-237.9712677001953,-300.0,9.742095947265625,-300.0,186.41195678710938,300.0,-35.75859832763672,-30.0,-30.0
0.31,8.336832046508789,-3.7325756549835205,-1.1240620613098145,-90.1151351928711,0.10490080714225769,0.6453141570091248,2.193013906478882,0.17248016595840454,-0.8732138276100159,-0.6046998500823975,-1.9158809185028076,12.316142082214355,-0.32304856181144714,-0.27031072974205017,-1.5758315324783325,1.5360699892044067,-0.7999767065048218,0.33360955119132996,-0.4997425675392151,-1.6998417377471924,2.0000247955322266,-0.7999998331069946,-26.50784683227539,11.284062385559082,13.981897354125977,-19.722759246826172,-0.02086896263062954,-17.013498306274414,-0.087325818836689,-2.0302832126617432e-07,-0.03888699784874916,3.121203917544335e-08,43.23236083984375,-171.19155883789062,-300.0,-8.589618682861328,-300.0,300.0,300.0,45.89408874511719,-30.0,-30.0
0.32,7.593024730682373,-5.07258415222168,-1.2912042140960693,-90.11455535888672,0.11324583739042282,0.621408224105835,1.8756517171859741,0.11862262338399887,-0.8027678728103638,-1.8619053363800049,-4.0983662605285645,14.687155723571777,-0.5795091390609741,-0.1642816960811615,-1.4254045486450195,1.4620896577835083,-1.2378997802734375,0.1316702663898468,-0.4999377727508545,-1.7000129222869873,1.9999696016311646,-0.7999998927116394,-26.211284637451172,8.398691177368164,13.146954536437988,-7.112892150878906,-7.602270126342773,-22.699504852294922,-0.034435391426086426,-0.05482127517461777,0.015104852616786957,-0.1825956106185913,-129.6929168701172,-96.55022430419922,-300.0,-27.95870018005371,-300.0,300.0,300.0,-6.086761474609375,-30.0,-30.0
0.33,6.934403896331787,-5.932412624359131,-1.4088194370269775,-90.11155700683594,0.12444433569908142,0.6006878018379211,1.6379181146621704,0.38206249475479126,-0.426113486289978,-3.459425926208496,-5.842301845550537,16.880516052246094,-0.8171064257621765,-0.17725032567977905,-1.3189836740493774,1.5097081661224365,-1.3923394680023193,-0.13323812186717987,-0.49985358119010925,-1.700007438659668,1.999977707862854,-0.7999999523162842,-22.276737213134766,-4.785983562469482,11.961645126342773,-3.8123059272766113,47.755226135253906,-29.444683074951172,-0.03054034896194935,0.0317172147333622,0.035483233630657196,-0.2917379140853882,-167.875244140625,-62.9053955078125,-300.0,-96.03108978271484,-40.46329116821289,300.0,300.0,-300.0,-30.0,-29.508010864257812
0.34,6.5783772468566895,-6.303610801696777,-1.463994026184082,-90.10015869140625,0.13895206153392792,0.5876371264457703,0.9234423637390137,0.4144177734851837,0.6284104585647583,-4.286031246185303,-12.71591854095459,19.75901222229004,-1.0824024677276611,-0.27632936835289,-1.1478688716888428,1.486499547958374,-1.4176329374313354,-0.35602450370788574,-0.500008761882782,-1.4977139234542847,1.7750442028045654,-0.7999998927116394,-31.229373931884766,-10.794111251831055,18.716352462768555,-5.076742649078369,-2.4940857887268066,-19.03045654296875,0.04938302934169769,29.53396224975586,-35.41917419433594,6.112968549132347e-07,111.14199829101562,-268.3858947753906,-300.0,-71.23284912109375,300.0,264.1141662597656,-300.0,-300.0,-30.0,-30.0
0.35000000000000003,6.603998184204102,-6.240701198577881,-1.4559261798858643,-90.07878112792969,0.15513423085212708,0.5799702405929565,0.8714770078659058,0.405312180519104,1.2291194200515747,-9.744693756103516,-16.352943420410156,16.310791015625,-1.3897144794464111,-0.4339083135128021,-0.9231706857681274,1.3187881708145142,-1.3274792432785034,-0.4094221591949463,-0.4998267889022827,-1.0394026041030884,1.439888596534729,-1.0874446630477905,-34.93209457397461,-14.897292137145996,24.303356170654297,-23.907737731933594,19.722890853881836,-1.1231865882873535,0.03310951590538025,46.313720703125,-33.35121154785156,-19.359668731689453,300.0,-300.0,194.30201721191406,-59.715110778808594,300.0,300.0,-104.30201721191406,-300.0,-30.0,-30.0
0.36,6.493300437927246,-6.310543537139893,-1.4692213535308838,-90.04986572265625,0.16940799355506897,0.5798518657684326,1.6294586658477783,0.5085848569869995,2.018826961517334,-14.743399620056152,-9.28257942199707,11.927660942077637,-1.5004470348358154,-0.5918420553207397,-0.5879032015800476,1.0120103359222412,-1.2331407070159912,-0.4452968239784241,-0.41778603196144104,-0.811850368976593,1.4644170999526978,-1.1487632989883423,0.22316479682922363,-11.555624008178711,44.507320404052734,-37.43149185180664,16.63901138305664,-6.809247970581055,11.110754013061523,19.096237182617188,2.0353517532348633,-0.8012362718582153,-143.1959228515625,-300.0,289.3209228515625,300.0,300.0,239.19772338867188,-300.0,-300.0,-30.0,-30.0
0.37,6.1024274826049805,-6.639004707336426,-1.5253980159759521,-90.01444244384766,0.18045371770858765,0.585286021232605,1.9273537397384644,-0.1435057520866394,2.2169816493988037,-17.236125946044922,-4.757015228271484,11.246520042419434,-1.4904760122299194,-0.6624928116798401,-0.206618532538414,0.7979544997215271,-1.0395100116729736,-0.48665913939476013,-0.2659805417060852,-0.610965371131897,1.4846314191818237,-1.2203614711761475,-1.2593090534210205,-3.4750194549560547,31.44170379638672,-10.631433486938477,55.213687896728516,-6.349132537841797,17.180513381958008,18.883255004882812,-1.8263335227966309,4.158200263977051,23.66099739074707,-300.0,300.0,300.0,300.0,300.0,-300.0,239.412109375,-30.0,-30.0
0.38,5.614041328430176,-7.007671356201172,-1.593518614768982,-89.97676086425781,0.18815569579601288,0.5946119427680969,2.1096420288085938,-0.7811614274978638,2.228321075439453,-16.19144630432129,1.279611349105835,7.080092906951904,-1.5001351833343506,-0.621025562286377,-0.04920809343457222,0.999595046043396,-0.7999771237373352,-0.5471914410591125,-0.07593656331300735,-0.43487516045570374,1.4458980560302734,-1.2791777849197388,0.03777994588017464,8.52143383026123,10.176271438598633,38.294525146484375,-0.009428433142602444,-5.662716865539551,19.86408805847168,13.632821083068848,-3.767698287963867,7.086268424987793,-74.8053207397461,-295.179931640625,300.0,300.0,300.0,-0.4402008056640625,-300.0,262.221435546875,-30.0,-30.0
0.39,5.420485019683838,-7.1103620529174805,-1.617975115776062,-89.93888092041016,0.19464321434497833,0.6086257100105286,2.2618489265441895,-1.3104603290557861,2.358255386352539,-13.88022518157959,3.896029472351074,-0.8689011335372925,-1.439046025276184,-0.45849859714508057,-0.010930684395134449,1.443100094795227,-0.7999898791313171,-0.5597956776618958,0.10968732088804245,-0.27433592081069946,1.3574773073196411,-1.2937941551208496,14.403170585632324,23.545249938964844,3.0966575145721436,47.53373336791992,0.005126429721713066,1.6779534816741943,18.468042373657227,13.693219184875488,-9.98393440246582,7.244961261749268,14.298233032226562,180.37884521484375,101.33036041259766,300.0,300.0,-300.0,-300.0,39.589599609375,-30.0,-30.0
0.4,5.864433765411377,-6.694644451141357,-1.5504353046417236,-89.89823150634766,0.2007615566253662,0.6272058486938477,2.5997142791748047,-1.8772759437561035,2.415954113006592,-13.98879623413086,4.523043155670166,-11.164491653442383,-1.2432236671447754,-0.13186141848564148,-0.011451896280050278,1.790355920791626,-0.7999874353408813,-0.48248904943466187,0.29731690883636475,-0.09310447424650192,1.1972557306289673,-1.2793463468551636,28.332040786743164,40.63680648803711,-2.6641504764556885,30.67510414123535,0.001584719866514206,12.578543663024902,19.012287139892578,16.957002639770508,-19.02136993408203,10.63017463684082,109.47203826904297,257.5750732421875,64.97746276855469,300.0,300.0,-300.0,-300.0,-104.22174835205078,-30.0,-30.0
0.41000000000000003,6.702333450317383,-5.781810760498047,-1.4111969470977783,-89.85059356689453,0.20994974672794342,0.647297203540802,3.128537654876709,-2.242300033569336,1.9559097290039062,-15.811623573303223,-3.957353353500366,-16.16451644897461,-0.9638816714286804,0.18010036647319794,-0.03791871294379234,1.9522285461425781,-0.7998538613319397,-0.3652857542037964,0.48110154271125793,0.21910728514194489,0.8922932147979736,-1.2112905979156494,36.23279571533203,32.2440299987793,-0.874627411365509,10.155600547790527,-0.034388381987810135,15.773463249206543,20.280141830444336,35.27875518798828,-38.187828063964844,25.650632858276367,137.0257110595703,216.9187469482422,108.11979675292969,116.50163269042969,300.0,88.8060073852539,-300.0,-63.80152893066406,-30.0,-30.0
0.42,7.268075466156006,-4.960519790649414,-1.2981913089752197,-89.80049133300781,0.22412170469760895,0.6654305458068848,3.194812774658203,-1.7933704853057861,1.0171891450881958,-10.315742492675781,-12.463462829589844,-14.2750244140625,-0.6232410073280334,0.3265223503112793,-0.08599907904863358,2.0002994537353516,-0.7999807000160217,-0.2698225677013397,0.6526237726211548,0.5768630504608154,0.6642251014709473,-0.8062106370925903,40.79762268066406,8.792412757873535,-6.254522323608398,0.015168953686952591,-0.015807028859853745,17.438549041748047,19.346961975097656,28.08527946472168,-3.9920053482055664,23.190181732177734,203.26220703125,231.49124145507812,-77.39035034179688,-209.10012817382812,300.0,6.932404518127441,290.57342529296875,46.38339614868164,-30.0,-30.0
0.43,7.617203712463379,-4.314119338989258,-1.214243769645691,-89.75737762451172,0.23896290361881256,0.6816296577453613,3.6039023399353027,-1.9004600048065186,0.6277940273284912,-1.3442602157592773,-2.937532424926758,-11.158411026000977,-0.21072918176651,0.3395576477050781,-0.2882166802883148,2.00016450881958,-0.8000142574310303,-0.3467382490634918,0.5835912823677063,0.7804572582244873,1.0199528932571411,-0.7999989986419678,45.37758255004883,-1.5800961256027222,-32.91707229614258,-0.7597881555557251,-0.8795450329780579,4.904269218444824,-10.361394882202148,-1.7062911987304688,49.841251373291016,1.4944753274903633e-06,117.37213897705078,41.54644775390625,-300.0,-17.545671463012695,217.27908325195312,-300.0,300.0,212.68380737304688,-30.0,-30.0
0.44,8.006476402282715,-3.4406578540802,-1.1039958000183105,-89.72087860107422,0.255829393863678,0.6959294676780701,3.9456448554992676,-1.3828911781311035,0.30662623047828674,2.9077677726745605,-0.21223187446594238,-12.561140060424805,0.17150472104549408,0.16423213481903076,-0.5916779637336731,2.000291585922241,-0.8001400828361511,-0.28903713822364807,0.3241799771785736,0.7516701817512512,1.5123177766799927,-0.7999999523162842,35.35944366455078,-21.677936553955078,-29.687793731689453,-0.3349243700504303,0.01428960356861353,5.932968616485596,-36.04071807861328,-2.28450083732605,48.02122116088867,3.875238689943217e-07,133.9858856201172,-78.89460754394531,-276.9535217285156,76.39679718017578,101.65779113769531,-300.0,300.0,241.7259979248047,-30.0,-30.0
0.45,8.25036907196045,-2.682079315185547,-1.0113399028778076,-89.68549346923828,0.2749447226524353,0.7077015042304993,4.43104887008667,-1.0155885219573975,0.39320316910743713,6.476381301879883,0.49557650089263916,-8.906240463256836,0.23776330053806305,-0.07572577148675919,-0.7578496932983398,1.9999192953109741,-0.8004171252250671,-0.15660828351974487,0.023828968405723572,0.6516586542129517,2.002206325531006,-0.7999979257583618,-7.15474796295166,-20.62752914428711,-12.872918128967285,8.344650268554688e-07,-1.7129932641983032,14.39217472076416,-35.4693603515625,-7.618166923522949,31.965974807739258,-0.0032827516552060843,142.43504333496094,-300.0,-287.3626403808594,136.00299072265625,-200.6864471435547,14.627738952636719,300.0,296.51654052734375,-30.0,-30.0
0.46,8.389632225036621,-2.0175788402557373,-0.9319741725921631,-89.64277648925781,0.2955981492996216,0.7196522951126099,4.525146484375,-0.8917118310928345,0.08500241488218307,6.072233200073242,-3.8540396690368652,-6.9761962890625,0.14100266993045807,-0.2086871862411499,-0.8490257859230042,1.9999948740005493,-0.8000151515007019,-0.025696976110339165,-0.27449125051498413,0.6876932382583618,1.9982702732086182,-0.8000000715255737,-14.037467956542969,-11.307988166809082,-8.346150398254395,0.00018197757890447974,-0.036396197974681854,9.215863227844238,-32.533485412597656,3.3951268196105957,5.327165126800537e-07,-0.12198018282651901,-47.034461975097656,-111.69348907470703,-106.94430541992188,16.405563354492188,-4.996511459350586,62.376426696777344,300.0,239.5663604736328,-30.0,-30.0
0.47000000000000003,8.455609321594238,-1.4699070453643799,-0.8672802448272705,-89.5996322631836,0.31403952836990356,0.7312528491020203,5.17978048324585,-0.7218004465103149,0.19831576943397522,4.61109733581543,3.4782917499542236,-6.25523567199707,0.034105923026800156,-0.3122846782207489,-1.0211832523345947,1.9999943971633911,-0.7992013692855835,0.051762696355581284,-0.4937581419944763,0.6114368438720703,1.9999897480010986,-0.800000011920929,-9.385956764221191,-9.009261131286621,-21.657026290893555,1.5059486031532288e-06,-1.0452978610992432,9.22541618347168,-9.987064361572266,-12.183717727661133,7.35744833946228e-07,-0.46408897638320923,-10.368576049804688,36.56135940551758,141.23191833496094,-36.42360305786133,-300.0,-109.47412872314453,300.0,300.0,-30.0,-30.0
0.48,8.458993911743164,-1.1375154256820679,-0.8284614086151123,-89.55467224121094,0.32903027534484863,0.745634138584137,5.042046546936035,-0.46101418137550354,0.6215615272521973,-0.03990894928574562,0.7795839309692383,-2.422075033187866,-0.07255721092224121,-0.2943931519985199,-1.1528815031051636,1.99970281124115,-0.7998483777046204,0.12812787294387817,-0.4814322888851166,0.5024247765541077,2.000114917755127,-0.7999997735023499,-12.422845840454102,8.229053497314453,-9.111631393432617,-4.776567220687866e-05,-0.24261876940727234,5.805118560791016,6.466000556945801,-12.275418281555176,0.0007921405485831201,-0.00033315829932689667,-6.7526092529296875,-55.09326171875,181.01914978027344,137.43051147460938,-169.41018676757812,300.0,300.0,300.0,-30.0,-30.0
0.49,8.418261528015137,-1.075588583946228,-0.8216335773468018,-89.50829315185547,0.3431483209133148,0.7623690962791443,4.449711322784424,-0.33890560269355774,0.5425660610198975,-0.8529455661773682,-6.591935634613037,0.35454854369163513,-0.1599174588918686,-0.2440873086452484,-1.1149163246154785,2.0000290870666504,-0.8000549674034119,0.21584266424179077,-0.37940362095832825,0.45294514298439026,1.999701738357544,-0.7999999523162842,-7.961878299713135,2.071286916732788,11.111364364624023,0.01422752533107996,-0.0009620983619242907,9.723834037780762,12.598573684692383,-0.6496375799179077,6.183981895446777e-07,-0.10021259635686874,-25.625873565673828,-84.02165985107422,70.38336181640625,-105.2587890625,81.10956573486328,300.0,300.0,300.0,-30.0,-30.0
0.5,8.354418754577637,-1.191030502319336,-0.8359823226928711,-89.46240234375,0.35663196444511414,0.7793207764625549,4.891582012176514,-0.4923560619354248,0.3795601427555084,-0.7531176805496216,-0.42210298776626587,1.7064906358718872,-0.23447199165821075,-0.2376299351453781,-1.04525887966156,1.99991774559021,-0.7999966740608215,0.20228518545627594,-0.32878392934799194,0.30678343772888184,1.9999955892562866,-0.7999999523162842,-6.061374664306641,0.08897595852613449,4.782791614532471,4.1676685214042664e-07,-0.005099514964967966,-7.286225318908691,0.7401154637336731,-22.132888793945312,-6.705522537231445e-07,-0.25323209166526794,-58.09205627441406,60.83501434326172,-62.02301025390625,9.625513076782227,-300.0,0.14837265014648438,300.0,300.0,-30.0,-30.0
0.51,8.286861419677734,-1.3254344463348389,-0.8528554439544678,-89.41744995117188,0.36932554841041565,0.7947335243225098,5.069764137268066,-0.5187849998474121,0.23950760066509247,-0.6826738119125366,2.5528836250305176,1.6261334419250488,-0.23819832503795624,-0.2673659026622772,-0.9896227717399597,1.9997587203979492,-0.7998718023300171,0.072562076151371,-0.3431349992752075,0.028696902096271515,2.0001285076141357,-0.7999995946884155,3.9544763565063477,-5.375748634338379,6.3371477127075195,-1.611560583114624e-05,-0.20503295958042145,-16.238765716552734,-3.2222583293914795,-32.3218879699707,-0.011247062124311924,-0.0006173762958496809,42.41825866699219,78.28430938720703,-98.41134643554688,-33.73133850097656,-268.64508056640625,120.39399719238281,300.0,300.0,-30.0,-30.0
0.52,8.229302406311035,-1.3812278509140015,-0.8603219985961914,-89.37167358398438,0.38313737511634827,0.8081730008125305,4.87322998046875,-0.48818668723106384,0.00410118605941534,0.2588002681732178,-1.0869057178497314,0.6412578225135803,-0.14463582634925842,-0.3414812684059143,-0.8538139462471008,1.9998537302017212,-0.7999407649040222,-0.03200269490480423,-0.3479846715927124,-0.21685205399990082,1.9999855756759644,-0.7999999523162842,12.166484832763672,-9.493639945983887,18.44113540649414,-7.4319541454315186e-06,-0.09467018395662308,-5.73851203918457,-2.579298734664917,-20.645565032958984,-5.04637137055397e-06,-1.857883034972474e-06,147.34567260742188,-6.146862030029297,-213.1433563232422,-1.5067367553710938,-49.17436218261719,214.68408203125,300.0,300.0,-30.0,-30.0
0.53,8.170557022094727,-1.439737319946289,-0.8681132793426514,-89.325927734375,0.39786747097969055,0.8185595273971558,5.104602336883545,-0.600287914276123,-0.27963197231292725,0.6439000964164734,2.5000221729278564,0.8836827874183655,-0.06462567299604416,-0.38349005579948425,-0.698804497718811,1.999998927116394,-0.7999774217605591,-0.08693797886371613,-0.3807537257671356,-0.48323872685432434,2.0000429153442383,-0.7999999523162842,4.640312194824219,-2.20849609375,13.733146667480469,-0.00010810047388076782,-0.03599824011325836,-3.3736956119537354,-4.916994571685791,-29.90268898010254,-0.18762660026550293,-3.1606177799403667e-06,152.1306915283203,-83.55364227294922,-160.172119140625,79.33364868164062,-300.0,109.31999206542969,300.0,300.0,-30.0,-30.0
0.54,8.118300437927246,-1.4529223442077637,-0.8704385757446289,-89.27906799316406,0.41296058893203735,0.8252124190330505,5.386468887329102,-0.6684719324111938,-0.5611031651496887,1.1667594909667969,4.007883548736572,0.34189343452453613,0.014927945099771023,-0.4002450704574585,-0.5402632355690002,2.0000483989715576,-0.7999310493469238,-0.14316235482692719,-0.4376732110977173,-0.8009418249130249,2.0001254081726074,-0.7999995946884155,9.423043251037598,-2.252492666244507,16.649221420288086,-0.028957583010196686,-0.054812029004096985,-6.146559715270996,-7.512504577636719,-34.9691276550293,-0.07804606854915619,-1.7105921870097518e-06,88.80921936035156,-9.405672073364258,-141.97396850585938,8.033354759216309,-300.0,138.31617736816406,300.0,300.0,-30.0,-30.0
0.55,8.083181381225586,-1.3521217107772827,-0.858875036239624,-89.2293472290039,0.4275905191898346,0.8289983868598938,5.564794540405273,-0.7120580077171326,-0.615170955657959,-1.4256564378738403,3.4027721881866455,-1.1728416681289673,0.11113177984952927,-0.373911589384079,-0.35897472500801086,1.999834656715393,-0.7998131513595581,-0.17723244428634644,-0.49989452958106995,-1.1089075803756714,2.0001823902130127,-0.7999995946884155,8.49449348449707,7.004952907562256,17.977222442626953,-5.7794153690338135e-05,-0.29888439178466797,-5.377676963806152,-0.005347240716218948,-32.78367614746094,0.0033149870578199625,-4.56343695987016e-06,128.95762634277344,-52.2962760925293,-58.975494384765625,69.20484161376953,-183.03265380859375,126.43101501464844,300.0,300.0,-30.0,-30.0
0.56,8.061650276184082,-1.1350539922714233,-0.8331282138824463,-89.17650604248047,0.44024398922920227,0.8317304849624634,5.4886884689331055,-0.735569179058075,-0.680537223815918,-1.3892515897750854,0.6255492568016052,-2.7932560443878174,0.16624495387077332,-0.2907780408859253,-0.17872607707977295,1.999873161315918,-0.7999783754348755,-0.17978011071681976,-0.49999645352363586,-1.3586665391921997,1.999969720840454,-0.800000011920929,3.30934476852417,8.436159133911133,18.61521339416504,-6.862729787826538e-05,-0.03442908823490143,2.005359411239624,-0.00563384685665369,-22.184785842895508,0.04848635196685791,4.3533627831493504e-06,83.1590576171875,-66.09605407714844,-73.83110809326172,-21.158266067504883,-6.3895111083984375,80.37969207763672,300.0,300.0,-30.0,-30.0
0.5700000000000001,8.048182487487793,-0.7790828943252563,-0.7899348735809326,-89.1225357055664,0.45265766978263855,0.8325961232185364,5.616786956787109,-0.6478002667427063,-0.8288387060165405,-0.03653248772025108,1.4478904008865356,-4.831302165985107,0.16347306966781616,-0.24829083681106567,-0.026264537125825882,2.00004506111145,-0.7999047636985779,-0.14770497381687164,-0.4999825358390808,-1.5741803646087646,1.9998222589492798,-0.7999999523162842,-2.326707124710083,0.8728487491607666,13.516376495361328,-0.0025265361182391644,-8.887052536010742e-05,4.042355060577393,-0.004452003166079521,-21.657682418823242,-2.327375113964081e-06,-2.617784957692493e-07,63.278926849365234,-26.585044860839844,-3.9884755611419678,-136.5135955810547,-34.602569580078125,-22.874149322509766,300.0,300.0,-30.0,-30.0
0.58,8.02460765838623,-0.2974672019481659,-0.7305943965911865,-89.06840515136719,0.4657467007637024,0.8331236839294434,4.99893856048584,-0.4367563724517822,-0.6746823787689209,1.8082900047302246,-4.773146629333496,-6.082452297210693,0.15379872918128967,-0.27864280343055725,0.13849610090255737,2.0001089572906494,-0.8000204563140869,-0.0646226778626442,-0.500018835067749,-1.7000205516815186,1.9980239868164062,-0.7999999523162842,-0.3625868558883667,-5.455508232116699,20.529064178466797,-0.14062336087226868,0.005079176742583513,13.770696640014648,0.028961889445781708,0.025704609230160713,-2.9243528842926025e-07,-0.08254067599773407,5.577049255371094,19.190279006958008,-6.875010013580322,-93.50515747070312,62.31880187988281,-19.699111938476562,300.0,300.0,-30.0,-30.0
0.59,7.971718788146973,0.26192089915275574,-0.6607239246368408,-89.01597595214844,0.4790821373462677,0.8353682160377502,5.219788074493408,-0.07075559347867966,-0.7266112565994263,2.24116587638855,-0.6869629621505737,-7.224427700042725,0.09466377645730972,-0.40616437792778015,0.23458413779735565,2.0000715255737305,-0.7999323010444641,0.08116757869720459,-0.49530282616615295,-1.7000428438186646,1.9994430541992188,-0.800000011920929,-10.555999755859375,-17.308570861816406,1.4375258684158325,-0.002853697631508112,-0.0018634535372257233,14.60605239868164,0.7753569483757019,-0.003974310588091612,2.60770320892334e-07,-0.30925047397613525,-45.03487014770508,-13.526092529296875,14.961199760437012,-100.93891906738281,-300.0,-300.0,300.0,219.5595703125,-30.0,-30.0
0.6,7.8832106590271,0.7992408275604248,-0.5924966335296631,-88.9653091430664,0.4924450218677521,0.8381580114364624,5.300849914550781,0.4267163872718811,-0.6295526623725891,1.3348768949508667,1.3966585397720337,-6.275726318359375,-0.005484491121023893,-0.5386026501655579,0.18173839151859283,1.9999686479568481,-0.7999096512794495,0.20163260400295258,-0.5001258850097656,-1.700045108795166,1.9995536804199219,-0.800000011920929,-10.875479698181152,-10.553690910339355,-9.137683868408203,0.012625938281416893,-0.002172352746129036,9.195037841796875,0.01302608847618103,-0.00418468564748764,5.21540641784668e-08,-0.33134350180625916,-198.0524444580078,39.69319534301758,-66.88287353515625,116.5166015625,-300.0,-192.92633056640625,300.0,144.55230712890625,-30.0,-30.0
0.61,7.773379802703857,1.247589111328125,-0.5343568325042725,-88.91624450683594,0.5054700374603271,0.842034101486206,5.363928318023682,0.9105039238929749,-0.30959779024124146,-0.6693449020385742,4.118106365203857,-5.75162935256958,-0.1549655646085739,-0.5744662880897522,0.009667966514825821,1.999974250793457,-0.7999096512794495,0.26887503266334534,-0.5001431703567505,-1.7000521421432495,1.9995310306549072,-0.8000001311302185,-16.677574157714844,1.7370370626449585,-22.029138565063477,3.632158041000366e-07,-0.004289291799068451,4.463430881500244,0.010225126519799232,-0.006117816083133221,2.2351741790771484e-07,-0.3842928111553192,-198.51353454589844,44.6285400390625,-93.2689437866211,224.55764770507812,-300.0,-234.62362670898438,300.0,154.61412048339844,-30.0,-30.0
0.62,7.666582107543945,1.560343861579895,-0.4925661087036133,-88.86898803710938,0.5188617706298828,0.8463330864906311,5.39689302444458,1.2332366704940796,-0.10114651918411255,-0.08119037002325058,6.103814125061035,-3.303922414779663,-0.38091373443603516,-0.5136121511459351,-0.25372642278671265,1.9999563694000244,-0.8000021576881409,0.26149845123291016,-0.5001078844070435,-1.7000486850738525,1.9995782375335693,-0.800000011920929,-25.968854904174805,8.194246292114258,-28.94344711303711,3.4604454413056374e-07,-0.012133167125284672,-5.134575843811035,0.008775665424764156,-0.005302575416862965,-4.023313522338867e-07,-0.3485078811645508,-234.4888153076172,-4.0483856201171875,-95.67115020751953,90.74126434326172,-300.0,-132.94158935546875,300.0,134.37158203125,-30.0,-30.0
0.63,7.594381332397461,1.6615679264068604,-0.4776310920715332,-88.82146453857422,0.5337322354316711,0.8495134711265564,5.247570514678955,1.3837577104568481,-0.0361039936542511,0.24818532168865204,3.3779983520507812,0.04066629335284233,-0.48416975140571594,-0.3954164683818817,-0.3887557089328766,1.9999234676361084,-0.8000154495239258,0.14187687635421753,-0.4490426182746887,-1.7000160217285156,1.9998332262039185,-0.7999999523162842,-3.3212246894836426,10.657693862915039,-6.557631492614746,0.0067265029065310955,-0.0009616502793505788,-17.41459083557129,8.36843490600586,-0.002037441823631525,-1.4938414096832275e-06,-0.12675060331821442,-245.1427001953125,99.1458969116211,22.52242660522461,-23.047393798828125,-300.0,97.48202514648438,300.0,212.17486572265625,-30.0,-30.0
0.64,7.564647197723389,1.5454610586166382,-0.4910595417022705,-88.7708740234375,0.5502877235412598,0.8504742980003357,5.128248691558838,1.6250336170196533,-0.33149680495262146,-1.1439822912216187,-2.1071410179138184,2.8976523876190186,-0.31240567564964294,-0.313593327999115,-0.2826891243457794,1.9996579885482788,-0.8000119924545288,-0.06987772136926651,-0.3252676725387573,-1.6998162269592285,2.000049591064453,-0.7999997138977051,29.388202667236328,6.103067398071289,21.58430290222168,0.0019704699516296387,-0.5484915971755981,-24.90205955505371,15.161230087280273,-1.1846423149108887e-06,0.0027912070509046316,-7.944217941258103e-07,-193.53143310546875,177.544921875,30.320648193359375,-83.13966369628906,-300.0,300.0,300.0,300.0,-30.0,-30.0
0.65,7.526702880859375,1.456699252128601,-0.5010619163513184,-88.71873474121094,0.5664928555488586,0.8487865328788757,5.028725624084473,1.3372828960418701,-0.6462483406066895,-0.6137542724609375,-2.526624917984009,0.013573200441896915,-0.11168595403432846,-0.23362472653388977,-0.1288069188594818,2.000074625015259,-0.7999632358551025,-0.22146718204021454,-0.27233877778053284,-1.699827790260315,2.0000813007354736,-0.7999998331069946,17.998098373413086,6.907841682434082,14.915472030639648,0.008169271051883698,-0.0005020882235839963,-10.094717979431152,1.691214919090271,2.7567148208618164e-07,0.007921058684587479,5.073961801826954e-07,267.9291687011719,-56.69942855834961,-14.050192832946777,-111.08297729492188,-300.0,109.83153533935547,300.0,300.0,-30.0,-30.0
0.66,7.398984432220459,1.7948882579803467,-0.453798770904541,-88.66845703125,0.5829477906227112,0.845902144908905,5.033207416534424,1.2782028913497925,-0.6801608800888062,2.8999381065368652,1.7617228031158447,-8.212589263916016,0.10673487186431885,-0.20499835908412933,-0.08524944633245468,2.0002589225769043,-0.799975574016571,-0.21734273433685303,-0.379705011844635,-1.7000195980072021,1.9997471570968628,-0.8000000715255737,25.49968719482422,-1.6241058111190796,-3.1200411319732666,-0.015395495109260082,-0.0010604490526020527,8.379545211791992,-18.784915924072266,-0.0012080837041139603,1.0058283805847168e-07,-0.1356479525566101,269.2662658691406,131.74989318847656,-92.39816284179688,-221.8187255859375,-300.0,-300.0,300.0,209.3738555908203,-30.0,-30.0
0.67,7.152231216430664,2.462278127670288,-0.3597090244293213,-88.62161254882812,0.5990314483642578,0.843181848526001,5.0767130851745605,1.628318428993225,-0.47823870182037354,2.341603994369507,6.253734111785889,-10.980207443237305,0.23807254433631897,-0.2882448732852936,-0.21726293861865997,2.000115156173706,-0.7999414205551147,-0.09912940114736557,-0.48865190148353577,-1.70002019405365,1.999826431274414,-0.800000011920929,4.127386569976807,-12.670363426208496,-21.30365562438965,-0.005858292803168297,-0.0029602814465761185,14.720510482788086,-4.766834259033203,-0.0012348101008683443,-9.238719940185547e-07,-0.14621740579605103,192.0540313720703,-129.83541870117188,176.7128143310547,-194.13162231445312,-300.0,-252.3667755126953,300.0,159.27630615234375,-30.0,-30.0
0.68,6.916304588317871,2.940579891204834,-0.28875041007995605,-88.5753402709961,0.6148048639297485,0.8395795822143555,5.113320827484131,2.0179944038391113,-0.4507914185523987,3.0031163692474365,6.32910680770874,-4.854400634765625,0.10720836371183395,-0.4068600535392761,-0.479760080575943,1.9999589920043945,-0.8000644445419312,-0.01585969887673855,-0.5000708103179932,-1.7000327110290527,1.9997378587722778,-0.800000011920929,-23.496511459350586,-11.057635307312012,-28.836761474609375,0.0003338641254231334,-0.003562800819054246,3.4969000816345215,0.007564729545265436,-0.0022982689552009106,4.3213367462158203e-07,-0.2257092297077179,-172.20314025878906,-176.7598419189453,-104.90319061279297,-39.80964660644531,-300.0,-46.87190246582031,300.0,90.36290740966797,-30.0,-30.0
0.6900000000000001,6.824606418609619,3.025191068649292,-0.2730903625488281,-88.52727508544922,0.6303439736366272,0.8347393274307251,5.082088470458984,2.166029453277588,-0.3199237585067749,2.0966851711273193,4.573162078857422,-0.47947558760643005,-0.09527797996997833,-0.4144497811794281,-0.7215822339057922,1.9999536275863647,-0.8000892996788025,-0.0510995090007782,-0.4755719006061554,-1.7000212669372559,1.9997947216033936,-0.7999999523162842,-19.38306427001953,2.395371913909912,-20.809057235717773,0.0019448407692834735,0.0008428688161075115,-8.733805656433105,3.638390302658081,-0.0018782734405249357,-1.1175870895385742e-07,-0.16123607754707336,-258.4676513671875,20.133140563964844,-32.51836395263672,117.546142578125,-300.0,47.24424743652344,300.0,166.0419921875,-30.0,-30.0
0.7000000000000001,6.816600322723389,2.9125192165374756,-0.2862224578857422,-88.47718811035156,0.6456199288368225,0.8294922113418579,4.965418815612793,2.308793067932129,-0.19108706712722778,-0.45656445622444153,1.227762222290039,2.264580488204956,-0.1834704726934433,-0.3471851348876953,-0.8160263895988464,1.9998759031295776,-0.8000615239143372,-0.19757570326328278,-0.38197797536849976,-1.6999976634979248,2.0000009536743164,-0.7999998927116394,-2.6634109020233154,8.331329345703125,-1.8925392627716064,1.2069940567016602e-06,-0.2663874626159668,-19.119586944580078,12.870691299438477,-0.0033861857373267412,0.0028259868267923594,9.876121112029068e-07,-234.26193237304688,113.98005676269531,4.938480377197266,150.54519653320312,-300.0,176.52059936523438,300.0,300.0,-30.0,-30.0
0.71,6.834432601928711,2.726454019546509,-0.31012415885925293,-88.42488098144531,0.6612711548805237,0.8231949806213379,4.94747257232666,2.231318235397339,-0.35420912504196167,0.6220512390136719,-1.717455506324768,2.7030882835388184,-0.10062350332736969,-0.32813259959220886,-0.7466517686843872,1.9999257326126099,-0.7999799251556396,-0.38510507345199585,-0.30422353744506836,-1.6998298168182373,2.0000524520874023,-0.7999998331069946,15.197433471679688,-2.754493474960327,13.224205017089844,-3.222748637199402e-05,-0.0320344902575016,-19.316991806030273,4.9313883781433105,-3.4475699067115784e-05,0.00540697667747736,3.813474904745817e-07,-15.635902404785156,64.80860137939453,-47.64896011352539,-106.67586517333984,-300.0,207.26165771484375,300.0,300.0,-30.0,-30.0
0.72,6.7517313957214355,2.7863125801086426,-0.2979252338409424,-88.37313079833984,0.6773875951766968,0.8151484727859497,4.9340620040893555,1.94175124168396,-0.624761700630188,2.7946813106536865,1.1144251823425293,-3.8052961826324463,0.09562750905752182,-0.3753673732280731,-0.6733943223953247,2.0001113414764404,-0.8000242114067078,-0.468399316072464,-0.3715085983276367,-1.7000178098678589,1.99996018409729,-0.800000011920929,21.54812240600586,-7.262921333312988,2.106281280517578,-0.045290473848581314,-0.09801885485649109,-0.8902539610862732,-13.770651817321777,-0.027369989082217216,-1.3262033462524414e-06,-0.1792750060558319,300.0,45.775665283203125,-83.93496704101562,-136.08802795410156,-300.0,-199.88150024414062,300.0,300.0,-30.0,-28.936309814453125
0.73,6.539229393005371,3.139627456665039,-0.24129199981689453,-88.32521057128906,0.6925893425941467,0.8054834008216858,4.956872463226318,1.925839900970459,-0.6915935277938843,2.786489725112915,5.675218105316162,-8.319085121154785,0.2181612253189087,-0.4654729962348938,-0.7567533850669861,2.000229597091675,-0.7999323606491089,-0.37933823466300964,-0.49057674407958984,-1.6999261379241943,1.996704339981079,-0.7999999523162842,6.206946849822998,-10.08192253112793,-16.242876052856445,0.06792643666267395,-0.002558688633143902,17.014781951904297,-12.019673347473145,-0.026757609099149704,0.040234774351119995,7.697822570800781,300.0,-75.9838638305664,46.03450012207031,-138.7279510498047,-300.0,-300.0,300.0,300.0,-30.0,-24.69015884399414
0.74,6.345725059509277,3.4145562648773193,-0.19499850273132324,-88.27932739257812,0.7061659693717957,0.7941121459007263,5.196075916290283,2.3139774799346924,-0.6207191944122314,1.329611897468567,8.410248756408691,-4.233611583709717,0.04004879668354988,-0.47028034925460815,-1.0638738870620728,2.0000550746917725,-0.8000549077987671,-0.24540260434150696,-0.5000923275947571,-1.7000300884246826,1.999703288078308,-0.800000011920929,-31.636493682861328,5.4531779289245605,-39.231075286865234,-0.007214044686406851,0.0019237278029322624,11.879318237304688,0.011417624540627003,-0.001633274368941784,-5.066394805908203e-07,-0.20910589396953583,-37.326438903808594,-220.95700073242188,6.233414649963379,4.810410022735596,-300.0,-173.59982299804688,300.0,107.80873107910156,-30.0,-30.0
0.75,6.241117000579834,3.503775119781494,-0.17699408531188965,-88.2322998046875,0.7188253998756409,0.7817752361297607,5.18022346496582,2.370621919631958,-0.2703229486942291,1.463297963142395,6.89188289642334,-2.5521483421325684,-0.10211825370788574,-0.37999069690704346,-1.3263742923736572,2.0000269412994385,-0.8000805974006653,-0.16593584418296814,-0.5000541806221008,-1.7000166177749634,1.9998351335525513,-0.7999998927116394,-9.275232315063477,7.523914337158203,-22.403860092163086,-0.0009176696185022593,0.00037179014179855585,4.9360270500183105,0.0031384050380438566,-0.0018546637147665024,4.6938657760620117e-07,-0.12463866919279099,-171.35247802734375,99.85519409179688,-156.74134826660156,-1.6639060974121094,-300.0,13.992408752441406,300.0,136.04273986816406,-30.0,-30.0
0.76,6.192286491394043,3.4872829914093018,-0.17550921440124512,-88.18345642089844,0.7322551012039185,0.7689870595932007,4.946442127227783,2.5531184673309326,-0.02694380283355713,1.2455599308013916,3.365163803100586,0.06452864408493042,-0.13878901302814484,-0.33029264211654663,-1.457664966583252,1.9999334812164307,-0.8000023365020752,-0.15658296644687653,-0.49996650218963623,-1.699952483177185,2.000023603439331,-0.7999998927116394,-1.064208984375,2.165050745010376,-6.731665134429932,0.0009634644957259297,0.002215503016486764,-2.183180093765259,1.059030182659626e-06,6.239861249923706e-08,0.002159518888220191,1.11387089418713e-06,-129.01980590820312,7.0486345291137695,-229.71995544433594,-22.837162017822266,-300.0,258.9372863769531,300.0,294.7647705078125,-30.0,-30.0
0.77,6.1843366622924805,3.393610715866089,-0.18630409240722656,-88.13298034667969,0.746648907661438,0.7560992240905762,4.8555803298950195,2.5582454204559326,0.019990354776382446,2.162834882736206,1.417110800743103,1.0213383436203003,-0.10685981065034866,-0.39763712882995605,-1.4719823598861694,1.9999498128890991,-0.799983024597168,-0.19537432491779327,-0.4999622404575348,-1.6999574899673462,2.0000221729278564,-0.7999998927116394,5.8313093185424805,-12.896127700805664,2.590510845184326,0.0009405845776200294,8.002971298992634e-07,-5.168412685394287,1.0292278602719307e-06,7.888302206993103e-07,0.0016300994902849197,3.03591150441207e-07,-29.15908432006836,-4.975743293762207,-210.50897216796875,-120.57414245605469,-300.0,164.62893676757812,300.0,263.5964050292969,-30.0,-30.0
0.78,6.172713279724121,3.3044066429138184,-0.19643855094909668,-88.08226776123047,0.7611786127090454,0.742394208908081,4.964872360229492,2.4490463733673096,-0.07783421874046326,2.0129878520965576,2.320068120956421,0.054154783487319946,-0.05866949260234833,-0.5075803399085999,-1.462711215019226,2.000011920928955,-0.7999841570854187,-0.2283698171377182,-0.49999821186065674,-1.6999908685684204,2.000005006790161,-0.7999999523162842,3.6465229988098145,-9.438407897949219,-1.012731909751892,-0.0005777378100901842,2.437373041175306e-07,-1.7286195755004883,3.6659184843301773e-07,4.207249730825424e-07,0.0008394233882427216,-1.6141530068125576e-07,78.8735122680664,-20.730939865112305,-300.0,8.620979309082031,-300.0,-69.76959991455078,300.0,196.03872680664062,-30.0,-30.0
0.79,6.160492420196533,3.2168962955474854,-0.2064988613128662,-88.0324935913086,0.7752647995948792,0.7270058393478394,5.162458419799805,2.357020378112793,-0.14808128774166107,1.800260305404663,4.027139186859131,0.01770538091659546,-0.09155451506376266,-0.5436390042304993,-1.530497431755066,2.0000052452087402,-0.7999756336212158,-0.2244063913822174,-0.499995619058609,-1.6999976634979248,2.000004291534424,-0.800000011920929,-8.025099754333496,0.30042698979377747,-11.071362495422363,-0.00308226584456861,6.698537617921829e-07,2.1923348903656006,6.003538146615028e-07,3.341119736433029e-08,0.001926443655975163,1.6500280253239907e-07,116.15596008300781,-108.11210632324219,-300.0,28.517127990722656,-300.0,-89.21121215820312,300.0,176.6289520263672,-30.0,-30.0
0.8,6.161440372467041,3.103435754776001,-0.22096657752990723,-87.9833984375,0.7888968586921692,0.7099485397338867,5.322438716888428,2.3256893157958984,-0.10322213172912598,1.3587026596069336,5.0488386154174805,-0.02224588394165039,-0.20561805367469788,-0.4801357388496399,-1.6690261363983154,1.999984860420227,-0.799964427947998,-0.1858833134174347,-0.4999839961528778,-1.6999763250350952,2.0000147819519043,-0.7999999523162842,-13.253012657165527,9.886496543884277,-15.356188774108887,0.0005379454232752323,1.7080456018447876e-06,5.193281650543213,9.806826710700989e-07,2.3422762751579285e-07,0.0025273242499679327,6.312075129244477e-07,87.320556640625,-66.39170837402344,-300.0,43.136932373046875,-300.0,-24.114578247070312,300.0,141.9765625,-30.0,-30.0
0.81,6.158813953399658,2.992793560028076,-0.23515558242797852,-87.93365478515625,0.8019342422485352,0.6930719614028931,5.04459285736084,2.4473886489868164,0.1422848403453827,0.01526620239019394,1.8034518957138062,0.8069254159927368,-0.2709953188896179,-0.4091491401195526,-1.6971893310546875,1.9999732971191406,-0.7999816536903381,-0.13353818655014038,-0.4999792277812958,-1.6999905109405518,2.000014543533325,-0.7999999523162842,-5.777234077453613,5.421253204345703,0.7524071931838989,0.007105331402271986,1.1874362826347351e-07,5.428719997406006,1.8998980522155762e-07,2.2165477275848389e-07,0.012929189950227737,2.808865247061476e-07,54.943199157714844,-79.94222259521484,-300.0,-28.975479125976562,-300.0,37.93915939331055,300.0,96.77159881591797,-30.0,-30.0
0.8200000000000001,6.1686577796936035,2.8506224155426025,-0.2544281482696533,-87.88352966308594,0.8158256411552429,0.6762670874595642,5.157878875732422,2.425994873046875,0.230831116437912,1.183030366897583,2.747889757156372,1.1676921844482422,-0.36584827303886414,-0.38315948843955994,-1.699920892715454,1.9030227661132812,-0.7999277710914612,-0.0680093914270401,-0.4999678432941437,-1.6999889612197876,2.000004291534424,-0.7999999523162842,-11.909255027770996,0.18213686347007751,-0.006686893291771412,-17.03107452392578,-2.4586915969848633e-07,7.434645652770996,9.237555786967278e-08,-0.0014860020019114017,0.003241535509005189,-3.7697477637266275e-06,114.44451904296875,-173.75180053710938,-300.0,-88.23766326904297,-300.0,-85.4435043334961,300.0,-181.58163452148438,-30.0,-30.0
0.8300000000000001,6.203328609466553,2.6419198513031006,-0.2843644618988037,-87.83267974853516,0.8308849334716797,0.659957230091095,5.2513346672058105,2.4418530464172363,0.3474576771259308,1.5364227294921875,2.7134346961975098,2.33341383934021,-0.5042465925216675,-0.37074652314186096,-1.6742507219314575,1.6323542594909668,-0.7999808192253113,0.00026123985298909247,-0.4999851882457733,-1.700003981590271,1.9999805688858032,-0.7999999523162842,-15.480554580688477,1.0370268821716309,4.243764877319336,-33.397640228271484,-0.00013318564742803574,6.244488716125488,-0.0001279937132494524,0.0003838932898361236,-3.771856427192688e-08,-0.008340763859450817,17.966506958007812,-117.51394653320312,-300.0,-37.19120788574219,-300.0,57.893592834472656,300.0,-145.07284545898438,-30.0,-30.0
0.84,6.279666423797607,2.301093578338623,-0.3354930877685547,-87.7802505493164,0.8458154201507568,0.6447551846504211,5.185710430145264,2.5926547050476074,0.7639838457107544,-0.7088392376899719,1.2222058773040771,4.763593673706055,-0.6259663701057434,-0.402344286441803,-1.6873477697372437,1.6683810949325562,-0.7128332257270813,0.046391136944293976,-0.49985945224761963,-1.6999996900558472,2.0000038146972656,-0.7999999523162842,-8.787286758422852,-6.775607109069824,5.983434677124023,2.5146162509918213,-16.203407287597656,3.707728147506714,-0.00787588581442833,-0.001027214340865612,-0.03994934260845184,-1.4221703168004751e-05,-31.175945281982422,-134.27743530273438,-300.0,-2.932875633239746,-300.0,213.46878051757812,300.0,-232.72406005859375,-30.0,-30.0
0.85,6.395913600921631,1.7483179569244385,-0.4194979667663574,-87.72520446777344,0.8624199628829956,0.6331799626350403,5.36054801940918,2.672887086868286,1.089743733406067,-1.5252095460891724,0.18863654136657715,9.85177230834961,-0.7629956603050232,-0.4541544020175934,-1.6168466806411743,1.6663867235183716,-0.7978173494338989,0.03961997851729393,-0.4999232292175293,-1.7000055313110352,1.9998888969421387,-0.7999999523162842,-17.125850677490234,-4.44119119644165,8.342341423034668,-2.2817342281341553,-5.075905799865723,-4.173007488250732,-0.017242219299077988,-0.030700597912073135,-1.4035031199455261e-06,-0.091971755027771,-86.60826873779297,-242.6842803955078,-300.0,13.401951789855957,-300.0,238.48910522460938,300.0,-300.0,-30.0,-30.0
0.86,6.5000433921813965,0.953222930431366,-0.5401763916015625,-87.66690826416016,0.8807117938995361,0.6248232126235962,5.668725967407227,2.552600860595703,1.5279221534729004,-4.215145587921143,-0.36017635464668274,12.950979232788086,-0.9622002840042114,-0.48144182562828064,-1.4881917238235474,1.6074895858764648,-0.9144190549850464,-0.01509054284542799,-0.49984583258628845,-1.6999735832214355,2.00002384185791,-0.7999999523162842,-21.43222427368164,-0.3242591619491577,16.501203536987305,-9.807153701782227,-15.856748580932617,-6.291304588317871,-0.00837213546037674,-0.042801640927791595,-0.14628492295742035,-6.208390550455078e-05,4.045148849487305,-196.12210083007812,-300.0,93.65482330322266,-300.0,294.89801025390625,300.0,-300.0,-30.0,-30.0
0.87,6.50529146194458,0.030538441613316536,-0.6805732250213623,-87.6054458618164,0.899580180644989,0.6203718185424805,6.106138229370117,2.2402262687683105,2.109041213989258,-8.809096336364746,0.705613911151886,14.735797882080078,-1.1653977632522583,-0.5062710046768188,-1.3012086153030396,1.4883897304534912,-0.8986074924468994,-0.07001836597919464,-0.5000277757644653,-1.700008749961853,1.9999865293502808,-0.800000011920929,-23.20263671875,4.403065204620361,22.263301849365234,-15.935945510864258,-11.358306884765625,-4.7874860763549805,0.04636000841856003,-0.15822942554950714,-1.654401421546936e-05,-0.4114566147327423,29.891958236694336,-120.92283630371094,-300.0,230.29550170898438,-300.0,300.0,300.0,-300.0,-30.0,-30.0
0.88,6.370850563049316,-0.9172794818878174,-0.8279623985290527,-87.53915405273438,0.9181463122367859,0.6220036745071411,6.174932479858398,1.520477056503296,2.875720739364624,-12.146382331848145,-2.2663989067077637,16.584674835205078,-1.3485618829727173,-0.5553073287010193,-0.9836577773094177,1.2298033237457275,-0.8528531193733215,-0.06985128670930862,-0.5000042915344238,-1.575898289680481,1.9574249982833862,-0.7999999523162842,-19.624120712280273,-2.2709314823150635,35.469322204589844,-32.01335144042969,3.8602616786956787,1.0530318021774292,0.09260118752717972,16.068958282470703,-6.313809871673584,1.395428625983186e-06,-71.73433685302734,-25.283828735351562,-300.0,199.79339599609375,300.0,292.69580078125,-33.65797424316406,-300.0,-30.0,-30.0
0.89,6.092248916625977,-1.8438315391540527,-0.978410005569458,-87.47056579589844,0.9381557703018188,0.6282721757888794,6.159182548522949,0.09002956748008728,2.8362350463867188,-8.185063362121582,-3.0770907402038574,15.42146110534668,-1.5013558864593506,-0.6448672413825989,-0.6212948560714722,0.791198194026947,-0.7508029341697693,-0.058033883571624756,-0.5000299215316772,-1.3233083486557007,1.7555186748504639,-0.7999997138977051,-0.25034990906715393,-12.456689834594727,44.1505012512207,-49.947593688964844,-3.9074907302856445,-1.8666613101959229,0.004877378232777119,25.969282150268555,-28.560630798339844,3.2241223379969597e-07,-271.4316711425781,-8.847969055175781,-91.37527465820312,117.00297546386719,300.0,4.566162109375,-166.89385986328125,-300.0,-30.0,-30.0
0.9,5.768506050109863,-2.524082899093628,-1.0962669849395752,-87.40509033203125,0.9591142535209656,0.6352747678756714,6.299445152282715,-0.8999239206314087,2.5871009826660156,-5.673308372497559,1.533203363418579,11.137115478515625,-1.5020188093185425,-0.688787043094635,-0.324260950088501,0.4850499629974365,-0.7420706152915955,-0.10736756771802902,-0.4369431436061859,-1.1563462018966675,1.6138575077056885,-0.6536123156547546,5.322274208068848,1.0199575424194336,25.549652099609375,-20.60757064819336,-7.262870788574219,-9.759514808654785,8.96613597869873,15.595556259155273,-9.165803909301758,3.4279117584228516,-300.0,-77.39202880859375,157.85293579101562,283.51409912109375,300.0,-300.0,103.55317687988281,28.699142456054688,-30.0,3.2488136291503906
0.91,5.440192222595215,-3.0335073471069336,-1.1914281845092773,-87.34088134765625,0.9817438721656799,0.6451998353004456,5.803925514221191,-1.6490941047668457,2.863067626953125,-3.491971015930176,-1.2718114852905273,9.677398681640625,-1.5028636455535889,-0.694507896900177,-0.18936005234718323,0.40573927760124207,-0.6216413974761963,-0.21792100369930267,-0.35294806957244873,-1.020336389541626,1.6104060411453247,-0.8201696276664734,0.007463209331035614,0.3147745430469513,7.921709060668945,0.47589123249053955,11.907931327819824,-7.611200332641602,8.677729606628418,15.59518051147461,-2.5363495349884033,-1.733201026916504,-119.07527160644531,-111.85263061523438,300.0,9.704523086547852,300.0,-213.906494140625,-300.0,25.963436126708984,-30.0,5.048713684082031
0.92,5.093007564544678,-3.4650118350982666,-1.2791481018066406,-87.27556610107422,1.0043964385986328,0.6606075167655945,5.481743812561035,-2.2756948471069336,3.1205039024353027,-4.211495399475098,-3.118926525115967,10.498666763305664,-1.5007240772247314,-0.7049510478973389,-0.09686542302370071,0.39768552780151367,-0.5563221573829651,-0.29876694083213806,-0.2849949896335602,-0.8231484293937683,1.5527292490005493,-0.9142870306968689,-0.037042852491140366,-0.35466450452804565,9.306683540344238,-0.17420166730880737,4.526934623718262,-6.501861572265625,6.701564788818359,19.88286781311035,-7.694345474243164,-0.7408256530761719,-103.42414855957031,-177.4596405029297,300.0,73.40430450439453,300.0,-23.351337432861328,-300.0,-8.577065467834473,-30.0,-0.3624153137207031
0.93,4.6479291915893555,-3.9333910942077637,-1.3833353519439697,-87.20762634277344,1.025635004043579,0.6810986995697021,5.165531635284424,-3.0559959411621094,3.2036986351013184,-7.416223049163818,-3.8061447143554688,13.213156700134277,-1.4985915422439575,-0.7056723237037659,0.04076302796602249,0.39066648483276367,-0.5036230087280273,-0.39739009737968445,-0.19495920836925507,-0.5906660556793213,1.454391598701477,-0.9816170334815979,-0.10431645810604095,2.1597211360931396,15.884201049804688,0.8931185007095337,4.338222503662109,-8.917853355407715,10.504366874694824,22.79198455810547,-11.446512222290039,2.562697172164917,-109.42829895019531,-230.40151977539062,300.0,126.08650207519531,300.0,178.67941284179688,-300.0,79.32691192626953,-30.0,5.231157302856445
0.9400000000000001,4.017554759979248,-4.476895809173584,-1.5202909708023071,-87.13629913330078,1.044006109237671,0.7065409421920776,4.80000114440918,-4.0726447105407715,3.0823845863342285,-11.743426322937012,-1.0741593837738037,15.861397743225098,-1.497746229171753,-0.6383565068244934,0.24521808326244354,0.4043937623500824,-0.4461493492126465,-0.5246145725250244,-0.05384526029229164,-0.33910953998565674,1.3175171613693237,-1.0172970294952393,-0.04540170356631279,11.661334991455078,22.733036041259766,3.738541603088379,4.859753131866455,-14.664301872253418,16.431121826171875,22.75669288635254,-14.508455276489258,6.0872087478637695,-114.74880981445312,-299.6446533203125,300.0,260.10797119140625,300.0,240.38058471679688,-300.0,107.91777038574219,-30.0,7.817319869995117
0.9500000000000001,3.35084867477417,-4.903260707855225,-1.6524382829666138,-87.06172943115234,1.0606650114059448,0.7361801862716675,4.134219169616699,-5.116878986358643,2.5479774475097656,-14.033546447753906,-1.4080713987350464,12.828017234802246,-1.4993702173233032,-0.49555960297584534,0.4364583492279053,0.5139277577400208,-0.3301943242549896,-0.6574281454086304,0.11914172023534775,-0.03686126694083214,1.1056286096572876,-1.0164391994476318,-0.012904987670481205,16.240699768066406,17.670425415039062,16.094112396240234,11.296192169189453,-13.649256706237793,17.216787338256836,31.42826271057129,-25.974092483520508,14.049732208251953,-24.099761962890625,-132.86634826660156,300.0,64.0475845336914,300.0,97.28557586669922,-300.0,96.74021911621094,30.0,8.243148803710938
0.96,2.8616726398468018,-5.11384916305542,-1.7419408559799194,-86.98495483398438,1.0783648490905762,0.7676650881767273,3.6952712535858154,-5.698277473449707,1.319679617881775,-15.4567289352417,-2.9418671131134033,6.446067810058594,-1.4329909086227417,-0.277088463306427,0.5783286690711975,0.7102346420288086,-0.23852425813674927,-0.763653576374054,0.2882799506187439,0.38553228974342346,0.7078878879547119,-0.9234285950660706,11.11727523803711,25.492942810058594,11.652379035949707,22.44325065612793,8.463382720947266,-9.74709415435791,16.161603927612305,47.68223190307617,-50.464630126953125,23.749252319335938,55.29524230957031,232.02525329589844,300.0,-42.12359619140625,300.0,-262.777587890625,-300.0,-33.79279327392578,30.0,-0.6394081115722656
0.97,2.6401655673980713,-5.145878791809082,-1.7777738571166992,-86.9111328125,1.0982842445373535,0.7966327667236328,3.701746702194214,-6.009668350219727,0.31520214676856995,-9.339749336242676,-2.830049753189087,1.5904196500778198,-1.2188444137573242,0.027865564450621605,0.6080394387245178,0.8907084465026855,-0.19918914139270782,-0.648365318775177,0.5511628985404968,0.6598904728889465,0.24724365770816803,-0.6628128886222839,17.670320510864258,26.48076820373535,-2.905146837234497,16.36624526977539,3.4678428173065186,23.201631546020508,29.74302864074707,21.124053955078125,-49.8734016418457,22.55052947998047,130.59396362304688,300.0,-47.76049041748047,-105.22859191894531,-142.08868408203125,-300.0,-202.964111328125,-93.15036010742188,30.0,-30.0
0.98,2.6076114177703857,-5.083526611328125,-1.7769739627838135,-86.84402465820312,1.1199629306793213,0.8246589303016663,3.3559305667877197,-6.26377010345459,0.18404299020767212,-0.24937942624092102,-6.113202095031738,-5.164694786071777,-1.0005007982254028,0.19678623974323273,0.43926018476486206,1.1220771074295044,-0.18391722440719604,-0.44756194949150085,0.7031627893447876,0.7335528135299683,0.0140004837885499,-0.6484188437461853,29.115158081054688,12.522132873535156,-21.086427688598633,21.384418487548828,2.071702003479004,20.97886085510254,5.562038898468018,7.016395092010498,-18.466962814331055,1.0804500579833984,206.37680053710938,300.0,-278.865478515625,-156.21072387695312,48.31022644042969,-300.0,63.58421325683594,-84.77357482910156,4.861654281616211,-5.337064743041992
0.99,2.873234987258911,-4.8606719970703125,-1.7156926393508911,-86.78084564208984,1.1433831453323364,0.8517445921897888,3.9879305362701416,-6.249650478363037,0.1513015627861023,5.297173500061035,-3.4175093173980713,-10.487987518310547,-0.5653830766677856,0.2739865183830261,0.14006897807121277,1.3384692668914795,-0.24375863373279572,-0.27213332056999207,0.6617045402526855,0.7801213264465332,4.11914152209647e-05,-0.703707754611969,49.96598815917969,4.573730945587158,-33.57173538208008,19.079938888549805,-6.107691287994385,24.990192413330078,-4.503842830657959,-0.41363421082496643,-0.06590592116117477,-3.9595253467559814,137.28799438476562,300.0,-121.31698608398438,-57.005859375,140.9686279296875,-300.0,-181.5521240234375,-82.55663299560547,3.0381336212158203,-6.241706848144531
1.0,3.3331985473632812,-4.477093696594238,-1.6081348657608032,-86.7198257446289,1.166526436805725,0.8775053024291992,5.102389335632324,-5.835474491119385,0.4418330788612366,6.401318550109863,3.572190999984741,-11.053154945373535,-0.06587127596139908,0.17902877926826477,-0.19197645783424377,1.4207828044891357,-0.25731414556503296,-0.07684669643640518,0.5552622079849243,0.7801063060760498,2.7688092814059928e-05,-0.7096266746520996,50.0,-12.08154010772705,-32.526695251464844,0.9969007968902588,-2.124406099319458,16.275012969970703,-13.650043487548828,-0.001457367092370987,-1.4818883755651768e-06,-0.5731399059295654,16.737503051757812,165.93350219726562,-103.57864379882812,121.67332458496094,134.19503784179688,-300.0,-145.271240234375,-151.00245666503906,-1.795494556427002,-11.949191093444824
1.01,3.7751383781433105,-4.022300720214844,-1.493182897567749,-86.65797424316406,1.1883347034454346,0.9013580083847046,6.058412075042725,-5.040219306945801,0.7295669317245483,2.538524866104126,8.081074714660645,-10.048223495483398,0.2824585735797882,-0.03357362747192383,-0.4171602725982666,1.3152692317962646,-0.22006744146347046,0.03267012536525726,0.41272634267807007,0.7800213098526001,-1.9051374692935497e-05,-0.7500171065330505,27.247055053710938,-19.564800262451172,-20.641407012939453,-15.029216766357422,2.764172315597534,8.130775451660156,-13.071505546569824,0.022063858807086945,0.04603828489780426,-4.022886753082275,3.680675506591797,-135.30613708496094,-2.4141769409179688,295.65289306640625,176.34515380859375,-300.0,2.174705982208252,-99.13245391845703,0.4452171325683594,-8.669276237487793
1.02,4.044930934906006,-3.6507139205932617,-1.4090662002563477,-86.59381103515625,1.2107287645339966,0.9238280057907104,6.151872158050537,-4.586887359619141,1.0419944524765015,3.2425906658172607,3.4166197776794434,-6.351318359375,0.3044484257698059,-0.209106907248497,-0.5101801753044128,1.0939104557037354,-0.1997235268354416,0.06555642932653427,0.26186907291412354,0.7797746658325195,0.1027638390660286,-0.8000003695487976,-12.33469295501709,-12.83060359954834,-7.101304531097412,-22.300369262695312,1.3772095441818237,2.594733476638794,-14.71194839477539,0.03272430598735809,15.578129768371582,-7.618065865244716e-06,123.61017608642578,-229.0012664794922,-102.61861419677734,230.373291015625,300.0,119.81668853759766,90.16700744628906,42.603553771972656,-30.0,3.5304689407348633
1.03,4.133851528167725,-3.441610097885132,-1.3677810430526733,-86.527587890625,1.2339460849761963,0.9454784393310547,6.0319437980651855,-4.333943843841553,1.138765573501587,2.7876152992248535,-0.9952123761177063,-2.6628968715667725,0.14265336096286774,-0.28001919388771057,-0.5413646101951599,0.8645810484886169,-0.18457801640033722,0.03464429825544357,0.07172408699989319,0.7800261378288269,0.32061058282852173,-0.7999999523162842,-16.864124298095703,-4.615576267242432,0.8124814033508301,-21.912826538085938,1.0998271703720093,-5.127559661865234,-20.132455825805664,0.03755514696240425,25.165481567382812,6.44605461275205e-05,3.205045700073242,-54.75341033935547,-45.00927734375,114.27247619628906,300.0,280.8074951171875,23.870849609375,96.72429656982422,-30.0,7.168358325958252
1.04,4.111161708831787,-3.3571202754974365,-1.3568873405456543,-86.4599609375,1.2576043605804443,0.9663167595863342,6.018635272979736,-4.219244956970215,1.0013959407806396,1.0678306818008423,-2.1562254428863525,-0.270952969789505,-0.023951971903443336,-0.29853445291519165,-0.5231114625930786,0.6480234265327454,-0.21225832402706146,-0.023424852639436722,-0.12531769275665283,0.7801429629325867,0.5235131978988647,-0.7999998927116394,-15.43077278137207,-0.5935029983520508,3.311710834503174,-21.077234268188477,-3.230579376220703,-7.271467208862305,-19.08894920349121,0.019450049847364426,18.71529197692871,-1.989854354178533e-06,-97.75450134277344,11.349250793457031,60.181068420410156,54.31086730957031,225.00933837890625,80.57852172851562,-23.759796142578125,27.52661895751953,-30.0,1.7487010955810547
1.05,4.044605731964111,-3.3242533206939697,-1.358809471130371,-86.39108276367188,1.2806013822555542,0.9862337112426758,6.088745594024658,-4.2445292472839355,0.8279802799224854,0.3150576055049896,-1.3060622215270996,0.37100568413734436,-0.11107038706541061,-0.31625446677207947,-0.48466819524765015,0.4675361216068268,-0.28468599915504456,-0.0558747872710228,-0.2580265700817108,0.7802070379257202,0.6622147560119629,-0.7999998927116394,-3.6710259914398193,-2.8932206630706787,4.088675022125244,-15.389482498168945,-7.498968601226807,-2.6650471687316895,-10.402287483215332,-0.0005446391296572983,11.346552848815918,-6.945629138499498e-08,-96.34667205810547,56.29108810424805,100.2080307006836,-25.604656219482422,167.9227752685547,-6.9948320388793945,-42.072181701660156,25.134841918945312,-30.0,2.298999786376953
1.06,3.9866902828216553,-3.2800753116607666,-1.3581979274749756,-86.321533203125,1.3028684854507446,1.0047632455825806,6.2490692138671875,-4.279036998748779,0.6566596627235413,0.14184483885765076,0.6581785678863525,-0.4804273247718811,-0.12983392179012299,-0.34628453850746155,-0.4661564230918884,0.32490164041519165,-0.3624851703643799,-0.07290656864643097,-0.3493293821811676,0.7801059484481812,0.739124596118927,-0.7999999523162842,-0.5788464546203613,-3.030585527420044,-0.2335083931684494,-12.646574020385742,-7.850081443786621,-1.330291509628296,-8.060693740844727,-0.006920176558196545,5.021254539489746,-7.951530278660357e-08,-51.810951232910156,55.16040802001953,38.933502197265625,-3.6303272247314453,177.90664672851562,-122.3458251953125,-29.098791122436523,-29.93389129638672,-30.0,-1.6735496520996094
1.07,3.9533445835113525,-3.205247402191162,-1.3499717712402344,-86.25148010253906,1.3246210813522339,1.0215507745742798,6.3385138511657715,-4.257534027099609,0.5383582711219788,-0.08512910455465317,1.5169003009796143,-1.0624356269836426,-0.14455951750278473,-0.36917799711227417,-0.47833603620529175,0.17741155624389648,-0.44890087842941284,-0.09111954271793365,-0.4373672306537628,0.7799631357192993,0.7789850831031799,-0.800000011920929,-1.737935185432434,-1.7847164869308472,-2.532947540283203,-15.00550365447998,-9.024833679199219,-2.0173048973083496,-8.976574897766113,0.0004876233288086951,3.3116252422332764,3.688816650537774e-05,-42.14429473876953,43.4139289855957,2.352508544921875,10.002127647399902,175.8175048828125,-112.16461181640625,11.27037239074707,-47.336769104003906,-30.0,-3.4302444458007812
1.08,3.936812162399292,-3.108412265777588,-1.336132287979126,-86.18101501464844,1.3457165956497192,1.0366415977478027,6.482979774475098,-4.208902359008789,0.5408903956413269,-0.7850813269615173,3.2235493659973145,-1.2644563913345337,-0.1411125212907791,-0.39032143354415894,-0.5103635191917419,0.026627615094184875,-0.5426648855209351,-0.0982803925871849,-0.49989354610443115,0.7799937725067139,0.8131994605064392,-0.7999999523162842,1.3897573947906494,-1.848501205444336,-4.748463153839111,-14.227154731750488,-9.889394760131836,1.9632658958435059,-0.015144065953791142,4.17931005358696e-07,4.401669025421143,0.0003901191521435976,-45.02956771850586,52.57147979736328,8.367252349853516,2.1315841674804688,153.8264617919922,-97.12397003173828,14.246849060058594,-31.11998748779297,-30.0,-1.8431930541992188
1.09,3.933979034423828,-2.9922401905059814,-1.3173185586929321,-86.11029815673828,1.3657258749008179,1.0506373643875122,6.468897342681885,-4.06301736831665,0.586134672164917,-1.7331252098083496,2.9465067386627197,-1.7511221170425415,-0.07892874628305435,-0.4262723922729492,-0.5746403336524963,-4.557509600999765e-05,-0.6237546801567078,-0.07873706519603729,-0.5000737309455872,0.7800313830375671,0.8562643527984619,-0.7999999523162842,8.547371864318848,-3.900038719177246,-5.714049816131592,-0.0002744942903518677,-7.077937602996826,1.5663784742355347,-0.001683033537119627,0.0036392644979059696,4.296769618988037,7.939345960039645e-05,-7.784501552581787,37.25517272949219,-67.45112609863281,63.91558837890625,160.59716796875,60.399810791015625,-2.9801559448242188,-85.99394989013672,-30.0,1.9857521057128906
1.1,3.9196834564208984,-2.8878979682922363,-1.301361322402954,-86.03894805908203,1.3855502605438232,1.064180612564087,6.501537799835205,-3.983424425125122,0.6399412155151367,-2.196159601211548,2.440929889678955,-1.153082013130188,-0.06224394217133522,-0.42592304944992065,-0.6485092639923096,-5.003850310458802e-05,-0.6940732598304749,-0.07114437967538834,-0.5001876354217529,0.7801445126533508,0.8839753866195679,-0.7999998927116394,-1.0426222085952759,2.136183261871338,-7.476358413696289,-0.0008633502293378115,-6.935001850128174,0.27243199944496155,-3.354906220920384e-05,-0.0027863162104040384,1.7064783573150635,0.00018828644533641636,27.211210250854492,-43.78974914550781,-95.9999008178711,43.640968322753906,113.80652618408203,92.74828338623047,-36.35829162597656,-91.50174713134766,-30.0,1.8949851989746094
1.11,3.881032705307007,-2.8152811527252197,-1.2931771278381348,-85.96759796142578,1.4057435989379883,1.07736337184906,6.4393815994262695,-3.917496681213379,0.6311489343643188,-1.7990583181381226,1.634683609008789,-0.14446915686130524,-0.041133951395750046,-0.4365163743495941,-0.6950021982192993,-5.581480581895448e-05,-0.7865660786628723,-0.06762352585792542,-0.5000689029693604,0.7800171971321106,0.9105104804039001,-0.7999999523162842,3.046337604522705,-2.584202766418457,-3.073333501815796,0.0008878865046426654,-9.099591255187988,0.27966663241386414,-0.002233742969110608,0.004664992447942495,3.219224691390991,0.0001125644485000521,12.884374618530273,-45.66960906982422,-85.91898345947266,-28.722732543945312,89.37689208984375,81.5831298828125,1.429774284362793,-70.73521423339844,-30.0,2.020618438720703
1.12,3.82952880859375,-2.761003255844116,-1.289354920387268,-85.89688110351562,1.4263970851898193,1.0897284746170044,6.3650431632995605,-3.8777270317077637,0.5651674866676331,-1.4475022554397583,1.1906522512435913,-0.21113917231559753,0.03263017535209656,-0.5012383460998535,-0.7007713913917542,-1.3594823030871339e-05,-0.7999866008758545,-0.05745428428053856,-0.5000499486923218,0.780005693435669,0.9522293210029602,-0.7999999523162842,8.579099655151367,-7.597961902618408,0.5492812991142273,0.0006120839971117675,-0.0001002814678940922,1.3892145156860352,-0.0014432321768254042,0.004960152320563793,4.712193012237549,9.125092765316367e-05,26.563434600830078,-8.738420486450195,-93.37906646728516,-5.047401428222656,98.1622085571289,44.03847885131836,5.234079360961914,-84.48909759521484,-30.0,-30.0
1.1300000000000001,3.772589921951294,-2.713770866394043,-1.2873880863189697,-85.82583618164062,1.4468270540237427,1.1010665893554688,6.424276828765869,-3.9599268436431885,0.46916067600250244,-1.0983436107635498,1.739057183265686,-0.01455372478812933,-0.037116605788469315,-0.4650964140892029,-0.7734000086784363,1.2815627997042611e-05,-0.7999817728996277,-0.04394306614995003,-0.5000699758529663,0.780077338218689,0.9883865714073181,-0.7999999523162842,-12.414047241210938,7.372034549713135,-10.191304206848145,-0.0020057845395058393,-1.391163095831871e-06,1.7823344469070435,-0.0023066988214850426,-0.000674559676554054,2.826585531234741,0.00020036283240187913,52.14796829223633,-64.26947021484375,-140.57061767578125,-4.216482162475586,36.09970474243164,-14.170623779296875,-20.20786476135254,-61.416465759277344,-30.0,-30.0
1.1400000000000001,3.6827006340026855,-2.7120182514190674,-1.2979099750518799,-85.75460815429688,1.466021180152893,1.111039400100708,6.604379653930664,-4.243709564208984,0.5044322609901428,0.4958277940750122,5.237038612365723,2.8981478214263916,-0.2657304108142853,-0.2905908524990082,-0.9486918449401855,0.04374613240361214,-0.8000108003616333,-0.06385546177625656,-0.5000002384185791,0.7324547171592712,1.0545995235443115,-0.800000011920929,-24.606517791748047,19.20294761657715,-19.147960662841797,5.720120906829834,-0.0030130641534924507,-4.268163204193115,0.006749744992703199,-7.397418022155762,8.078285217285156,0.00012841439456678927,-73.68614196777344,-75.34407043457031,-56.43114471435547,-74.26720428466797,-18.138092041015625,-69.87323760986328,0.7409477233886719,-9.67654800415039,-30.0,-30.0
1.1500000000000001,3.5499751567840576,-2.7652649879455566,-1.3239998817443848,-85.6836929321289,1.486372470855713,1.1210193634033203,6.011786460876465,-4.3024702072143555,0.6553121209144592,0.45906537771224976,0.430046409368515,3.007660388946533,-0.14479568600654602,-0.49642321467399597,-0.9362878203392029,0.043676525354385376,-0.800125002861023,-0.07286094129085541,-0.4807690978050232,0.7185478806495667,1.1285731792449951,-0.800000011920929,23.735271453857422,-34.57894515991211,8.847223281860352,0.23324789106845856,0.0008637165883556008,0.6096410751342773,3.5373823642730713,2.15435791015625,7.897840976715088,1.986326969927177e-05,-91.32093048095703,106.63387298583984,47.80416488647461,-63.27891540527344,158.99525451660156,93.6940689086914,75.172119140625,37.31990432739258,-30.0,-30.0
1.16,3.4576025009155273,-2.762647867202759,-1.3353278636932373,-85.61236572265625,1.5071301460266113,1.1302440166473389,5.948237895965576,-4.320296764373779,0.5791577100753784,-0.36924654245376587,0.41438978910446167,0.309599906206131,0.05086890608072281,-0.670260488986969,-0.8059946894645691,0.04181620478630066,-0.7999266982078552,-0.025970933958888054,-0.4414255917072296,0.7799803018569946,1.2080841064453125,-0.7999999523162842,19.817943572998047,-14.792298316955566,11.591060638427734,1.3067206144332886,-0.11722612380981445,2.4500091075897217,-0.41188979148864746,0.00010640430264174938,15.243622779846191,-1.8683775124372914e-05,99.88969421386719,89.96456146240234,-94.24235534667969,99.31195831298828,126.59654235839844,18.190528869628906,60.28147506713867,10.799494743347168,-30.0,-30.0
1.17,3.3880844116210938,-2.72914981842041,-1.3384923934936523,-85.53975677490234,1.5269594192504883,1.139411449432373,6.128936290740967,-4.456471920013428,0.5260332822799683,-0.8907262682914734,0.8215236067771912,0.4340398907661438,-0.06007051840424538,-0.5330860018730164,-0.8855047225952148,0.09377302974462509,-0.7999333143234253,-0.032034069299697876,-0.4869459569454193,0.7803786396980286,1.2753978967666626,-0.800000011920929,-20.09854507446289,21.94053840637207,-12.74628734588623,5.308798313140869,-4.906905815005302e-07,-1.9781439304351807,-8.171021461486816,-0.017721382901072502,0.5468725562095642,0.0005173143581487238,76.11290740966797,-97.56562805175781,-79.82259368896484,74.57587432861328,-27.82753562927246,62.978614807128906,-145.3198699951172,23.154827117919922,-30.0,-30.0
1.18,3.2978670597076416,-2.7210171222686768,-1.349362850189209,-85.46732330322266,1.5470249652862549,1.1474506855010986,6.398727893829346,-4.744630336761475,0.6361666917800903,1.7969088554382324,4.445906162261963,2.5657849311828613,-0.20425063371658325,-0.39794671535491943,-1.0381269454956055,0.30250778794288635,-0.7999886274337769,-0.04617125168442726,-0.500070333480835,0.7464960217475891,1.2827274799346924,-0.7999998331069946,-12.906952857971191,6.733447074890137,-18.04311752319336,27.89348030090332,-0.0019467767560854554,-2.7656021118164062,0.005300098564475775,-5.920022964477539,0.061151858419179916,9.010909707285464e-08,-56.661041259765625,-123.76398468017578,35.03279113769531,-194.0804901123047,-63.40602111816406,-74.02125549316406,-56.32452392578125,52.84814453125,-30.0,-30.0
1.19,3.1902382373809814,-2.7334418296813965,-1.3666746616363525,-85.3958740234375,1.56841242313385,1.1551072597503662,5.816122055053711,-4.4747185707092285,0.7260909080505371,0.09702138602733612,-0.6182255148887634,1.9041435718536377,-0.07550179213285446,-0.5791488289833069,-0.997593104839325,0.412041038274765,-0.8001381158828735,-0.011383667588233948,-0.44364938139915466,0.7676210403442383,1.2736128568649292,-0.8000000715255737,23.10895538330078,-25.745512008666992,14.653534889221191,3.8519623279571533,0.0028147317934781313,6.812036037445068,9.280956268310547,6.66229772567749,-0.17095473408699036,1.5311736206058413e-05,-16.804290771484375,106.03128814697266,43.910179138183594,-1.18609619140625,158.60128784179688,119.39850616455078,82.10260009765625,-31.074453353881836,-30.0,-30.0
1.2,3.134908676147461,-2.6819231510162354,-1.364905834197998,-85.3230209350586,1.5888047218322754,1.1637842655181885,5.938699722290039,-4.5950846672058105,0.8902195692062378,-2.1763415336608887,0.7725273966789246,-2.0218799114227295,-0.011570223607122898,-0.5731953382492065,-0.9648590087890625,0.48249170184135437,-0.7998569011688232,0.06569492071866989,-0.3075298070907593,0.7801914811134338,1.2916231155395508,-0.7999999523162842,2.9369614124298096,7.538474082946777,-0.5518942475318909,6.966958999633789,-0.006004333961755037,10.138582229614258,16.39544105529785,-0.00679428968578577,0.5709148049354553,-9.202922228723764e-07,148.27210998535156,80.07893371582031,13.125267028808594,151.45799255371094,102.74806213378906,-14.328185081481934,-71.45308685302734,-0.8851165771484375,-30.0,-30.0
1.21,3.0507638454437256,-2.6655948162078857,-1.3742822408676147,-85.25135040283203,1.6089926958084106,1.169791579246521,6.304027557373047,-4.76682186126709,0.6048400402069092,2.6713688373565674,5.273799896240234,2.8939919471740723,-0.1697630137205124,-0.4236937165260315,-1.1150774955749512,0.6373901963233948,-0.8000319004058838,-0.01900227554142475,-0.43683719635009766,0.6627272963523865,1.3253943920135498,-0.7999999523162842,-22.494693756103516,15.3707275390625,-20.026365280151367,18.471134185791016,-0.00048797865747474134,-20.708433151245117,-32.09680938720703,-18.502656936645508,3.3020739555358887,-3.101922629866749e-06,-181.9220428466797,-113.01542663574219,-300.0,-72.40538024902344,-124.803955078125,-51.68492126464844,-65.96499633789062,21.123382568359375,-30.0,-30.0
1.22,2.9670569896698,-2.646521806716919,-1.3834893703460693,-85.17859649658203,1.629133939743042,1.1767710447311401,5.42666482925415,-4.915966510772705,1.0084203481674194,-0.05108080059289932,-2.7359890937805176,0.3478567600250244,-0.06607302278280258,-0.5095959901809692,-1.084547758102417,0.7648410797119141,-0.8002403974533081,-0.05670282244682312,-0.439619779586792,0.6083738803863525,1.3327500820159912,-0.8000001907348633,22.764812469482422,-17.274646759033203,12.858373641967773,11.310516357421875,0.005251655820757151,8.291982650756836,13.607137680053711,5.719455718994141,-0.2620815932750702,1.3147751815267839e-05,54.558067321777344,91.47930908203125,215.3218536376953,-64.35829162597656,299.3255615234375,108.18106842041016,98.92988586425781,16.813804626464844,-30.0,-30.0
1.23,2.891627788543701,-2.615630865097046,-1.3895699977874756,-85.10433197021484,1.648847222328186,1.183258295059204,5.469326972961426,-4.868104934692383,0.6670746803283691,-1.2501804828643799,-3.1710121631622314,-0.05749635398387909,0.021035052835941315,-0.49805256724357605,-1.0121537446975708,0.8627969622612,-0.8000714182853699,0.00999445654451847,-0.316850870847702,0.6588167548179626,1.3335975408554077,-0.800000011920929,2.7479584217071533,6.789041519165039,4.552421569824219,8.140718460083008,0.00257099443115294,5.91366720199585,10.354401588439941,5.417031764984131,-0.1753869205713272,2.13425955735147e-05,17.033920288085938,-34.46461486816406,-67.35414123535156,56.96638107299805,62.66717529296875,-41.82966995239258,13.327422142028809,-31.580047607421875,-30.0,-30.0
1.24,2.796208620071411,-2.607553005218506,-1.4037747383117676,-85.03109741210938,1.6685386896133423,1.1866075992584229,5.80656099319458,-5.133650302886963,0.30752119421958923,2.274909019470215,1.1072461605072021,2.033583641052246,-0.05519241467118263,-0.415269672870636,-1.0613914728164673,0.9913493990898132,-0.8000187873840332,-0.04222512245178223,-0.36421990394592285,0.6302964091300964,1.358964443206787,-0.7999998927116394,-12.187067031860352,7.543364524841309,-9.894865036010742,14.860812187194824,-0.0004557122301775962,-11.675545692443848,-14.812260627746582,-7.610445499420166,3.248967409133911,-5.665824573952705e-07,-79.50932312011719,-42.55549621582031,-151.71969604492188,-65.9499740600586,-66.73104858398438,-129.22117614746094,-26.479190826416016,-7.071872711181641,-30.0,-30.0
1.25,2.7361130714416504,-2.562004804611206,-1.4048101902008057,-84.95858001708984,1.6880828142166138,1.1878467798233032,5.668941974639893,-5.1467976570129395,0.31197988986968994,2.2032675743103027,0.16313494741916656,-1.0606645345687866,-0.038511984050273895,-0.4405193030834198,-1.1039481163024902,1.1132159233093262,-0.8001210689544678,-0.07387596368789673,-0.4175165295600891,0.5979945659637451,1.384933352470398,-0.8000000715255737,8.746527671813965,-8.296480178833008,-2.116262197494507,10.17403507232666,-0.0009387086029164493,3.3050851821899414,0.7254327535629272,0.532454252243042,2.407501459121704,1.0927135008387268e-05,53.06199645996094,87.76725769042969,89.66883850097656,-124.3653564453125,162.00509643554688,-134.04469299316406,54.05907440185547,-66.10208129882812,-30.0,-30.0
1.26,2.7252559661865234,-2.462893486022949,-1.386174201965332,-84.88590240478516,1.7073107957839966,1.1879384517669678,5.737377166748047,-4.928894519805908,0.3060885965824127,0.8699800968170166,-0.2174137681722641,-2.508155584335327,0.010000559501349926,-0.46205759048461914,-1.128349781036377,1.1599620580673218,-0.8000442385673523,-0.014279557392001152,-0.383696585893631,0.6263017654418945,1.3966585397720337,-0.800000011920929,2.610520362854004,1.8165618181228638,-2.8730154037475586,0.7872675657272339,0.0011525475420057774,7.599807262420654,4.799851894378662,4.288044452667236,0.4230201840400696,2.392749593127519e-05,30.047584533691406,23.291433334350586,-6.328706741333008,86.17643737792969,55.12903594970703,-51.66817092895508,5.719361305236816,-74.47599792480469,-30.0,-30.0
1.27,2.7046594619750977,-2.3729443550109863,-1.3704512119293213,-84.81312561035156,1.7266085147857666,1.1869895458221436,6.005697250366211,-4.877996921539307,0.29013723134994507,1.6315686702728271,1.2216322422027588,-0.8979971408843994,-0.019276827573776245,-0.4105992615222931,-1.1856166124343872,1.1657060384750366,-0.8000068068504333,-0.02020474709570408,-0.4210042655467987,0.6255371570587158,1.3892641067504883,-0.7999998927116394,-5.866434097290039,7.009726047515869,-7.110359191894531,0.2512754797935486,0.0019184605916962028,-5.8209943771362305,-9.465750694274902,-2.7352781295776367,-2.030658721923828,9.778887033462524e-08,-86.08403015136719,-21.28770637512207,-79.38568878173828,39.68008804321289,-66.25852966308594,-4.999517440795898,-54.30171203613281,-6.423495292663574,-30.0,-30.0
1.28,2.682615280151367,-2.283210039138794,-1.3543837070465088,-84.74018859863281,1.7459018230438232,1.1852209568023682,6.049757480621338,-4.799900054931641,0.3550284504890442,1.4290436506271362,1.0553797483444214,-1.819748878479004,-0.002381345257163048,-0.4043377935886383,-1.2270482778549194,1.1670475006103516,-0.8000259399414062,-0.03766675293445587,-0.4611816108226776,0.616093635559082,1.3709511756896973,-0.7999999523162842,5.8924736976623535,-3.7709007263183594,-2.8825573921203613,0.10962258279323578,-0.0007973993197083473,1.1551518440246582,-0.20749250054359436,0.4420246481895447,-1.4341728687286377,2.0015249901916832e-05,7.966506481170654,42.015037536621094,78.7812271118164,-86.80270385742188,46.6848258972168,-38.35563278198242,22.685104370117188,-10.085704803466797,-30.0,-30.0
