DanielTruong99/RLHumanoidRobot/analysis/data/state_log.csv
time_step,c_x,c_y,c_z,base_x,base_y,base_z,base_vx,base_vy,base_vz,base_wx,base_wy,base_wz,pos_R_hip_joint,pos_R_hip2_joint,pos_R_thigh_joint,pos_R_calf_joint,pos_R_toe_joint,pos_L_hip_joint,pos_L_hip2_joint,pos_L_thigh_joint,pos_L_calf_joint,pos_L_toe_joint,vel_R_hip_joint,vel_R_hip2_joint,vel_R_thigh_joint,vel_R_calf_joint,vel_R_toe_joint,vel_L_hip_joint,vel_L_hip2_joint,vel_L_thigh_joint,vel_L_calf_joint,vel_L_toe_joint,torque_R_hip_joint,torque_R_hip2_joint,torque_R_thigh_joint,torque_R_calf_joint,torque_R_toe_joint,torque_L_hip_joint,torque_L_hip2_joint,torque_L_thigh_joint,torque_L_calf_joint,torque_L_toe_joint
0.02,3.5,0.0,0.0,-0.007574232295155525,-0.002078196033835411,0.9252657890319824,-0.34204208850860596,0.1072060689330101,-0.3415929675102234,-1.7653759717941284,0.9744624495506287,0.06379425525665283,-0.049492016434669495,0.1313382238149643,-0.5066178441047668,0.8126722574234009,-0.12388712912797928,-0.004204276949167252,-0.16017118096351624,-0.17892736196517944,0.7817310094833374,-0.8000011444091797,-2.0133512020111084,3.6825835704803467,-10.593817710876465,34.74169921875,-6.574187278747559,-2.9909496307373047,3.596144199371338,-5.152293682098389,8.140308380126953,-0.0010833740234375,12.326169967651367,27.96247673034668,64.12955474853516,57.79252624511719,5.2281036376953125,0.11975669860839844,61.051692962646484,-34.597347259521484,-11.274276733398438,-30.0
0.04,3.5,0.0,0.0,-0.013673986308276653,-0.005421053618192673,0.9161092042922974,-0.19563481211662292,0.09215959906578064,-0.4199557304382324,-2.1414287090301514,2.1712968349456787,-0.3271069824695587,-0.019544335082173347,0.20493914186954498,-0.6551508903503418,1.3375794887542725,-0.7999647855758667,-0.08229944854974747,-0.07312878966331482,-0.24385470151901245,0.7650569081306458,-0.7999998927116394,4.8079514503479,3.14414381980896,-6.801479816436768,15.469082832336426,6.943009793758392e-07,-4.6255621910095215,4.940434455871582,-4.005129337310791,-1.8478620052337646,-0.0001127079885918647,28.802244186401367,64.95327758789062,54.30326461791992,25.56817626953125,1.895782470703125,13.354374885559082,-23.27359390258789,-99.75375366210938,-54.54121780395508,-30.0
0.06,3.5,0.0,0.0,-0.020577646791934967,-0.007738575339317322,0.9005652070045471,-0.2706693410873413,0.025739526376128197,-0.9245789647102356,-0.591861367225647,1.8429155349731445,-0.15906426310539246,-0.015040075406432152,0.3038404583930969,-0.8003636598587036,1.8883830308914185,-0.799998939037323,-0.0916510745882988,-0.017654677852988243,-0.33463582396507263,0.7481982707977295,-0.7999999523162842,-2.2854886054992676,6.731741905212402,-5.9203104972839355,33.59323501586914,-0.00016222323756664991,1.9365848302841187,0.8847491145133972,-5.041217803955078,-0.48515984416007996,-5.505225999513641e-07,14.260505676269531,61.187660217285156,68.79661560058594,85.92616271972656,-30.0,6.171586036682129,-72.08045959472656,-50.08747100830078,-14.326882362365723,-30.0
0.08,3.5,0.0,0.0,-0.026895681396126747,-0.01157402340322733,0.8853523135185242,-0.1949915885925293,0.06582177430391312,-0.758448600769043,-1.8466707468032837,1.8601888418197632,-0.6633507013320923,-0.01451144739985466,0.4643263518810272,-0.7581441402435303,2.000014066696167,-0.799991250038147,-0.030962808057665825,0.014461969025433064,-0.4481083154678345,0.7506710886955261,-0.7999999523162842,1.8152451515197754,7.136314868927002,3.5331289768218994,-0.000827397161629051,-0.000273139332421124,3.754040241241455,0.543147087097168,-6.821939945220947,0.6518996953964233,2.371856680838391e-06,35.57696533203125,0.4581108093261719,45.38950729370117,158.14166259765625,-30.0,-5.995428085327148,-46.02887725830078,-55.172367095947266,-13.39265251159668,-30.0
0.1,3.5,0.0,0.0,-0.03254871070384979,-0.012522384524345398,0.8689218759536743,-0.29374560713768005,0.06659428030252457,-0.8559786677360535,-0.14404796063899994,-0.12221214175224304,0.005053452216088772,0.01787951961159706,0.49567699432373047,-0.6272763609886169,1.9999803304672241,-0.7999870181083679,-0.010819132439792156,-0.0007997443899512291,-0.5501274466514587,0.7451657652854919,-0.7999999523162842,0.7410355806350708,-0.8969849348068237,9.065581321716309,0.0007131361053325236,-1.1958818504353985e-06,-0.3891819417476654,-1.0144201517105103,-4.411074161529541,-0.035030581057071686,-9.325399332738016e-07,6.066642761230469,-38.35284423828125,47.69717025756836,194.61094665527344,-30.0,1.2583374977111816,18.007568359375,-21.637784957885742,-1.1389225721359253,-30.0
0.12,3.5,0.0,0.0,-0.037769585847854614,-0.012853650376200676,0.8484577536582947,-0.322491854429245,0.1169792115688324,-1.1221359968185425,-1.0691683292388916,-0.15202397108078003,-0.3124443292617798,9.033849346451461e-05,0.4943960905075073,-0.45240023732185364,1.9999911785125732,-0.799994170665741,0.005150761920958757,0.004233755636960268,-0.6371448040008545,0.7658453583717346,-0.7999998927116394,-1.1068453788757324,0.4693329632282257,8.770149230957031,0.00027427024906501174,-0.00020247179782018065,0.9851364493370056,1.099053144454956,-4.686025619506836,2.669677734375,2.064192813122645e-06,4.267038345336914,7.8721089363098145,5.0371856689453125,199.01779174804688,-30.0,6.801682949066162,18.756397247314453,1.9656009674072266,9.201231002807617,-30.0
0.14,3.5,0.0,0.0,-0.042963482439517975,-0.013101452961564064,0.8225197196006775,-0.3211277425289154,0.14323323965072632,-1.3857617378234863,-0.7910405397415161,0.0025758950505405664,-0.04310053959488869,-0.026527199894189835,0.4951796233654022,-0.28477463126182556,2.000007152557373,-0.8000082969665527,0.003092643106356263,0.026574820280075073,-0.7476381063461304,0.8634428381919861,-0.800000011920929,-1.424228549003601,-0.27606290578842163,8.018856048583984,-0.00019760931900236756,3.3759544749045745e-05,-0.6002508997917175,1.0070840120315552,-5.793241500854492,5.760534763336182,1.0785150152514689e-05,-7.962343692779541,-0.8706223964691162,-13.753456115722656,181.24696350097656,-30.0,-5.286799430847168,-7.67576789855957,10.256156921386719,7.654350280761719,-30.0
0.16,3.5,0.0,0.0,-0.04863245040178299,-0.012399661354720592,0.7916691303253174,-0.2978581190109253,0.1603246033191681,-1.6133860349655151,-0.2630927860736847,0.4021821618080139,0.06084393337368965,-0.046062905341386795,0.47172802686691284,-0.15537993609905243,2.000009536743164,-0.8000109195709229,-0.019545555114746094,0.040955815464258194,-0.8756376504898071,1.01422119140625,-0.7999998927116394,-0.9332542419433594,-1.8482019901275635,5.403580188751221,-0.0003815368690993637,0.00015309567970689386,-1.4671396017074585,0.4306737184524536,-6.477519512176514,8.26317310333252,2.6198213163297623e-05,-18.050371170043945,-9.901732444763184,-34.93210220336914,149.4976043701172,-30.0,-5.649662017822266,-8.577888488769531,25.80707550048828,13.526641845703125,-30.0
0.18,3.5,0.0,0.0,-0.05508172884583473,-0.011122480034828186,0.7564594149589539,-0.2320401668548584,0.18129810690879822,-1.8232842683792114,-0.16403815150260925,1.17406165599823,0.09778916835784912,-0.06384788453578949,0.4245913028717041,-0.09379561990499496,2.0000085830688477,-0.8000051975250244,-0.07149262726306915,0.06786870956420898,-1.0191740989685059,1.2202364206314087,-0.7999998927116394,-1.2626689672470093,-2.837282657623291,1.4070452451705933,-0.00036595534766092896,7.843616185709834e-05,-3.123147964477539,1.831210732460022,-7.24608850479126,11.195633888244629,7.459755579475313e-05,-30.264310836791992,-10.014492988586426,-57.39026641845703,96.618896484375,-30.0,-1.7371768951416016,1.9161014556884766,39.05363464355469,19.52562713623047,-30.0
0.2,3.5,0.0,0.0,-0.062253598123788834,-0.010572763159871101,0.7176523208618164,-0.16237911581993103,0.23248112201690674,-2.0003528594970703,-0.8968565464019775,1.8175625801086426,-0.10608519613742828,-0.09487126022577286,0.37796124815940857,-0.10991182923316956,1.9999991655349731,-0.7999468445777893,-0.1822766363620758,0.18692126870155334,-1.1489077806472778,1.454985499382019,-0.800000011920929,-2.0536856651306152,-2.064892053604126,-2.5485031604766846,0.0007752295350655913,-1.4435499906539917e-07,-6.5235595703125,8.546117782592773,-5.563805103302002,12.033987045288086,0.00021748602739535272,-30.262420654296875,-3.95645809173584,-60.713905334472656,16.041095733642578,-30.0,8.359981536865234,26.49852752685547,49.90650939941406,17.45922088623047,-30.0
0.22,3.5,0.0,0.0,-0.0681711956858635,-0.012372537516057491,0.6782631874084473,-0.171209916472435,0.2920451760292053,-1.9845554828643799,-2.4957568645477295,0.9370536208152771,-0.08546468615531921,-0.11527759581804276,0.3684018552303314,-0.12448413670063019,1.8217016458511353,-0.7998431324958801,-0.38338005542755127,0.46789175271987915,-1.1389260292053223,1.621866226196289,-0.8000001907348633,0.12021339684724808,0.6205621361732483,-0.25688880681991577,-14.492995262145996,-1.6391277313232422e-07,-11.745573997497559,16.967639923095703,4.526890754699707,6.31008243560791,0.0006521788891404867,4.644782066345215,-2.9002623558044434,-25.877229690551758,-51.74696350097656,-30.0,19.83697509765625,34.22217559814453,39.92567443847656,-6.612787246704102,-30.0
0.24,3.5,0.0,0.0,-0.06936029344797134,-0.015120450407266617,0.638605535030365,-0.24286475777626038,0.3463607728481293,-2.1246249675750732,-2.3964245319366455,-2.305532455444336,-0.12454374134540558,-0.08538796752691269,0.3941110670566559,0.07223524898290634,1.2806307077407837,-0.8976408839225769,-0.6628612279891968,0.7359204292297363,-0.9174394607543945,1.7556886672973633,-0.800000011920929,0.9148843288421631,3.6761529445648193,18.265911102294922,-17.263296127319336,-29.029983520507812,-13.350293159484863,10.421855926513672,12.683414459228516,7.095335006713867,0.025886667892336845,67.66786193847656,-39.67184829711914,64.48766326904297,-53.92448425292969,-30.0,12.017974853515625,15.571426391601562,-26.742408752441406,-1.5658378601074219,-30.0
0.26,3.5,0.0,0.0,-0.06254322826862335,-0.014561796560883522,0.6030212640762329,0.1712854951620102,0.21262246370315552,-1.144089937210083,-1.1704365015029907,-3.440207004547119,-0.3116343021392822,-0.01916997879743576,0.49982500076293945,0.33866065740585327,0.962389349937439,-1.2727102041244507,-0.8335303068161011,0.8205066323280334,-0.7324826717376709,1.9999631643295288,-0.800000011920929,-2.7654619216918945,0.0014470070600509644,9.895757675170898,-9.026885032653809,28.294984817504883,-6.705338001251221,-0.07033690810203552,9.739104270935059,0.041429899632930756,-0.24192273616790771,170.3885955810547,-171.9619140625,2.311817169189453,-296.1150207519531,-30.0,-32.34879684448242,-5.901829719543457,-59.95942687988281,52.776641845703125,-30.0
0.28,3.5,0.0,0.0,-0.04148118197917938,-0.007288028951734304,0.5886710286140442,1.3196210861206055,0.03565025329589844,-0.4731316864490509,1.8288792371749878,-1.688470482826233,0.06662639230489731,-0.050313081592321396,0.4772845208644867,0.47911694645881653,0.9002224802970886,-1.2828025817871094,-0.586480975151062,0.7000895738601685,-0.9428677558898926,2.000070095062256,-0.7999997138977051,-0.1198616623878479,-2.3419651985168457,5.787761688232422,-5.654983997344971,7.034883975982666,15.938139915466309,-8.717748641967773,-17.179218292236328,-0.04754618927836418,-0.00017266687063965946,291.5458679199219,-300.0,53.3963623046875,-300.0,-30.0,-89.6375961303711,83.35835266113281,-158.19554138183594,263.80743408203125,-30.0
0.3,3.5,0.0,0.0,-0.0022794827818870544,0.01302989013493061,0.5899901986122131,3.017472982406616,-0.1503337323665619,0.19181784987449646,6.694478511810303,3.6783323287963867,-2.2044060230255127,-0.030283944681286812,0.3408360779285431,0.5902460813522339,0.7600974440574646,-1.288828730583191,-0.2050134688615799,0.09823472052812576,-1.355815052986145,2.0000932216644287,-0.7999997735023499,2.9459052085876465,-9.845182418823242,0.11548042297363281,-6.968256950378418,15.352710723876953,12.906432151794434,-40.27141571044922,-16.972715377807617,-0.15299370884895325,-0.0004050836432725191,290.8373718261719,-245.16278076171875,5.212306976318359,-300.0,-30.0,-17.13397216796875,-40.332183837890625,-284.46343994140625,300.0,-30.0
0.32,3.5,0.0,0.0,0.051142945885658264,0.03521387279033661,0.6020936965942383,3.301625967025757,-0.023090265691280365,0.6336345672607422,3.1740994453430176,2.661780595779419,-0.2804981768131256,-0.05683034285902977,0.14443352818489075,0.6704553961753845,0.600355863571167,-1.1066347360610962,-0.18018211424350739,-0.48544469475746155,-1.500550389289856,2.0000219345092773,-0.800000011920929,-2.4275293350219727,-7.942453384399414,5.2981743812561035,-10.984777450561523,19.77984046936035,-0.012121766805648804,-23.283803939819336,-5.188943862915039,0.03909871727228165,-3.5162600397598e-05,-29.94839859008789,-40.51520538330078,-58.23362350463867,-99.67559051513672,30.0,94.77024841308594,41.95849609375,-34.873992919921875,172.51707458496094,-30.0
0.34,3.5,0.0,0.0,0.10914508253335953,0.04760534316301346,0.6245657205581665,2.944004535675049,0.0938311293721199,1.3698699474334717,-2.364133596420288,-0.07946765422821045,0.12140624225139618,-0.28263407945632935,-0.07207699120044708,0.7185262441635132,0.5294049978256226,-0.6621085405349731,-0.24547137320041656,-0.37750592827796936,-1.4556269645690918,1.9999303817749023,-0.800000011920929,-15.120339393615723,-12.66848087310791,0.5454099178314209,-1.6042299270629883,23.29779624938965,-0.5591587424278259,14.185705184936523,10.406412124633789,0.0009448500932194293,-0.0038334443233907223,-66.71272277832031,36.15916442871094,-149.12994384765625,-48.25831604003906,30.0,20.66957664489746,120.09117126464844,212.4495849609375,145.60736083984375,-30.0
0.36,3.5,0.0,0.0,0.17032921314239502,0.05759773030877113,0.6514451503753662,3.43350887298584,0.043427370488643646,1.41273033618927,-2.0198135375976562,2.5638208389282227,0.0499713197350502,-0.34475988149642944,-0.09987393021583557,0.7807039022445679,0.3867916762828827,-0.16200821101665497,-0.2375829815864563,-0.2394532561302185,-1.1967452764511108,1.999964714050293,-0.8000000715255737,0.5324947237968445,2.632167339324951,-0.1398400068283081,-5.819887161254883,27.56052589416504,1.3323427438735962,2.777719736099243,12.889982223510742,-1.910084392875433e-06,-0.02303158864378929,-5.499755859375,51.328372955322266,-52.3256950378418,-138.51266479492188,30.0,-40.22092056274414,-63.05220413208008,76.47293853759766,84.59616088867188,-30.0
0.38,3.5,0.0,0.0,0.2331438660621643,0.07053607702255249,0.6760295629501343,3.345782518386841,0.028542347252368927,1.2177659273147583,-0.3688485026359558,1.4207943677902222,-0.29905712604522705,-0.3221191167831421,-0.0917816311120987,0.7798855304718018,0.31872183084487915,0.7124686241149902,-0.19093510508537292,-0.25212958455085754,-0.9198660850524902,1.8940726518630981,-0.7999999523162842,1.7569891214370728,-0.7271586060523987,0.004233082756400108,-0.6489601135253906,43.226470947265625,2.3693768978118896,-2.6152048110961914,13.617433547973633,-7.863089084625244,-5.385818440117873e-07,15.104047775268555,-13.367551803588867,83.14083099365234,27.20519256591797,1.79986572265625,-17.684144973754883,-40.8549919128418,-34.714176177978516,-11.40372085571289,-30.0
0.4,3.5,0.0,0.0,0.29770627617836,0.08502466976642609,0.6970243453979492,3.3480634689331055,0.012350717559456825,1.1674336194992065,-0.6335762143135071,0.3925434947013855,-0.2958049774169922,-0.2546389400959015,-0.06903747469186783,0.7585864663124084,0.44813913106918335,0.47099900245666504,-0.2013503611087799,-0.2613914906978607,-0.5940308570861816,1.5402052402496338,-0.800000011920929,3.7514517307281494,1.9403765201568604,-1.0827767848968506,6.772837162017822,-11.833433151245117,-3.0266101360321045,0.5851266980171204,17.594802856445312,-23.298587799072266,9.93310459307395e-06,-5.285391807556152,9.843221664428711,-33.742130279541016,-7.612068176269531,0.12106704711914062,-33.894439697265625,8.312332153320312,45.389984130859375,-19.106826782226562,-30.0
0.42,3.5,0.0,0.0,0.36489853262901306,0.09973078966140747,0.7204548120498657,3.2596943378448486,-0.019542064517736435,1.635845422744751,0.05678800493478775,-1.9121618270874023,-0.41138333082199097,-0.20630395412445068,-0.052197352051734924,0.7174535393714905,0.592117965221405,-0.4905615746974945,-0.23764680325984955,-0.2685427665710449,-0.2946036756038666,1.2031046152114868,-0.9662570953369141,2.053576946258545,0.10047731548547745,-2.449024200439453,4.496870040893555,-43.99172592163086,0.29372960329055786,-0.8176552057266235,13.648959159851074,-15.037111282348633,7.088099002838135,-36.377960205078125,40.926151275634766,-174.78024291992188,-58.73748779296875,-30.0,-72.07156372070312,3.9904685020446777,237.2487030029297,-101.78936767578125,-30.0
0.44,3.5,0.0,0.0,0.43489184975624084,0.116045281291008,0.7504944205284119,3.364882230758667,0.012470144778490067,1.4792349338531494,-0.16164468228816986,-2.4016640186309814,0.23662805557250977,-0.25908365845680237,-0.14285950362682343,0.7266829609870911,0.37907874584198,-0.7991099953651428,-0.16591261327266693,-0.28079313039779663,-0.052550796419382095,1.020944356918335,-0.7089580297470093,-4.783802509307861,-6.022457599639893,0.3170856833457947,-16.105928421020508,-0.000814095139503479,4.264820575714111,0.2431221753358841,12.884363174438477,-8.898172378540039,16.47825813293457,0.8505496978759766,1.4017105102539062,-119.17115020751953,-44.41907501220703,-30.0,-49.58894348144531,18.262638092041016,118.7110366821289,42.5926513671875,30.0
0.46,3.5,0.0,0.0,0.5014394521713257,0.1320287138223648,0.7770695686340332,3.3854615688323975,0.0075675118714571,1.1707706451416016,0.2642420530319214,0.3781905770301819,0.12179869413375854,-0.36288177967071533,-0.24858272075653076,0.6015627384185791,0.30310294032096863,-0.8000698089599609,-0.15404626727104187,-0.2757766544818878,0.012588116340339184,1.0465304851531982,-0.08843176066875458,-3.9547371864318848,-4.182236194610596,-7.994743824005127,0.2593422532081604,0.003104877658188343,-0.7682978510856628,0.29539433121681213,-0.769148588180542,5.103779315948486,50.0000114440918,42.222816467285156,-48.0007209777832,43.524452209472656,21.726539611816406,-30.0,4.9847917556762695,29.180328369140625,-60.54752731323242,17.1191463470459,30.0
0.48,3.5,0.0,0.0,0.5652881860733032,0.14933979511260986,0.7971413731575012,3.3916015625,-0.04935871809720993,0.9022082090377808,2.4478940963745117,1.1519348621368408,-0.05369442328810692,-0.30099454522132874,-0.2688818573951721,0.5015891194343567,0.24981173872947693,-0.8001580834388733,-0.210757777094841,-0.3273065984249115,-0.08207878470420837,1.2254754304885864,0.23813670873641968,6.4713029861450195,-1.1383392810821533,-3.4597177505493164,-3.3932740688323975,0.002274984261021018,-3.397394895553589,-4.721440315246582,-7.6233906745910645,9.253398895263672,15.635123252868652,10.122352600097656,-37.02907943725586,84.54753112792969,24.414691925048828,-30.0,46.91626739501953,-44.92371368408203,-121.56706237792969,-31.580358505249023,-2.1053009033203125
0.5,3.5,0.0,0.0,0.6282141804695129,0.16684752702713013,0.8120725750923157,3.3742659091949463,-0.014432305470108986,0.7799718976020813,1.4278286695480347,1.620947003364563,0.006507114041596651,-0.11255580186843872,-0.25422483682632446,0.5057763457298279,0.1044934093952179,-0.8000868558883667,-0.13393640518188477,-0.36160337924957275,-0.2051893025636673,1.4488836526870728,-0.561029314994812,9.396323204040527,1.2507519721984863,1.4885979890823364,-8.122947692871094,0.0007040720665827394,7.436316013336182,-0.10304611921310425,-5.894193172454834,9.161867141723633,-39.28006362915039,-32.65985870361328,10.386280059814453,86.24610137939453,26.088504791259766,-30.0,53.65996551513672,36.41779327392578,-92.01336669921875,-41.80961608886719,-2.8720703125
0.52,3.5,0.0,0.0,0.6894428730010986,0.18261247873306274,0.8235137462615967,3.382282257080078,0.0009651510044932365,0.752534806728363,0.7516478300094604,2.972956657409668,-0.1272173374891281,0.1034206748008728,-0.21770437061786652,0.4881701171398163,0.0468476228415966,-0.37737926840782166,0.03846288472414017,-0.3645399808883667,-0.35960909724235535,1.5690088272094727,-0.7999998927116394,10.973468780517578,1.9834027290344238,-1.7598673105239868,-0.29261651635169983,20.65145492553711,9.227865219116211,-0.0217533390969038,-9.224346160888672,4.587063789367676,-1.2111195246689022e-07,-7.642204284667969,-5.065256118774414,44.431365966796875,19.13727569580078,1.4917373657226562,24.571796417236328,34.92778778076172,-57.50688552856445,-19.755565643310547,-30.0
0.54,3.5,0.0,0.0,0.7523293495178223,0.19699585437774658,0.8333509564399719,3.3831374645233154,0.0020118597894906998,0.9220726490020752,-0.02864617109298706,1.5148905515670776,0.5157893896102905,0.2806183397769928,-0.1587773859500885,0.48514169454574585,0.08137238770723343,0.036086555570364,0.19881893694400787,-0.3635261058807373,-0.48014408349990845,1.5087900161743164,-0.7999999523162842,6.370670318603516,3.6869618892669678,0.9037452936172485,0.892157793045044,15.117640495300293,6.674047470092773,0.937740683555603,-4.284102439880371,-7.333199977874756,-3.311599721200764e-05,-3.455219268798828,-34.661163330078125,-14.503772735595703,-9.251099586486816,30.0,-15.801067352294922,55.76683044433594,15.647469520568848,-25.36701774597168,-30.0
0.56,3.5,0.0,0.0,0.8195668458938599,0.2115928828716278,0.8443775177001953,3.4125492572784424,0.006824960932135582,1.059073567390442,-0.3365517854690552,0.09915440529584885,0.3915949761867523,0.3598240911960602,-0.08977077156305313,0.524328351020813,0.017928287386894226,0.5213972926139832,0.2466682344675064,-0.3200858235359192,-0.4861332178115845,1.1927512884140015,-0.7999999523162842,2.1660919189453125,2.9537458419799805,1.6295106410980225,-5.647885322570801,34.21086502075195,-1.0571776628494263,3.7336525917053223,1.9694392681121826,-20.47035026550293,0.022242173552513123,26.581504821777344,-46.176292419433594,-62.98532485961914,-7.287271499633789,30.0,-46.512542724609375,59.29203414916992,66.75614929199219,-4.320594787597656,-30.0
0.58,3.5,0.0,0.0,0.8882633447647095,0.22661811113357544,0.8539427518844604,3.4111132621765137,-0.05016153305768967,0.8593181371688843,0.08866893500089645,-0.225867360830307,0.12022416293621063,0.26608070731163025,-0.11844561994075775,0.45291435718536377,0.18885284662246704,0.20057964324951172,0.16415052115917206,-0.24798087775707245,-0.4273948073387146,0.8085078001022339,-0.800000011920929,-6.406052112579346,-3.0375735759735107,-4.780333995819092,10.990297317504883,-15.376017570495605,-6.283754825592041,3.4889376163482666,3.8185462951660156,-17.253385543823242,4.092631570529193e-05,14.225824356079102,-22.925033569335938,-52.38627243041992,-10.776134490966797,-0.11241912841796875,-37.67028045654297,-14.598335266113281,84.1407470703125,45.13456344604492,-30.0
0.6,3.5,0.0,0.0,0.9587335586547852,0.2413964420557022,0.8593870401382446,3.404811382293701,-0.004027871415019035,0.6236089468002319,-1.6564429998397827,-2.0665924549102783,-0.3340357840061188,0.14656811952590942,-0.14280036091804504,0.4038980305194855,0.27971702814102173,-0.3054826259613037,0.10350187122821808,-0.1871509701013565,-0.3193866014480591,0.5945504307746887,-0.46635958552360535,-6.417027473449707,-0.12151870876550674,-1.6834144592285156,1.50039803981781,-24.60302734375,-3.2732174396514893,3.8024561405181885,7.271958351135254,-4.573540687561035,-68.17640686035156,-15.559144973754883,34.05381774902344,-94.98556518554688,-36.48033142089844,-2.819732666015625,-22.800621032714844,18.16929054260254,107.3909912109375,27.15133285522461,30.0
0.62,3.5,0.0,0.0,1.0307055711746216,0.2543299198150635,0.8625508546829224,3.46048903465271,-0.03740376979112625,0.4562821090221405,-2.1344540119171143,-1.4188843965530396,0.08710440248250961,0.03543177992105484,-0.12450921535491943,0.3676995038986206,0.29208022356033325,-0.7998939156532288,0.09725077450275421,-0.12580963969230652,-0.22578953206539154,0.6200165152549744,-0.36465662717819214,-5.96206521987915,1.7578328847885132,-2.3886630535125732,-1.1701000928878784,0.0004170611500740051,0.22959768772125244,3.356832981109619,5.115657806396484,2.3800604343414307,0.5018012523651123,-11.832283020019531,34.32191848754883,-34.6363525390625,-0.7552804946899414,-30.0,-11.149151802062988,-0.8216485977172852,17.975690841674805,-16.884130477905273,30.0
0.64,3.5,0.0,0.0,1.1016992330551147,0.26640772819519043,0.8634635210037231,3.437648057937622,-0.03148876503109932,0.16096316277980804,-2.3755626678466797,-1.0575305223464966,-0.2394203096628189,-0.10821838676929474,-0.10821054130792618,0.33866381645202637,0.18078653514385223,-0.7997801899909973,0.03700120002031326,-0.05631338059902191,-0.21683862805366516,0.8290150761604309,-0.20805472135543823,-6.793559551239014,0.32381534576416016,-1.1378297805786133,-7.118112564086914,-0.0010438784956932068,-4.086531162261963,3.6424624919891357,-1.3097381591796875,14.187026977539062,14.135279655456543,35.94758605957031,-71.7265396118164,-25.736900329589844,-12.60195541381836,-30.0,-6.921228408813477,88.75874328613281,26.944175720214844,34.2100830078125,30.0
0.66,3.5,0.0,0.0,1.170533299446106,0.27975404262542725,0.8601477146148682,3.4878640174865723,-0.03210550174117088,-0.11139579117298126,-0.8223145008087158,0.15056657791137695,0.039615802466869354,-0.13806067407131195,-0.09820235520601273,0.28914934396743774,0.130905419588089,-0.8000504970550537,-0.049787525087594986,-0.017242373898625374,-0.29242825508117676,1.0814064741134644,0.4064619541168213,1.0698902606964111,-0.21125121414661407,-2.6926767826080322,-0.9004135131835938,0.001792906317859888,-4.523632526397705,1.101536512374878,-5.368842124938965,11.995017051696777,46.90403747558594,25.207565307617188,-66.94429779052734,52.70123291015625,19.728286743164062,-30.0,-0.47649574279785156,8.598750114440918,-74.407470703125,-12.067394256591797,30.0
0.68,3.5,0.0,0.0,1.237414836883545,0.29686954617500305,0.8509751558303833,3.5113940238952637,-0.08369451761245728,-0.37933793663978577,2.152005672454834,0.5937879085540771,0.037989187985658646,0.007728747557848692,-0.1213284432888031,0.2576732635498047,0.11511938273906708,-0.555137574672699,-0.007740284316241741,-0.07817359268665314,-0.436092346906662,1.4000470638275146,0.20259951055049896,9.464513778686523,-2.6995089054107666,-0.6034534573554993,-0.12253104150295258,11.837447166442871,5.4247660636901855,-6.884925842285156,-8.486027717590332,14.854681968688965,-9.997270584106445,-3.955413818359375,-6.612366676330566,80.64662170410156,27.427806854248047,2.4657249450683594,27.579317092895508,-96.70187377929688,-90.68758392333984,-24.094268798828125,-1.2149620056152344
0.7000000000000001,3.5,0.0,0.0,1.3049129247665405,0.3158385455608368,0.839329719543457,3.527970314025879,-0.08211825042963028,-0.37741819024086,1.694018840789795,-0.2144998461008072,0.12691180408000946,0.19568409025669098,-0.13620352745056152,0.3016880750656128,0.20574435591697693,-0.34205707907676697,0.19107991456985474,-0.23568296432495117,-0.5174740552902222,1.5402711629867554,-0.4603332281112671,8.445287704467773,0.7254175543785095,4.6244611740112305,4.083776950836182,2.222477436065674,12.107073783874512,-8.267240524291992,-1.9048855304718018,1.4872220754623413,-32.6900749206543,-15.488536834716797,10.692549705505371,49.73991394042969,8.32896614074707,30.0,30.542213439941406,2.655170440673828,-62.02925109863281,-54.87281799316406,-4.150665283203125
0.72,3.5,0.0,0.0,1.3748893737792969,0.33371177315711975,0.8296452164649963,3.5867016315460205,-0.057016968727111816,-0.26928842067718506,0.1873263567686081,-0.5543683171272278,-0.04790124297142029,0.33128219842910767,-0.0858561098575592,0.39409157633781433,0.2593492567539215,-0.22822721302509308,0.33622562885284424,-0.32833296060562134,-0.49116477370262146,1.2981663942337036,-0.7999997735023499,5.543040752410889,3.5440025329589844,3.697141647338867,2.688856363296509,7.437789440155029,3.7989299297332764,-1.322399616241455,1.9085825681686401,-20.165267944335938,1.155458448920399e-06,11.320474624633789,-46.500633239746094,11.824264526367188,13.43121337890625,30.0,-3.0581588745117188,111.60930633544922,-40.809349060058594,-57.61897277832031,-30.0
0.74,3.5,0.0,0.0,1.4452394247055054,0.3489148020744324,0.8184325695037842,3.5743913650512695,-0.0852660983800888,-0.5145609974861145,-0.6988288760185242,-0.5428290367126465,-0.19815170764923096,0.27146047353744507,-0.08822920173406601,0.340536892414093,0.5781694054603577,0.023842118680477142,0.23154431581497192,-0.29638421535491943,-0.48893699049949646,0.8870707750320435,-0.5236372351646423,-5.300634860992432,-1.3855901956558228,-4.1379618644714355,20.301876068115234,13.598140716552734,-11.448083877563477,4.724681854248047,0.704970121383667,-19.84618377685547,-50.0,9.18155288696289,-31.992586135864258,-8.815132141113281,13.252037048339844,1.2626953125,-26.104976654052734,62.56404113769531,25.973485946655273,5.3795318603515625,0.5161572694778442
0.76,3.5,0.0,0.0,1.5151491165161133,0.3633606731891632,0.8092606663703918,3.530806064605713,-0.06320995837450027,-0.0731961727142334,-0.5947030782699585,-0.07577407360076904,0.1810116320848465,0.14637452363967896,-0.1235814020037651,0.2438335418701172,0.9659662842750549,-0.37660354375839233,0.1648266762495041,-0.2485964149236679,-0.4561949074268341,0.9152688384056091,-0.5025525689125061,-7.032905101776123,-1.7822242975234985,-5.751166820526123,16.947729110717773,-19.331262588500977,1.808266520500183,1.3457245826721191,5.013488292694092,1.2299308776855469,-7.645292282104492,-7.494407653808594,22.50424575805664,-84.46881103515625,-29.388381958007812,-3.4836807250976562,-30.63250160217285,98.10910034179688,52.23635482788086,-148.23667907714844,30.0
0.78,3.5,0.0,0.0,1.5880639553070068,0.3789291977882385,0.8149835467338562,3.523221015930176,-0.013858222402632236,0.6967281103134155,-1.732498049736023,-2.633887529373169,-0.09453128278255463,-0.0072775245644152164,-0.11957670003175735,0.26258042454719543,0.8943520188331604,-0.7989459037780762,0.16404129564762115,-0.1939610242843628,-0.2770281732082367,0.8679310083389282,-0.6020171642303467,-8.360871315002441,1.376958966255188,2.439894437789917,-14.456463813781738,-0.0013763010501861572,-0.1263917088508606,3.919799327850342,11.398675918579102,-7.252439975738525,3.1039535999298096,-13.644660949707031,46.77722930908203,-135.8608856201172,-69.62721252441406,-30.0,-2.3794960975646973,167.27728271484375,102.53033447265625,-174.3314208984375,30.0
0.8,3.5,0.0,0.0,1.6601203680038452,0.39456284046173096,0.8253238201141357,3.556800365447998,-0.01783047243952751,0.3182777166366577,-1.0106210708618164,-0.6435220837593079,-0.1284380704164505,-0.1786964386701584,-0.12586623430252075,0.27042314410209656,0.6685039401054382,-0.7999922037124634,0.06359953433275223,-0.14820431172847748,-0.20814268290996552,0.9305263161659241,-0.45994073152542114,-7.4007248878479,-1.3329553604125977,-0.42360812425613403,-9.51171875,-0.012418588623404503,-7.469119548797607,0.9986022114753723,-0.32085394859313965,7.428518295288086,11.61398983001709,48.874420166015625,-79.63282012939453,14.023380279541016,9.672119140625,-30.0,-15.025535583496094,52.785484313964844,-36.17950439453125,11.722627639770508,30.0
0.8200000000000001,3.5,0.0,0.0,1.729782223701477,0.41132113337516785,0.8312972187995911,3.540027141571045,-0.04309847578406334,0.1049211323261261,0.19000943005084991,-0.17196562886238098,-0.03674948588013649,-0.24535730481147766,-0.13892126083374023,0.29097217321395874,0.45517823100090027,-0.8000504374504089,-0.02852894552052021,-0.15033824741840363,-0.2726481854915619,1.1229561567306519,-0.03868137672543526,-0.8433552980422974,-0.8358373045921326,1.9547090530395508,-10.744559288024902,-0.028844542801380157,-3.0424811840057373,-0.9595354795455933,-5.376016139984131,10.275700569152832,29.27655792236328,21.58740234375,-45.41183090209961,67.85269927978516,21.676647186279297,-30.0,16.836130142211914,1.1912070512771606,-79.44819641113281,-25.7744197845459,30.0
0.84,3.5,0.0,0.0,1.7990374565124512,0.42861390113830566,0.8335378766059875,3.5249953269958496,-0.030799133703112602,-0.10142438113689423,0.13736052811145782,-0.3602786064147949,-0.01631198637187481,-0.18229112029075623,-0.12344812601804733,0.35796844959259033,0.264864981174469,-0.8000484704971313,-0.035619087517261505,-0.16182219982147217,-0.35731855034828186,1.261345386505127,-0.1235516220331192,4.33367919921875,1.3518112897872925,4.056145668029785,-8.341489791870117,-4.538837674772367e-05,0.8224205374717712,-0.3510645925998688,-4.247808456420898,3.468390941619873,-4.55885648727417,-6.48969841003418,-3.379652976989746,73.33486938476562,28.514177322387695,-30.0,20.22626495361328,9.230133056640625,-73.31749725341797,-44.226287841796875,-3.4517459869384766
0.86,3.5,0.0,0.0,1.8680760860443115,0.4457351565361023,0.8317899107933044,3.523587226867676,-0.029320869594812393,-0.3163110017776489,0.2997996509075165,-0.07426320761442184,0.020803365856409073,-0.09189236909151077,-0.09700022637844086,0.43039461970329285,0.14794811606407166,-0.8000337481498718,0.008238060399889946,-0.1706540584564209,-0.4397268295288086,1.3091014623641968,-0.8000006675720215,4.216528415679932,1.1187338829040527,3.5418155193328857,-4.633950233459473,0.00706389918923378,2.8409528732299805,-0.545819878578186,-4.514027118682861,-1.6276354789733887,-7.907787322998047,-1.157684326171875,-11.633171081542969,47.74998092651367,18.482913970947266,1.1397305727005005,14.677641868591309,10.408448219299316,-53.87737274169922,-30.307968139648438,-2.10223388671875
0.88,3.5,0.0,0.0,1.9365973472595215,0.4631016254425049,0.8273485898971558,3.520906925201416,-0.012909820303320885,-0.41415461897850037,0.39063596725463867,-0.20718157291412354,0.04346989840269089,-0.041310325264930725,-0.09574045985937119,0.4598924517631531,0.1849447786808014,-0.286505788564682,0.04564811661839485,-0.18389207124710083,-0.5143498182296753,1.1894102096557617,-0.8000000715255737,1.5606380701065063,-0.2535861134529114,2.0613369941711426,4.4259352684021,11.183951377868652,0.9941744208335876,-0.45765453577041626,-3.129795789718628,-7.9543776512146,0.006009550765156746,7.025860786437988,-21.990854263305664,11.484777450561523,4.256687164306641,30.0,-1.050117015838623,12.1787109375,-15.581560134887695,-12.002410888671875,-30.0
0.9,3.5,0.0,0.0,2.006021738052368,0.4806992709636688,0.8224157094955444,3.532017946243286,0.04005316644906998,-0.4418800175189972,-0.2795068323612213,-0.8834426403045654,-0.08788486570119858,-0.04314465448260307,-0.10560193657875061,0.4593333601951599,0.3402640223503113,-0.09668556600809097,0.002159103751182556,-0.17031040787696838,-0.5304970145225525,0.9443321228027344,-0.6333458423614502,-0.58023601770401,-0.4016653895378113,-0.712394118309021,8.93205451965332,12.416000366210938,-4.002563953399658,1.7001603841781616,1.7285410165786743,-2.088064193725586,-115.76480102539062,-1.4934186935424805,-2.760845422744751,-15.464071273803711,13.07421875,30.0,-17.28716278076172,21.410179138183594,17.083301544189453,-45.64442825317383,30.0
0.92,3.5,0.0,0.0,2.0745954513549805,0.4981691241264343,0.8179610371589661,3.5427005290985107,-0.0321388877928257,-0.3077523410320282,0.5796211361885071,0.5031586289405823,0.09620866179466248,-0.08544471859931946,-0.12143772840499878,0.3416483402252197,0.671360969543457,-0.4953308403491974,-0.019295943900942802,-0.17364732921123505,-0.4978336691856384,0.8980890512466431,-0.3443077504634857,-2.7313144207000732,-0.8047897815704346,-7.535216808319092,19.079652786254883,-18.798023223876953,-0.567638635635376,-0.8133828639984131,4.324203014373779,1.6692190170288086,-8.845451354980469,-26.311458587646484,44.18155288696289,-10.354175567626953,6.214385986328125,0.27768707275390625,-7.660586833953857,-3.5458216667175293,-9.128347396850586,-131.95880126953125,30.0
0.9400000000000001,3.5,0.0,0.0,2.1435468196868896,0.5152430534362793,0.8226543664932251,3.5244035720825195,-0.03660539910197258,0.3585222065448761,-0.4576904773712158,-0.5429741144180298,-0.005942254792898893,-0.11996574699878693,-0.08972904086112976,0.29614561796188354,0.7302306890487671,-0.7993901968002319,-0.02395518869161606,-0.17616011202335358,-0.36962056159973145,0.8812764286994934,-0.457282692193985,-1.579737663269043,3.085786819458008,-1.2138264179229736,-4.214239120483398,-0.005594342947006226,-0.389706015586853,0.6725687384605408,7.900269031524658,-3.7641639709472656,-1.8124842643737793,-18.534618377685547,45.045223236083984,-64.11524963378906,-32.85839080810547,-30.0,13.048303604125977,136.1002197265625,56.45185089111328,-165.68911743164062,30.0
0.96,3.5,0.0,0.0,2.2116174697875977,0.5323641896247864,0.8313190340995789,3.5159807205200195,-0.013492817059159279,0.1648104041814804,0.07974343746900558,0.16234195232391357,0.004161690827459097,-0.1684613972902298,-0.0697479099035263,0.27087461948394775,0.6136817336082458,-0.7999684810638428,-0.05195287987589836,-0.17474965751171112,-0.2987615466117859,0.9163416028022766,-0.38520359992980957,-2.153749942779541,-0.3914886713027954,-1.2276729345321655,-6.48768949508667,-0.006392760202288628,-1.9478853940963745,-0.29480236768722534,1.2189834117889404,4.203814506530762,8.33359432220459,40.60393524169922,-79.19468688964844,6.06464958190918,-0.9077568054199219,-30.0,-7.497465133666992,73.14302062988281,-14.925027847290039,13.499703407287598,30.0
0.98,3.5,0.0,0.0,2.278118133544922,0.5503084063529968,0.8365702629089355,3.5128841400146484,-0.00573081336915493,0.05531468242406845,0.4821704626083374,0.8502493500709534,0.00607894966378808,-0.16180138289928436,-0.07474235445261002,0.26091548800468445,0.44908228516578674,-0.7999969124794006,-0.06997828185558319,-0.18760453164577484,-0.3428802192211151,1.0700701475143433,-0.1008424460887909,1.8514635562896729,-0.5848281383514404,-0.05158980190753937,-8.741397857666016,-0.0052472446113824844,-0.3530089259147644,-0.7914321422576904,-4.300754547119141,8.851571083068848,20.071367263793945,24.935075759887695,-52.349510192871094,41.60856628417969,11.726512908935547,-30.0,9.904598236083984,54.96487045288086,-53.136634826660156,-20.912769317626953,30.0
1.0,3.5,0.0,0.0,2.3442718982696533,0.5684163570404053,0.8385924696922302,3.499502420425415,-0.014594229869544506,-0.09337198734283447,0.5266437530517578,0.6762487888336182,-0.024244816973805428,-0.0906619057059288,-0.07969817519187927,0.2778109312057495,0.31237998604774475,-0.8000395894050598,-0.042458049952983856,-0.1962587982416153,-0.4069214463233948,1.1814472675323486,-0.1429039090871811,4.081474304199219,-0.31739071011543274,1.7269967794418335,-4.3847761154174805,-45.563724517822266,2.1146738529205322,-0.17267221212387085,-3.166553020477295,2.7721452713012695,-2.446647882461548,0.11573982238769531,-12.01359748840332,65.52079772949219,3.619434356689453,30.0,18.713520050048828,27.100889205932617,-62.79203796386719,-37.39118194580078,-2.468735694885254
1.02,3.5,0.0,0.0,2.4109256267547607,0.5861843228340149,0.8370794057846069,3.4994070529937744,-4.364841151982546e-05,-0.19682346284389496,0.1860169917345047,0.22248448431491852,0.015059034340083599,-0.009862453676760197,-0.0746416226029396,0.3363421857357025,0.2344890981912613,-0.42059025168418884,0.027677245438098907,-0.19414247572422028,-0.4684806168079376,1.2546871900558472,-0.7006820440292358,2.5132133960723877,0.39669519662857056,4.975102424621582,-1.9409369230270386,7.323154449462891,4.157472133636475,0.3984701633453369,-3.0747122764587402,2.6412224769592285,-27.174314498901367,13.80443000793457,-21.765249252319336,50.261329650878906,-11.890155792236328,30.0,17.113019943237305,17.550926208496094,-52.48687744140625,-20.290430068969727,-1.3609619140625
1.04,3.5,0.0,0.0,2.478616714477539,0.6041303873062134,0.8345066905021667,3.5102176666259766,-0.006079810205847025,-0.21427860856056213,0.36041751503944397,0.05011918023228645,0.0037006032653152943,0.0213218554854393,-0.07110288739204407,0.4296281337738037,0.21001359820365906,-0.2639039158821106,0.07113652676343918,-0.18046662211418152,-0.5117963552474976,1.1854968070983887,-0.7999999523162842,0.88730388879776,-0.03320945426821709,4.126740455627441,-0.7099894881248474,9.46217155456543,0.9533109664916992,1.0499951839447021,-1.8552888631820679,-6.050543785095215,-2.198030415456742e-05,12.299938201904297,-39.05864334106445,8.931480407714844,12.844629287719727,30.0,-3.103163719177246,23.276151657104492,-13.132980346679688,-14.301218032836914,-30.0
1.06,3.5,0.0,0.0,2.5468087196350098,0.6226567625999451,0.8317296504974365,3.512754201889038,0.03816230595111847,-0.2600319981575012,0.09984882175922394,-0.5488221049308777,-0.010847113095223904,0.025116821750998497,-0.07652085274457932,0.4718300700187683,0.26951172947883606,-0.06375814974308014,0.02367180585861206,-0.14890678226947784,-0.5009974837303162,0.9485882520675659,-0.7805333733558655,0.1363513469696045,-0.038929350674152374,1.0895717144012451,5.017495632171631,11.020126342773438,-3.7238242626190186,1.8617265224456787,2.1945040225982666,-4.757268905639648,-82.87828063964844,-1.4476219415664673,3.791567802429199,-23.51944351196289,11.789142608642578,30.0,-17.185585021972656,-5.04179573059082,27.2117977142334,-2.4627914428710938,-30.0
1.08,3.5,0.0,0.0,2.614013433456421,0.640711784362793,0.8286336064338684,3.5028955936431885,0.007185918744653463,-0.12347730249166489,0.1942308396100998,0.6609708666801453,0.018353847786784172,-0.02800162509083748,-0.09040533006191254,0.3585934638977051,0.5981733798980713,-0.26382017135620117,-0.007001460529863834,-0.1414833664894104,-0.45979321002960205,0.8691863417625427,-0.3934275209903717,-3.746701717376709,-0.6014032959938049,-7.818839073181152,19.475181579589844,-9.144112586975098,2.0184693336486816,-0.5003892779350281,3.950014352798462,1.0107638835906982,-1.0360040664672852,-26.142284393310547,43.9970703125,-39.637725830078125,-3.0301055908203125,-0.31163787841796875,-13.136934280395508,10.847591400146484,23.408458709716797,-84.1235580444336,30.0
1.1,3.5,0.0,0.0,2.6830742359161377,0.6578200459480286,0.8338346481323242,3.506483316421509,-0.014695767313241959,0.45915019512176514,-0.8841544389724731,-0.9460748434066772,0.029646268114447594,-0.08541536331176758,-0.057361532002687454,0.3386130630970001,0.6220974326133728,-0.799670398235321,-0.01015253271907568,-0.13321645557880402,-0.3134572505950928,0.8284037709236145,-0.4922013580799103,-2.814021348953247,3.056340217590332,0.5731091499328613,-8.625768661499023,-0.0055297017097473145,1.1209156513214111,1.1720073223114014,9.376123428344727,-6.233341693878174,3.252418279647827,-14.477048873901367,38.178565979003906,-96.45255279541016,-54.27784729003906,-5.8122406005859375,2.9012808799743652,127.81121826171875,87.48678588867188,-128.5364532470703,30.0
1.12,3.5,0.0,0.0,2.751126527786255,0.674338161945343,0.8421777486801147,3.5032365322113037,0.005609441548585892,0.236290842294693,-0.480339914560318,0.340315580368042,0.0027298631612211466,-0.1664077788591385,-0.03812785446643829,0.3144516944885254,0.4860813319683075,-0.7999634742736816,-0.05542315915226936,-0.11679298430681229,-0.25346076488494873,0.8780649304389954,-0.3983183801174164,-3.6675639152526855,-0.30287420749664307,-1.844164490699768,-6.038166046142578,-0.0022394785191863775,-4.407805919647217,0.4204234778881073,-0.0675109401345253,5.942205429077148,9.071805953979492,46.63502883911133,-85.24031066894531,-0.4388589859008789,1.1851024627685547,-30.0,-16.05710792541504,81.58747863769531,-6.8507466316223145,21.992908477783203,30.0
1.1400000000000001,3.5,0.0,0.0,2.8172316551208496,0.6918405890464783,0.8469487428665161,3.4894161224365234,0.0034893935080617666,0.13033314049243927,0.16726315021514893,0.8482903838157654,0.0393044650554657,-0.19322513043880463,-0.04501190781593323,0.2872295677661896,0.35260286927223206,-0.800004780292511,-0.09722988307476044,-0.12291008234024048,-0.3170783519744873,1.0519485473632812,-0.07577524334192276,0.17177219688892365,-0.764230489730835,-0.8635905385017395,-6.75822639465332,-0.014492463320493698,-1.0993894338607788,-0.5656357407569885,-5.1252827644348145,9.530230522155762,22.2169132232666,27.452011108398438,-55.979984283447266,54.085052490234375,17.14215087890625,-30.0,8.194339752197266,50.70524597167969,-60.272300720214844,-23.822994232177734,30.0
1.16,3.5,0.0,0.0,2.8832168579101562,0.7098410725593567,0.8484815955162048,3.4751780033111572,-0.013475337065756321,-0.031283967196941376,0.4318675100803375,0.5827013254165649,-0.03897681087255478,-0.13578730821609497,-0.050129424780607224,0.2956795394420624,0.22760622203350067,-0.8040857315063477,-0.074117012321949,-0.13247749209403992,-0.394976407289505,1.1741641759872437,-0.1293492168188095,3.846259593963623,-0.36045628786087036,0.649582028388977,-0.7645175457000732,-62.14815902709961,2.198986053466797,-0.4937371015548706,-3.9203991889953613,3.1886565685272217,-3.0292861461639404,4.27543830871582,-15.308479309082031,66.15879821777344,23.910919189453125,-30.0,15.973690032958984,19.21773910522461,-65.81816864013672,-37.748897552490234,-2.957798957824707
1.18,3.5,0.0,0.0,2.9494364261627197,0.7281443476676941,0.8461005687713623,3.4818460941314697,0.009476721286773682,-0.15631450712680817,0.5060742497444153,0.10949582606554031,0.00502950232475996,-0.045028772205114365,-0.04829826578497887,0.3400144577026367,0.17318224906921387,-0.3489634096622467,0.005121608730405569,-0.14908860623836517,-0.4598178565502167,1.260903239250183,-0.6908063888549805,4.660490036010742,0.25130313634872437,4.6593732833862305,-1.1748790740966797,6.542240142822266,4.992905139923096,-1.1497875452041626,-3.286433458328247,3.825148344039917,-27.28116798400879,19.2688045501709,-19.662216186523438,52.242347717285156,-7.986364364624023,30.0,15.687200546264648,-0.39536285400390625,-53.57785415649414,-16.277965545654297,-1.0670928955078125
1.2,3.5,0.0,0.0,3.016660213470459,0.7468487024307251,0.8426909446716309,3.498046875,-0.0036448799073696136,-0.16530023515224457,0.5734459161758423,0.0621333010494709,0.04210169240832329,0.014937005937099457,-0.044981978833675385,0.4248409569263458,0.16754676401615143,-0.1992972195148468,0.08742151409387589,-0.17099404335021973,-0.5007667541503906,1.204527497291565,-0.7999998927116394,2.045828342437744,0.04027417302131653,3.7398078441619873,-0.2751692235469818,9.677921295166016,3.4876668453216553,-0.8919020891189575,-1.654825210571289,-5.765565872192383,-3.623470547609031e-06,5.767800331115723,-32.915985107421875,12.11985969543457,17.94215202331543,30.0,0.7077121734619141,19.503219604492188,-19.48440170288086,-18.963272094726562,-30.0
1.22,3.5,0.0,0.0,3.0847861766815186,0.7658005952835083,0.8395132422447205,3.5007081031799316,0.01839808188378811,-0.15954460203647614,0.24360832571983337,-0.536385178565979,0.043425917625427246,0.0429413840174675,-0.04165203496813774,0.4744094908237457,0.21747416257858276,0.001717191655188799,0.06890223920345306,-0.16532015800476074,-0.4780231714248657,0.9424934387207031,-0.8000003099441528,1.0063632726669312,0.32381075620651245,1.464726209640503,4.1224164962768555,11.357104301452637,-3.7307231426239014,1.3652645349502563,2.6806440353393555,-16.797327041625977,-0.0017036854987964034,3.693488597869873,-7.944113254547119,-24.88290786743164,7.502546310424805,30.0,-17.467817306518555,17.51747703552246,25.655794143676758,-7.258979797363281,-30.0
1.24,3.5,0.0,0.0,3.1521100997924805,0.7841405868530273,0.8353815078735352,3.493798017501831,0.009916109964251518,-0.16571515798568726,0.22587290406227112,0.15685638785362244,-0.04552792012691498,-0.030414946377277374,-0.07579610496759415,0.3925965130329132,0.5149917602539062,-0.10136337578296661,0.01227643620222807,-0.1559291034936905,-0.43223440647125244,0.8312860131263733,-0.3719205856323242,-5.2508111000061035,-2.38506817817688,-6.1002349853515625,17.430973052978516,-4.649734973907471,-2.4376540184020996,-0.08621181547641754,4.938275337219238,-0.7465378046035767,-7.9639105796813965,-20.140850067138672,30.159944534301758,-63.0374755859375,-11.601387023925781,-0.6373481750488281,-24.11028480529785,4.337643146514893,57.10530090332031,-56.49078369140625,30.0
1.26,3.5,0.0,0.0,3.22133469581604,0.801399827003479,0.8390167951583862,3.507534980773926,-0.005914386361837387,0.48251622915267944,-1.0888538360595703,-0.9102827906608582,0.003679873188957572,-0.09898612648248672,-0.056508868932724,0.3690392076969147,0.5666841268539429,-0.7851366996765137,0.007140729576349258,-0.14137504994869232,-0.2732177674770355,0.7700971961021423,-0.4903719425201416,-3.1137335300445557,2.8711960315704346,-0.13285571336746216,-5.934110164642334,-23.780498504638672,-0.4427580237388611,1.6976689100265503,9.153877258300781,-6.494287490844727,3.160688877105713,-20.198116302490234,53.11399841308594,-126.90040588378906,-61.5694465637207,-6.663665771484375,-21.14137077331543,140.67857360839844,115.0752944946289,-123.24458312988281,30.0
1.28,3.5,0.0,0.0,3.289719820022583,0.8179538249969482,0.8468544483184814,3.491137742996216,0.00602363096550107,0.25694578886032104,-0.6257853507995605,0.10019455850124359,0.046720102429389954,-0.18718193471431732,-0.03888477385044098,0.3442654013633728,0.4248243570327759,-0.7999682426452637,-0.05872997269034386,-0.12216653674840927,-0.21663224697113037,0.8318056464195251,-0.38484030961990356,-4.004293918609619,-0.3269246220588684,-1.6621729135513306,-6.784487724304199,-0.003425552975386381,-5.002274990081787,0.4899837076663971,-0.1807156503200531,6.9036126136779785,10.058074951171875,45.38235092163086,-79.73653411865234,-4.744707107543945,-1.15411376953125,-30.0,-14.764341354370117,69.52362060546875,1.7867069244384766,29.17093276977539,30.0
1.3,3.5,0.0,0.0,3.355940341949463,0.8355528712272644,0.8511252999305725,3.4842517375946045,0.003913385793566704,0.1434670388698578,0.1000150740146637,0.783781886100769,0.03091958910226822,-0.22521448135375977,-0.048002030700445175,0.30652058124542236,0.30775970220565796,-0.8000171184539795,-0.10663825273513794,-0.12772640585899353,-0.28474220633506775,1.0156042575836182,-0.05660863593220711,-0.43654218316078186,-0.8827918171882629,-1.613037347793579,-5.397817611694336,-0.02487638033926487,-1.0976618528366089,-0.5723626613616943,-5.4190473556518555,10.469381332397461,21.537914276123047,28.3916015625,-57.82869338989258,58.112091064453125,19.52573013305664,-30.0,8.880179405212402,50.54847717285156,-66.88127136230469,-25.803661346435547,30.0
1.32,3.5,0.0,0.0,3.4219985008239746,0.8538098931312561,0.8520837426185608,3.477869987487793,-0.005061278119683266,-0.0005728695541620255,0.3488418161869049,0.4481574594974518,0.010810044594109058,-0.166575089097023,-0.053075697273015976,0.3045995533466339,0.19568657875061035,-0.8000388145446777,-0.08555387705564499,-0.1389373540878296,-0.369281530380249,1.151960015296936,-0.06336017698049545,4.097097873687744,-0.269605427980423,0.7847774028778076,-5.2267279624938965,0.0005572464433498681,1.973713755607605,-0.5079778432846069,-4.20357608795166,3.8774445056915283,-0.7505447268486023,5.999296188354492,-19.140336990356445,69.11688995361328,24.346128463745117,-30.0,16.02198028564453,17.310638427734375,-70.33721923828125,-38.10422897338867,-2.976785659790039
1.34,3.5,0.0,0.0,3.48817777633667,0.8721742630004883,0.8490828275680542,3.476848840713501,-0.0019426924409344792,-0.18399640917778015,0.40417420864105225,0.4516593813896179,-0.07726900279521942,-0.06425628066062927,-0.057165421545505524,0.3336245119571686,0.08308123052120209,-0.45278263092041016,-0.0011397609487175941,-0.1535765677690506,-0.44797760248184204,1.2328941822052002,-0.7083435654640198,5.25365686416626,-0.32596734166145325,1.8058571815490723,-4.8308491706848145,16.620567321777344,5.322449684143066,-0.9043658375740051,-4.040623188018799,2.3442957401275635,-31.63314437866211,1.194915771484375,-11.77559757232666,49.33338165283203,18.20272445678711,1.2266387939453125,15.761388778686523,11.902535438537598,-50.95600509643555,-25.6193790435791,-1.7466888427734375
1.36,3.5,0.0,0.0,3.5550878047943115,0.8904097676277161,0.8443113565444946,3.4995481967926025,-0.010602714493870735,-0.1874193251132965,0.4298197627067566,-0.0023044245317578316,-0.11580506712198257,-0.010445388965308666,-0.05942964553833008,0.37724363803863525,0.1365271508693695,-0.29844921827316284,0.0868120864033699,-0.17111274600028992,-0.49840861558914185,1.1577203273773193,-0.7999998927116394,2.1565725803375244,-0.07189155369997025,3.0725748538970947,2.924996852874756,6.217673301696777,3.6906955242156982,-0.737167477607727,-1.8662720918655396,-6.056023120880127,2.6925063139060512e-06,13.914936065673828,-37.83626174926758,-0.27831077575683594,-4.300095558166504,30.0,-1.3794937133789062,18.40441131591797,-10.208459854125977,-10.807502746582031,-30.0
1.3800000000000001,3.5,0.0,0.0,3.623514175415039,0.9093698263168335,0.8394206762313843,3.4953391551971436,0.01235407218337059,-0.22491565346717834,0.38219794631004333,-0.7613686323165894,-0.02461508847773075,0.025433823466300964,-0.058075640350580215,0.434238076210022,0.20389534533023834,-0.15389737486839294,0.07303763926029205,-0.16950097680091858,-0.4858078062534332,0.9215422868728638,-0.8000002503395081,1.3823240995407104,0.10330506414175034,2.2584190368652344,4.425126552581787,8.870438575744629,-3.3618617057800293,0.8177157044410706,1.9595463275909424,-14.48299789428711,-0.00015452122897841036,4.959569931030273,-11.546685218811035,-22.421743392944336,9.433650970458984,30.0,-18.026220321655273,6.999889373779297,26.997089385986328,-0.5087051391601562,-30.0
1.4000000000000001,3.5,0.0,0.0,3.691441059112549,0.9276548624038696,0.8333362340927124,3.4760823249816895,0.016126723960042,-0.2502731382846832,0.17013302445411682,-0.15954993665218353,-0.23586109280586243,-0.03356459364295006,-0.08494791388511658,0.36133983731269836,0.4450497031211853,-0.07667345553636551,0.018761126324534416,-0.15973585844039917,-0.4519348740577698,0.8237962126731873,-0.3755844235420227,-4.733391761779785,-1.9973257780075073,-6.464383125305176,16.020021438598633,4.190346717834473,-1.6710102558135986,-0.12536723911762238,3.6243183612823486,3.0186562538146973,-6.6194281578063965,-19.11225128173828,30.149110794067383,-48.53820037841797,1.938568115234375,0.6024589538574219,-22.109275817871094,6.543935775756836,52.75613784790039,-61.38747787475586,30.0
1.42,3.5,0.0,0.0,3.7607991695404053,0.9448676705360413,0.8356626033782959,3.485614061355591,-0.015453421510756016,0.4158211350440979,-0.7940137982368469,-1.1155917644500732,0.006632838398218155,-0.10427249222993851,-0.07291380316019058,0.3357667326927185,0.49714991450309753,-0.781600832939148,0.019561918452382088,-0.14910385012626648,-0.3055591285228729,0.7987195253372192,-0.48443323373794556,-3.5085341930389404,2.2198822498321533,0.04368653893470764,-5.178468227386475,-29.441246032714844,-0.18988996744155884,1.364328145980835,9.007686614990234,-5.454026222229004,2.302788019180298,-20.07135772705078,54.18330383300781,-89.62913513183594,-47.9782829284668,-5.4730682373046875,-9.882953643798828,148.2345428466797,71.46739196777344,-168.2685546875,30.0
1.44,3.5,0.0,0.0,3.8291454315185547,0.9611175060272217,0.8424158692359924,3.4727447032928467,0.013380181044340134,0.18497946858406067,-0.7079405188560486,-0.007321683689951897,0.06951294094324112,-0.1713126003742218,-0.04657696560025215,0.3084872364997864,0.38822221755981445,-0.7999626398086548,-0.042915020138025284,-0.12886524200439453,-0.2514176368713379,0.8668485879898071,-0.39325934648513794,-2.4358363151550293,0.5119226574897766,-1.8368916511535645,-4.649970531463623,-0.0017235884442925453,-4.902517795562744,0.724283754825592,-0.35275936126708984,7.038312911987305,9.025493621826172,43.175453186035156,-83.94158935546875,7.66693639755249,4.094089508056641,-30.0,-12.085391998291016,88.37621307373047,-14.562339782714844,19.203981399536133,30.0
1.46,3.5,0.0,0.0,3.895301580429077,0.9782794117927551,0.8456782102584839,3.4811489582061768,0.012814578600227833,0.07489408552646637,0.039815180003643036,0.8580685257911682,0.019085541367530823,-0.17682382464408875,-0.04634997993707657,0.26606422662734985,0.30646130442619324,-0.800007700920105,-0.08496467769145966,-0.13025067746639252,-0.32417362928390503,1.0605220794677734,-0.06244371086359024,1.1133038997650146,-0.7060471773147583,-1.9424941539764404,-3.878969430923462,-0.0211854949593544,-0.7495307326316833,-0.3823489546775818,-5.735739707946777,10.862504005432129,21.909887313842773,28.296106338500977,-66.34902954101562,53.86893844604492,16.93806266784668,-30.0,10.459739685058594,58.572265625,-68.41410827636719,-28.47757339477539,30.0
1.48,3.5,0.0,0.0,3.9616949558258057,0.9962545037269592,0.8460004329681396,3.4988467693328857,-0.01575555093586445,-0.04880883917212486,0.4451320171356201,0.3767104744911194,0.10758717358112335,-0.10841814428567886,-0.05480878800153732,0.27110666036605835,0.2694951593875885,-0.7859372496604919,-0.054540231823921204,-0.14248663187026978,-0.4069136381149292,1.2037036418914795,-0.13886260986328125,4.081451416015625,-0.5137172341346741,1.949262022972107,-2.3986287117004395,0.3164558410644531,2.557485818862915,-0.7678014636039734,-3.942655086517334,4.0227766036987305,-4.113134384155273,5.478507995605469,-19.736284255981445,55.81930160522461,6.6843695640563965,30.0,17.16606330871582,12.72751235961914,-65.83428192138672,-37.777320861816406,-2.913097381591797
1.5,3.5,0.0,0.0,4.02879524230957,1.0145682096481323,0.8432325720787048,3.5082497596740723,-0.016180848702788353,-0.16537903249263763,0.5164492130279541,0.053127970546483994,0.062300071120262146,-0.01077329646795988,-0.05409868434071541,0.3327811658382416,0.2354842573404312,-0.34744513034820557,0.04790119081735611,-0.1687428057193756,-0.47348156571388245,1.282482624053955,-0.6902433037757874,4.8441901206970215,0.6344849467277527,4.749321460723877,-0.4480803906917572,7.451614856719971,6.324695110321045,-1.6378353834152222,-3.0782582759857178,2.5723717212677,-26.8887882232666,4.702857971191406,-21.584875106811523,36.30372619628906,-4.86549186706543,30.0,16.185985565185547,1.3614654541015625,-44.52162551879883,-19.29931640625,-1.301849365234375
1.52,3.5,0.0,0.0,4.096918106079102,1.03321373462677,0.8400450944900513,3.5226428508758545,-0.020966457203030586,-0.15834607183933258,0.5568628907203674,-0.16036011278629303,-0.01672007516026497,0.06350048631429672,-0.03962627798318863,0.4171115458011627,0.23564322292804718,-0.17961101233959198,0.13911230862140656,-0.1971530169248581,-0.49496129155158997,1.1724815368652344,-0.7999999523162842,2.9532999992370605,0.7347314357757568,3.567824125289917,0.69441819190979,9.722681999206543,3.3197031021118164,-0.9860710501670837,-0.21236170828342438,-9.249380111694336,-0.004855808336287737,6.953081130981445,-30.526527404785156,0.5816898345947266,11.33148193359375,30.0,-5.258068084716797,24.62242889404297,-6.901723861694336,-19.676570892333984,-30.0
1.54,3.5,0.0,0.0,4.165450572967529,1.0517141819000244,0.836466372013092,3.5147852897644043,-0.018149876967072487,-0.2567990720272064,0.190862774848938,-0.38728681206703186,-0.11714540421962738,0.07984328269958496,-0.03240395709872246,0.4299294054508209,0.35219642519950867,0.10118486732244492,0.09727072715759277,-0.189462810754776,-0.47098642587661743,0.8933464884757996,-0.6074908375740051,-0.019625812768936157,0.09254255890846252,-0.7303124666213989,7.114008903503418,40.849403381347656,-5.6650071144104,1.7117869853973389,2.825700521469116,-14.845962524414062,-49.9993896484375,0.5963456630706787,-4.424436569213867,-26.881832122802734,21.180477142333984,-30.0,-21.21375846862793,18.3333740234375,32.91960906982422,0.28497314453125,-18.785850524902344
1.56,3.5,0.0,0.0,4.232922077178955,1.0690803527832031,0.8319188356399536,3.5055956840515137,0.000699552649166435,-0.11664731055498123,-0.16120679676532745,0.5051172375679016,0.017401384189724922,0.0012402852298691869,-0.06054212898015976,0.3396781384944916,0.6603565216064453,-0.14375564455986023,0.04386647045612335,-0.16804605722427368,-0.43091562390327454,0.8292653560638428,-0.40921586751937866,-5.471790313720703,-1.8682610988616943,-5.965528964996338,15.459124565124512,-11.768261909484863,1.274376392364502,0.18146103620529175,4.485607624053955,-0.9906399250030518,2.567532539367676,-14.790046691894531,17.683727264404297,-67.82975006103516,-18.294048309326172,-1.9746322631835938,-19.519895553588867,53.87904357910156,38.25296401977539,-58.6328125,30.0
1.58,3.5,0.0,0.0,4.302520275115967,1.0859431028366089,0.8366260528564453,3.4951250553131104,-0.015652265399694443,0.5022978186607361,-1.1524075269699097,-1.3504843711853027,0.047108352184295654,-0.07674819231033325,-0.04609837010502815,0.3431668281555176,0.6327740550041199,-0.7998225688934326,0.042236216366291046,-0.14581270515918732,-0.28016167879104614,0.7863736152648926,-0.49589186906814575,-3.4646992683410645,2.2551112174987793,1.7341639995574951,-11.884026527404785,-0.027304958552122116,-0.021758079528808594,1.9824632406234741,9.6884765625,-6.195631980895996,2.160123348236084,-12.860309600830078,38.41550064086914,-120.94159698486328,-62.33119583129883,-6.6138458251953125,-17.993650436401367,135.50657653808594,109.93785858154297,-112.56901550292969,30.0
1.6,3.5,0.0,0.0,4.371140480041504,1.1022182703018188,0.844860851764679,3.49605655670166,-0.00041791494004428387,0.25822392106056213,-0.827324390411377,0.14310593903064728,-0.027673156931996346,-0.17718544602394104,-0.040994394570589066,0.3303866684436798,0.4552531838417053,-0.7999652624130249,-0.02691476419568062,-0.11937236785888672,-0.21982286870479584,0.8419179916381836,-0.40035319328308105,-4.76702356338501,-0.8284889459609985,-1.5658372640609741,-7.542481899261475,-0.003052099607884884,-5.504610538482666,0.8793923854827881,-0.09834428131580353,6.353145599365234,9.122641563415527,43.76005554199219,-77.60762023925781,-3.429007053375244,2.0647735595703125,-30.0,-16.000385284423828,75.58221435546875,-5.654658317565918,22.434734344482422,30.0
1.62,3.5,0.0,0.0,4.437496662139893,1.1193615198135376,0.8494330644607544,3.4844460487365723,-0.005147627554833889,0.13585591316223145,-0.04144153371453285,0.7682692408561707,0.01615533046424389,-0.22102895379066467,-0.05410396307706833,0.2991484999656677,0.3162597119808197,-0.800020158290863,-0.08778086304664612,-0.11922148615121841,-0.28746432065963745,1.0266016721725464,-0.07754824310541153,-0.4872831106185913,-0.9762863516807556,-1.1900830268859863,-6.559633731842041,-0.03106905333697796,-1.7520188093185425,-0.37820369005203247,-5.427978038787842,10.616300582885742,21.239530563354492,27.212270736694336,-54.642356872558594,59.45284652709961,20.062671661376953,-30.0,8.62906265258789,41.210506439208984,-67.44475555419922,-25.474132537841797,30.0
1.6400000000000001,3.5,0.0,0.0,4.503613471984863,1.1371983289718628,0.8506272435188293,3.4751298427581787,-0.01667342148721218,-0.0214463509619236,0.2804923355579376,0.5055991411209106,-0.03301715478301048,-0.1631033718585968,-0.059934619814157486,0.30026793479919434,0.1988658457994461,-0.761354386806488,-0.07505567371845245,-0.12716297805309296,-0.37258273363113403,1.166136622428894,-0.10320180654525757,4.080010414123535,-0.30436646938323975,0.2977997958660126,-0.7322714328765869,-38.21510314941406,1.7063390016555786,-0.4748415946960449,-4.314193248748779,4.0604634284973145,-1.7289173603057861,4.33452033996582,-16.22968864440918,68.9852294921875,24.921525955200195,-30.0,15.970345497131348,13.196564674377441,-69.89857482910156,-38.33375930786133,-3.003392219543457
1.6600000000000001,3.5,0.0,0.0,4.570001125335693,1.1554267406463623,0.8481640219688416,3.4865450859069824,-0.011820364743471146,-0.13931283354759216,0.4559960961341858,0.09462956339120865,0.08210902661085129,-0.059334106743335724,-0.061025381088256836,0.33927223086357117,0.1493886411190033,-0.32158517837524414,0.009738116525113583,-0.148264080286026,-0.4544048607349396,1.2571386098861694,-0.7035722732543945,4.962049961090088,0.3207755386829376,4.346865653991699,-0.2477320432662964,6.183890342712402,5.417041778564453,-1.436083197593689,-4.006222248077393,3.174276351928711,-29.34066390991211,13.496522903442383,-25.391359329223633,56.62860870361328,-20.004709243774414,30.0,17.570709228515625,-0.4903683662414551,-59.7392578125,-23.587480545043945,-1.62255859375
1.68,3.5,0.0,0.0,4.637577056884766,1.1741018295288086,0.8449039459228516,3.4990789890289307,-0.023344656452536583,-0.15274645388126373,0.5879877209663391,-0.14350704848766327,0.030401254072785378,0.011449414305388927,-0.05488106235861778,0.42471325397491455,0.1520063877105713,-0.17258858680725098,0.09902960807085037,-0.17938080430030823,-0.49998199939727783,1.1817768812179565,-0.7999998927116394,2.62489652633667,0.2149205505847931,3.9177162647247314,-0.11630619317293167,9.940595626831055,3.756369113922119,-1.4214742183685303,-1.5664138793945312,-6.658380508422852,-1.630098995519802e-05,5.631431579589844,-35.21089553833008,2.077098846435547,15.444354057312012,30.0,-1.9647026062011719,18.625349044799805,-8.807164192199707,-14.635717391967773,-30.0
1.7,3.5,0.0,0.0,4.706174373626709,1.193013310432434,0.8418612480163574,3.504030227661133,0.005196374841034412,-0.16109561920166016,0.09477828443050385,-0.7211014628410339,0.08385080844163895,0.039698269218206406,-0.049007661640644073,0.47429051995277405,0.20909838378429413,0.031163297593593597,0.07791241258382797,-0.1785191148519516,-0.47839319705963135,0.9101772308349609,-0.8000002503395081,0.7661172151565552,0.43707075715065,1.3957457542419434,4.474547386169434,11.565191268920898,-4.05130672454834,1.3508391380310059,2.5514349937438965,-16.96533966064453,0.0006291444879025221,3.4147109985351562,-7.854220867156982,-30.86487579345703,5.0748138427734375,30.0,-18.602130889892578,21.19827651977539,31.474735260009766,-3.205352783203125,-30.0
1.72,3.5,0.0,0.0,4.773866653442383,1.211082935333252,0.8380167484283447,3.4845056533813477,-0.002348392503336072,-0.14571473002433777,0.12680493295192719,-0.046493254601955414,-0.02985280565917492,-0.04486668109893799,-0.08353716135025024,0.3886314630508423,0.5217775702476501,-0.10918644070625305,0.01290521677583456,-0.1594434678554535,-0.4472147226333618,0.7892497777938843,-0.3319212794303894,-5.622176170349121,-2.4759955406188965,-5.91848087310791,17.525026321411133,-6.385066509246826,-0.4685707092285156,-0.21981969475746155,5.121735572814941,-1.6323392391204834,-0.5014257431030273,-18.1932373046875,27.669452667236328,-64.45588684082031,-14.815841674804688,-1.064666748046875,-16.207565307617188,2.178516387939453,54.47125244140625,-24.502124786376953,30.0
1.74,3.5,0.0,0.0,4.842896461486816,1.2286380529403687,0.8418138027191162,3.5008738040924072,-0.02115989662706852,0.4194994270801544,-0.9032477140426636,-0.7868152856826782,0.02188614383339882,-0.10974320024251938,-0.06754675507545471,0.3688287138938904,0.5666064620018005,-0.7555400729179382,0.009692369028925896,-0.1468074917793274,-0.3070303499698639,0.7626354098320007,-0.442438006401062,-2.6513218879699707,2.635143280029297,-0.12443822622299194,-5.361827850341797,-32.21196746826172,-0.06423249840736389,1.4285600185394287,8.404682159423828,-4.811931610107422,0.6370555758476257,-15.185087203979492,48.01594924926758,-122.55551147460938,-61.5513801574707,-6.3997802734375,-16.219758987426758,121.90509796142578,106.22351837158203,-102.43427276611328,30.0
1.76,3.5,0.0,0.0,4.910924911499023,1.2456328868865967,0.8489795923233032,3.4862000942230225,-0.00770639069378376,0.21100296080112457,-0.5376645922660828,0.15085813403129578,0.038063813000917435,-0.18050900101661682,-0.04674653708934784,0.34879636764526367,0.41304704546928406,-0.7998583316802979,-0.04670588672161102,-0.12802891433238983,-0.25505542755126953,0.8314771056175232,-0.3619205057621002,-3.0622429847717285,0.012645507231354713,-1.4620285034179688,-7.558289527893066,-0.002952028065919876,-4.556405544281006,0.5975157022476196,-0.24188365042209625,6.766392707824707,8.43537712097168,40.95414733886719,-70.90899658203125,-9.05698013305664,-2.4740867614746094,-30.0,-13.004011154174805,64.32962036132812,4.710713863372803,28.661014556884766,30.0
1.78,3.5,0.0,0.0,4.97684907913208,1.2634217739105225,0.8526670336723328,3.479297399520874,-0.005534699186682701,0.10845443606376648,0.0389692485332489,0.8635210394859314,0.024252722039818764,-0.20294030010700226,-0.0480395182967186,0.31434282660484314,0.28008735179901123,-0.8000075817108154,-0.08954305946826935,-0.1303129345178604,-0.32143646478652954,1.016072392463684,-0.0607876256108284,0.16885703802108765,-0.440509557723999,-1.5212117433547974,-6.163818359375,-0.0155006293207407,-1.104239821434021,-0.34432458877563477,-5.2073073387146,10.0075101852417,20.962081909179688,25.082311630249023,-52.19251251220703,53.6737060546875,18.333271026611328,-30.0,9.287839889526367,51.805904388427734,-62.14142990112305,-28.14511489868164,30.0
1.8,3.5,0.0,0.0,5.042502403259277,1.2817084789276123,0.8531976938247681,3.470050573348999,-0.010490722954273224,-0.01581050455570221,0.22120527923107147,0.5543465614318848,-0.0036002041306346655,-0.1443796455860138,-0.04882493615150452,0.30527377128601074,0.1757061928510666,-0.7798683643341064,-0.07196330279111862,-0.13652656972408295,-0.40128782391548157,1.143188238143921,-0.13363562524318695,3.782249689102173,0.024034015834331512,-0.30040669441223145,-0.4610852301120758,2.573141098022461,1.719556450843811,-0.15780514478683472,-3.887117862701416,3.238300085067749,-3.9436910152435303,5.45567512512207,-18.920684814453125,68.06768035888672,24.639076232910156,-30.0,15.845030784606934,19.76419448852539,-68.57524108886719,-38.72132110595703,-3.024993896484375
1.82,3.5,0.0,0.0,5.108659744262695,1.3002439737319946,0.8502910137176514,3.4914305210113525,-0.009977294132113457,-0.14005358517169952,0.34435561299324036,0.17998316884040833,0.029488511383533478,-0.0563679002225399,-0.049878478050231934,0.33653655648231506,0.13795223832130432,-0.30543285608291626,0.011331804096698761,-0.1494331657886505,-0.4703640937805176,1.21481454372406,-0.7745984792709351,3.9926090240478516,0.2641252279281616,3.8939385414123535,0.08396866917610168,6.098458290100098,5.294600486755371,-0.8323683142662048,-3.262514352798462,2.1600916385650635,-31.362140655517578,11.529117584228516,-28.426185607910156,45.910728454589844,-31.154773712158203,30.0,16.03973388671875,7.108565330505371,-50.377464294433594,-21.699275970458984,-1.4059906005859375
1.84,3.5,0.0,0.0,5.1761627197265625,1.3193159103393555,0.8465859293937683,3.502087354660034,-0.014175928197801113,-0.15813606977462769,0.5530409216880798,-0.2026943862438202,-0.010249931365251541,0.0034380722790956497,-0.046389780938625336,0.421813428401947,0.13837586343288422,-0.15970368683338165,0.08794897794723511,-0.16791611909866333,-0.5046585202217102,1.1326428651809692,-0.800000011920929,2.502465009689331,0.15484672784805298,4.020063877105713,0.07232877612113953,9.02181339263916,2.875657796859741,-0.8163661360740662,-0.9662615060806274,-6.319091320037842,-0.004081155173480511,8.554774284362793,-33.46949768066406,-3.882854461669922,7.960577011108398,30.0,-5.136199951171875,13.492420196533203,-0.3137516975402832,-9.131595611572266,-30.0
1.86,3.5,0.0,0.0,5.244581699371338,1.3388643264770508,0.8428802490234375,3.4999165534973145,0.017228620126843452,-0.1807658076286316,0.2189711332321167,-0.6879431009292603,0.12578052282333374,0.02780827507376671,-0.04520954191684723,0.4689391851425171,0.20231066644191742,0.030905932188034058,0.0600338876247406,-0.1629616767168045,-0.47671398520469666,0.888023316860199,-0.768298864364624,0.54803466796875,0.10709923505783081,1.117540717124939,5.114071846008301,10.720874786376953,-2.6944777965545654,0.5909000635147095,1.7729074954986572,-9.291389465332031,33.8122673034668,0.3825652599334717,-0.8160472512245178,-30.461868286132812,6.702413558959961,30.0,-18.206897735595703,6.045800685882568,33.59986114501953,0.49369049072265625,-30.0
1.8800000000000001,3.5,0.0,0.0,5.312436103820801,1.3571499586105347,0.8401262760162354,3.4959723949432373,0.021080905571579933,0.013757696375250816,-0.3702590763568878,0.18878169357776642,-0.32360097765922546,-0.023856520652770996,-0.05539875477552414,0.3754071295261383,0.4784199297428131,-0.1978689581155777,0.02899702824652195,-0.14718274772167206,-0.4231446087360382,0.7870155572891235,-0.35819211602211,-4.0462188720703125,-0.5177199840545654,-7.551287651062012,16.79447364807129,-10.606269836425781,3.3468332290649414,0.24578706920146942,5.672893047332764,-0.21971863508224487,-2.6506786346435547,-31.784793853759766,50.69268798828125,-75.37545013427734,-9.68402099609375,-0.4002113342285156,-16.88845443725586,28.427255630493164,56.18656921386719,-90.20399475097656,30.0
1.9000000000000001,3.5,0.0,0.0,5.382093906402588,1.374751091003418,0.8455445766448975,3.4836361408233643,-0.016624711453914642,0.4291638135910034,-0.8555805683135986,-1.4421467781066895,0.010045479983091354,-0.09899262338876724,-0.039244867861270905,0.3657873272895813,0.45779839158058167,-0.7994251251220703,0.03040352836251259,-0.12896806001663208,-0.2618929147720337,0.7380212545394897,-0.46091970801353455,-3.8576807975769043,1.7124372720718384,1.3188270330429077,-10.439981460571289,-0.0033630728721618652,0.42280060052871704,1.491915225982666,9.977395057678223,-6.435758590698242,2.083895683288574,-12.738336563110352,30.652755737304688,-82.10943603515625,-43.40559387207031,-30.0,-5.987234115600586,106.20668029785156,73.09432983398438,-95.12181091308594,30.0
1.92,3.5,0.0,0.0,5.450006484985352,1.3917829990386963,0.852550208568573,3.4843194484710693,0.012256665155291557,0.18367137014865875,-0.5752010941505432,0.32671043276786804,0.0466173030436039,-0.1879483163356781,-0.03172488510608673,0.32979321479797363,0.3402080535888672,-0.7999698519706726,-0.028843961656093597,-0.10957548767328262,-0.21878251433372498,0.8199763298034668,-0.35312387347221375,-3.6314706802368164,-0.47750914096832275,-2.8062493801116943,-4.300784587860107,-0.0073038144037127495,-4.892050743103027,0.5636297464370728,-1.505619764328003,8.43106746673584,9.222627639770508,46.64702606201172,-86.86721801757812,6.756056785583496,4.619297027587891,-30.0,-13.246015548706055,81.7485122680664,-19.231779098510742,21.16646957397461,30.0
1.94,3.5,0.0,0.0,5.515667915344238,1.4098345041275024,0.8560567498207092,3.4776906967163086,0.0017452524043619633,0.09202364087104797,0.2977457642555237,0.8717871308326721,0.033426690846681595,-0.19652512669563293,-0.040826208889484406,0.2751028537750244,0.2625410258769989,-0.8000130653381348,-0.06668035686016083,-0.11483172327280045,-0.3023271858692169,1.0218876600265503,-0.009865595027804375,1.3785154819488525,-0.9907075762748718,-2.3293373584747314,-3.6799240112304688,-0.009035556577146053,-0.6323469877243042,-0.6147062182426453,-6.006867408752441,10.901334762573242,22.548337936401367,26.932283401489258,-59.685855865478516,59.55938720703125,19.345443725585938,-30.0,9.333707809448242,45.227230072021484,-70.23287963867188,-30.3867130279541,30.0
1.96,3.5,0.0,0.0,5.581514835357666,1.428670883178711,0.8566974401473999,3.492807626724243,-0.019622478634119034,-0.048419199883937836,0.7282267808914185,0.4660142958164215,0.020421136170625687,-0.12136945873498917,-0.05534276366233826,0.25897660851478577,0.22074729204177856,-0.7276527881622314,-0.03510084003210068,-0.1295594573020935,-0.38964903354644775,1.1667364835739136,-0.15379121899604797,4.882367134094238,-1.076364278793335,1.1390981674194336,-3.0593082904815674,-44.324180603027344,2.513751745223999,-1.004225492477417,-4.020992755889893,3.9651663303375244,-7.427120685577393,3.7104015350341797,-14.675463676452637,54.641719818115234,14.900333404541016,30.0,14.420530319213867,12.793386459350586,-60.08720016479492,-37.11115264892578,-2.649066925048828
1.98,3.5,0.0,0.0,5.648038387298584,1.447899341583252,0.8539441227912903,3.4997918605804443,-0.004838665947318077,-0.1516938954591751,0.6972688436508179,-0.0005896230577491224,0.042350880801677704,-0.013012640178203583,-0.06496386229991913,0.30556562542915344,0.17010237276554108,-0.3190315365791321,0.05921652168035507,-0.15853402018547058,-0.4641701281070709,1.2571731805801392,-0.7119991183280945,5.468994617462158,0.20997075736522675,4.75955867767334,-0.48929280042648315,4.970539093017578,5.6898112297058105,-1.7558729648590088,-3.511178970336914,3.6296629905700684,-27.115398406982422,14.642887115478516,-20.634536743164062,45.291934967041016,-13.976451873779297,30.0,14.640361785888672,-2.389542579650879,-47.969017028808594,-16.556015014648438,-1.0856170654296875
2.0,3.5,0.0,0.0,5.7159037590026855,1.46736478805542,0.8508051037788391,3.510251760482788,-0.013990180566906929,-0.1485331803560257,0.6120913624763489,-0.26980647444725037,0.0318153090775013,0.0538078211247921,-0.06067229434847832,0.3968104124069214,0.1718824952840805,-0.18192477524280548,0.14238400757312775,-0.1852673441171646,-0.49544036388397217,1.1727359294891357,-0.800000011920929,2.154649019241333,0.19203856587409973,4.149140357971191,-0.08910822123289108,9.419229507446289,3.119692087173462,-0.7748278975486755,-0.7316786050796509,-7.734596252441406,0.0014915280044078827,4.54132080078125,-35.481075286865234,0.7933750152587891,15.11153507232666,30.0,-2.7440710067749023,29.931339263916016,-8.252900123596191,-19.238704681396484,-30.0
2.02,3.5,0.0,0.0,5.784547805786133,1.4868342876434326,0.8478912711143494,3.5094032287597656,0.012553399428725243,-0.17382046580314636,0.144072026014328,-0.6932006478309631,0.1118510365486145,0.07010883837938309,-0.057231586426496506,0.43545761704444885,0.2525486648082733,0.008195925503969193,0.09838967770338058,-0.17132870852947235,-0.46658045053482056,0.8862618207931519,-0.8000001907348633,0.1848309189081192,0.28049546480178833,0.5718340277671814,6.153051853179932,10.77638053894043,-5.483021259307861,1.9744786024093628,2.744262456893921,-17.529939651489258,0.0020973391365259886,2.6971778869628906,-5.909087657928467,-27.344837188720703,10.430347442626953,30.0,-19.507381439208984,17.277109146118164,29.236465454101562,-2.609588623046875,-30.0
2.04,3.5,0.0,0.0,5.852062702178955,1.5053794384002686,0.8438652157783508,3.503589153289795,0.006722753401845694,-0.17907096445560455,-0.019621986895799637,0.253101110458374,-0.05278412997722626,-0.018212055787444115,-0.08807254582643509,0.34201979637145996,0.5511773228645325,-0.18208107352256775,0.042355120182037354,-0.15408343076705933,-0.4241430163383484,0.7575315237045288,-0.30885857343673706,-6.1765828132629395,-2.149115800857544,-6.798074245452881,17.19759178161621,-8.879855155944824,-2.0194904804229736,0.3685908019542694,4.462533473968506,-0.018358945846557617,-8.89736557006836,-20.64756202697754,31.955631256103516,-59.73613357543945,-9.214218139648438,-0.45531463623046875,-16.916608810424805,10.756338119506836,52.00953674316406,-67.17952728271484,30.0
2.06,3.5,0.0,0.0,5.921093463897705,1.5230121612548828,0.8470019698143005,3.491889715194702,-0.012645894661545753,0.39321258664131165,-1.1179322004318237,-0.9842149615287781,0.061878666281700134,-0.09906768053770065,-0.06934145838022232,0.3246152102947235,0.5701779723167419,-0.7998418211936951,0.036973048001527786,-0.13437315821647644,-0.2832633852958679,0.7284077405929565,-0.4323326349258423,-3.5448296070098877,2.691683530807495,0.8402218222618103,-9.362276077270508,-0.014661413617432117,-0.33775532245635986,1.8573477268218994,8.473466873168945,-5.06112813949585,2.1992998123168945,-13.684457778930664,45.11088562011719,-97.90679168701172,-52.72983932495117,-5.6283416748046875,-5.624833583831787,128.0010223388672,85.84210205078125,-105.06947326660156,30.0
2.08,3.5,0.0,0.0,5.988985538482666,1.5399305820465088,0.8534015417098999,3.4775607585906982,-0.0009395559900440276,0.16790995001792908,-0.6831492185592651,0.18712761998176575,0.0057268766686320305,-0.1819370985031128,-0.04731186106801033,0.30791622400283813,0.4177539348602295,-0.7999652624130249,-0.02845526672899723,-0.10922778397798538,-0.2389516532421112,0.8075971603393555,-0.35531294345855713,-3.4659767150878906,0.050187356770038605,-1.4270565509796143,-6.876996994018555,-0.0024429145269095898,-5.112802028656006,0.829131543636322,-0.6976915001869202,7.476330280303955,8.162155151367188,42.884666442871094,-81.00545501708984,-3.8780899047851562,0.14459228515625,-30.0,-12.806865692138672,74.74358367919922,-4.192035675048828,24.18376922607422,30.0
2.1,3.5,0.0,0.0,6.054795265197754,1.5577396154403687,0.8564218282699585,3.4753899574279785,0.002020625863224268,0.07208098471164703,-0.0686655044555664,0.8539993762969971,0.023809263482689857,-0.19753988087177277,-0.044897593557834625,0.2787512242794037,0.2891223728656769,-0.8000025749206543,-0.07793651521205902,-0.10807490348815918,-0.31059515476226807,1.004129409790039,-0.05746517330408096,0.7674975991249084,-0.2795291841030121,-1.2003170251846313,-6.126550197601318,-0.013845061883330345,-1.371297836303711,-0.21564608812332153,-5.4094109535217285,10.467891693115234,20.88994026184082,25.037965774536133,-55.545448303222656,51.97909927368164,17.370662689208984,-30.0,7.5304670333862305,52.79825210571289,-62.79189682006836,-29.220844268798828,30.0
2.12,3.5,0.0,0.0,6.120350360870361,1.5762388706207275,0.8562762141227722,3.479769706726074,-0.014390761964023113,-0.07903868705034256,0.3906300961971283,0.6564419269561768,-0.023274211212992668,-0.13436225056648254,-0.047153983265161514,0.27531155943870544,0.19713106751441956,-0.8017714619636536,-0.06106631085276604,-0.1151995062828064,-0.38971033692359924,1.1392344236373901,-0.14804749190807343,3.558743715286255,-0.20916898548603058,0.8618788719177246,-3.7005043029785156,-12.313963890075684,1.6035617589950562,-0.4003942012786865,-3.253082752227783,3.217241048812866,-4.856406211853027,4.910060882568359,-18.941242218017578,67.47499084472656,-7.716160774230957,30.0,14.392234802246094,14.648284912109375,-65.20138549804688,-37.45820617675781,-2.7559452056884766
2.14,3.5,0.0,0.0,6.185986518859863,1.5950794219970703,0.8520851135253906,3.4813690185546875,-0.010708600282669067,-0.21000932157039642,0.49171191453933716,0.4098445475101471,0.001721578766591847,-0.049213603138923645,-0.04800824075937271,0.3069026470184326,0.14650055766105652,-0.32926759123802185,0.02051905170083046,-0.13353650271892548,-0.46031150221824646,1.2318761348724365,-0.7510526776313782,2.8328988552093506,-0.17189165949821472,3.27321195602417,0.9092210531234741,4.644205093383789,5.272502422332764,-1.2340848445892334,-3.6739068031311035,3.8677353858947754,-29.344337463378906,10.374950408935547,-20.474123001098633,59.01420974731445,-16.269805908203125,30.0,15.473360061645508,-0.2356576919555664,-55.24467468261719,-19.46095085144043,-1.2887725830078125
2.16,3.5,0.0,0.0,6.252810955047607,1.6146156787872314,0.8468924760818481,3.4967432022094727,-0.013685942627489567,-0.2110210508108139,0.7838925123214722,-0.024547554552555084,0.01891523227095604,0.006998284719884396,-0.05234622582793236,0.39389532804489136,0.14535516500473022,-0.2184617817401886,0.09724906086921692,-0.16209545731544495,-0.4978846609592438,1.1693696975708008,-0.7999999523162842,2.875223159790039,-0.0487208366394043,4.379348278045654,-0.2613377571105957,6.350168228149414,2.9060544967651367,-1.3822190761566162,-1.1712249517440796,-5.894747257232666,-0.007040972821414471,8.512746810913086,-33.270015716552734,6.2680206298828125,11.854952812194824,30.0,-3.1115283966064453,12.925355911254883,-12.214778900146484,-16.072101593017578,-30.0
2.18,3.5,0.0,0.0,6.320621013641357,1.6346027851104736,0.8417308330535889,3.4928245544433594,0.008944766595959663,-0.22467570006847382,0.4107547402381897,-0.5929340720176697,0.023322410881519318,0.04078075662255287,-0.05310793220996857,0.45490553975105286,0.19155298173427582,-0.05709894374012947,0.07625465840101242,-0.16681493818759918,-0.47159042954444885,0.9262180328369141,-0.8000002503395081,1.0668877363204956,0.07551055401563644,1.9531896114349365,4.205377101898193,9.160186767578125,-3.48201060295105,0.7534136772155762,2.6732017993927,-15.202643394470215,-7.61506671551615e-05,1.7463021278381348,-5.023684978485107,-22.972660064697266,11.946636199951172,30.0,-15.437453269958496,14.002120018005371,26.025774002075195,-3.8261871337890625,-30.0
2.2,3.5,0.0,0.0,6.387665748596191,1.653735876083374,0.835432231426239,3.4851276874542236,0.004770220723003149,-0.24409839510917664,0.24418923258781433,0.13976742327213287,-0.09269324690103531,-0.029914487153291702,-0.0853177160024643,0.38026973605155945,0.4965851306915283,-0.04538218677043915,0.0077023133635520935,-0.15867680311203003,-0.42567116022109985,0.8115736842155457,-0.3947947919368744,-5.00884485244751,-2.1065900325775146,-5.736647605895996,17.895734786987305,0.8670753240585327,-1.6805044412612915,-0.3635599613189697,4.327061176300049,2.258392333984375,-7.23594856262207,-18.70053482055664,31.838598251342773,-60.49835968017578,-12.338478088378906,-0.7685449123382568,-21.74342918395996,7.271101951599121,55.40180206298828,-52.45140838623047,30.0
2.22,3.5,0.0,0.0,6.456617832183838,1.671796441078186,0.838458776473999,3.497252941131592,-0.0205861646682024,0.5212088227272034,-0.9921900629997253,-1.0072715282440186,0.01911892183125019,-0.10266295075416565,-0.06812426447868347,0.3667057454586029,0.5514469146728516,-0.7383719682693481,0.005498894024640322,-0.147508904337883,-0.27567553520202637,0.7673858404159546,-0.4941293001174927,-3.4995408058166504,2.7477316856384277,0.2465064823627472,-5.2156758308410645,-34.60671615600586,-0.23047828674316406,1.6132651567459106,9.386030197143555,-6.809412002563477,3.894345760345459,-20.094520568847656,57.483497619628906,-140.09188842773438,-66.45024108886719,-7.17803955078125,-29.307050704956055,157.729736328125,126.48643493652344,-140.95567321777344,30.0
2.24,3.5,0.0,0.0,6.524929046630859,1.6889358758926392,0.8465648889541626,3.4885072708129883,-0.0018490450456738472,0.29768097400665283,-0.7548568844795227,0.08947119116783142,0.03338391333818436,-0.18630464375019073,-0.0415768139064312,0.3466307520866394,0.41612955927848816,-0.7999269962310791,-0.06935340166091919,-0.12720520794391632,-0.21711109578609467,0.8256897330284119,-0.3877120018005371,-3.563119649887085,0.3716440796852112,-1.600259780883789,-6.3195600509643555,-0.003081575036048889,-5.754571437835693,0.6268601417541504,-0.12155989557504654,6.7724385261535645,9.93881607055664,44.66049575805664,-77.32818603515625,-9.04393196105957,-1.5152359008789062,-30.0,-16.1130428314209,75.65181732177734,5.0780029296875,29.402088165283203,30.0
2.2600000000000002,3.5,0.0,0.0,6.5910186767578125,1.7070387601852417,0.8511906862258911,3.48345947265625,-0.001530173816718161,0.1856556385755539,0.008481645956635475,0.7904596924781799,0.01792251132428646,-0.22981604933738708,-0.0450475700199604,0.3107645511627197,0.30527955293655396,-0.8000187277793884,-0.12351028621196747,-0.1312277615070343,-0.28302156925201416,1.0064433813095093,-0.06419558078050613,-1.0231220722198486,-0.7592341303825378,-1.5221836566925049,-5.163012981414795,-0.02805989421904087,-1.1737864017486572,-0.507563054561615,-5.311616897583008,10.377363204956055,21.215633392333984,28.155975341796875,-58.9254264831543,58.484779357910156,19.273691177368164,-30.0,10.252004623413086,51.629817962646484,-67.43281555175781,-25.80621910095215,30.0
2.2800000000000002,3.5,0.0,0.0,6.656999111175537,1.7258321046829224,0.8525380492210388,3.4787144660949707,-0.011283425614237785,0.040320396423339844,0.254825621843338,0.41323593258857727,0.016956645995378494,-0.1803816705942154,-0.046192068606615067,0.31576550006866455,0.1864442229270935,-0.8000407814979553,-0.10518977791070938,-0.14049294590950012,-0.3644772171974182,1.1376819610595703,-0.06070437282323837,3.682525157928467,-0.054234977811574936,1.2084263563156128,-5.747830867767334,0.0003366414166521281,1.8066121339797974,-0.3750377893447876,-4.065173149108887,3.5918960571289062,-0.2627001106739044,7.188983917236328,-20.88240623474121,71.38243865966797,24.71039390563965,-30.0,16.338228225708008,19.56977653503418,-72.7830810546875,-38.950767517089844,-3.0432538986206055
2.3000000000000003,3.5,0.0,0.0,6.723075866699219,1.7446662187576294,0.8498305082321167,3.4747512340545654,-0.005612437147647142,-0.15152685344219208,0.23846028745174408,0.4087764024734497,-0.05070441588759422,-0.08680962771177292,-0.04492369294166565,0.3509373068809509,0.07130301743745804,-0.5064643621444702,-0.02434791997075081,-0.1497647911310196,-0.44436967372894287,1.2217592000961304,-0.7123314738273621,4.7943830490112305,-0.031374916434288025,2.116447687149048,-4.851920127868652,14.119071006774902,5.143486022949219,-0.5345117449760437,-4.193212985992432,2.6768958568573,-31.94935417175293,2.3764095306396484,-13.71589469909668,53.49329376220703,19.870296478271484,1.3621368408203125,16.325550079345703,15.410213470458984,-53.701316833496094,-25.388004302978516,-1.7170257568359375
2.32,3.5,0.0,0.0,6.789604187011719,1.7635043859481812,0.845024049282074,3.493030309677124,-0.010817201808094978,-0.17074410617351532,0.3850857615470886,0.010030738078057766,-0.11587728559970856,-0.03291226550936699,-0.047367945313453674,0.3917886018753052,0.10900147259235382,-0.26125168800354004,0.06499433517456055,-0.1663009375333786,-0.503862202167511,1.1625638008117676,-0.7999999523162842,2.254537582397461,-0.0969490259885788,2.96187162399292,3.0085017681121826,6.3157958984375,3.8810389041900635,-0.8920013308525085,-2.3927135467529297,-4.978011131286621,-0.002664231928065419,14.407748222351074,-34.369117736816406,3.545217514038086,-4.029081344604492,30.0,-0.9244842529296875,10.898775100708008,-12.394824028015137,-9.692510604858398,-30.0
2.34,3.5,0.0,0.0,6.857794761657715,1.783177375793457,0.840127170085907,3.4910948276519775,0.011714204214513302,-0.20065879821777344,0.33927711844444275,-0.8231790065765381,-0.02645401656627655,0.0052376785315573215,-0.04624563455581665,0.455471396446228,0.16168619692325592,-0.10883764177560806,0.0629512295126915,-0.16913004219532013,-0.4952998161315918,0.9395737051963806,-0.8000002503395081,1.4787367582321167,0.09181784838438034,2.7415456771850586,3.3759055137634277,9.409564018249512,-2.5480127334594727,0.5675996541976929,1.9016846418380737,-14.066627502441406,-0.0008307719836011529,4.771031379699707,-11.813627243041992,-24.243562698364258,4.933111190795898,30.0,-17.166311264038086,8.070048332214355,27.87881851196289,-1.7928619384765625,-30.0
2.36,3.5,0.0,0.0,6.925326824188232,1.8024321794509888,0.8340389728546143,3.471545696258545,-0.008319852873682976,-0.22994403541088104,0.43542972207069397,-0.23349151015281677,-0.0042738718912005424,-0.05253424867987633,-0.07825502753257751,0.402164101600647,0.43945348262786865,0.01602949947118759,-0.0011113215005025268,-0.16133707761764526,-0.46660974621772766,0.8171016573905945,-0.35710668563842773,-4.181472301483154,-2.2423861026763916,-4.471650123596191,16.567562103271484,6.384922027587891,-2.839665412902832,-0.14047834277153015,3.183504343032837,2.4585139751434326,-6.051482677459717,-16.68463706970215,28.73480987548828,-55.609527587890625,-10.875244140625,-0.6735801696777344,-21.602718353271484,1.3127119541168213,58.08542251586914,-55.678314208984375,30.0
2.38,3.5,0.0,0.0,6.993934631347656,1.8207100629806519,0.8362903594970703,3.493502378463745,-0.015996165573596954,0.460520476102829,-0.7939223647117615,-0.6258173584938049,0.01687002182006836,-0.10524196177721024,-0.06272950768470764,0.37641647458076477,0.541533350944519,-0.6159107089042664,-0.002670013578608632,-0.15506987273693085,-0.32969629764556885,0.7953394651412964,-0.46739035844802856,-2.457895278930664,2.696265697479248,-1.1846649646759033,-1.5830398797988892,-31.363521575927734,-0.15790767967700958,1.3021454811096191,8.209615707397461,-5.150819301605225,2.271084785461426,-21.871212005615234,59.21855545043945,-140.91319274902344,-64.25669860839844,-6.6503753662109375,-26.268856048583984,143.51280212402344,124.5875473022461,-133.13052368164062,30.0
2.4,3.5,0.0,0.0,7.062065124511719,1.8382264375686646,0.843524694442749,3.4839890003204346,0.006007939577102661,0.26161429286003113,-0.6229310035705566,-0.053526926785707474,0.031755365431308746,-0.17418307065963745,-0.039697472006082535,0.36008214950561523,0.4130050241947174,-0.7997708320617676,-0.05456367880105972,-0.1381833255290985,-0.2602469027042389,0.8431084752082825,-0.3869406282901764,-3.130126953125,0.1913703978061676,-1.0527267456054688,-7.632776260375977,-0.003142997622489929,-3.743767499923706,0.5321652293205261,1.1726254224777222,5.791301727294922,8.945874214172363,39.099891662597656,-66.856201171875,-22.025253295898438,-7.501674652099609,-30.0,-15.13463020324707,68.32833862304688,20.02291488647461,32.081905364990234,30.0
2.42,3.5,0.0,0.0,7.128095626831055,1.856526494026184,0.8473621010780334,3.4819390773773193,0.006793457083404064,0.14010606706142426,0.0380142517387867,0.8139855861663818,0.016711212694644928,-0.21166656911373138,-0.045418210327625275,0.3247162401676178,0.2909529209136963,-0.8000088334083557,-0.10366028547286987,-0.14089439809322357,-0.31239718198776245,1.0140690803527832,-0.11435338109731674,-0.7344619035720825,-0.8150356411933899,-1.7340850830078125,-5.456522464752197,-0.018829578533768654,-1.7137210369110107,-0.44431793689727783,-4.779538154602051,9.810052871704102,19.741758346557617,28.87828826904297,-57.978515625,50.31184768676758,17.226505279541016,-30.0,8.15005111694336,52.490211486816406,-59.23817443847656,-21.162322998046875,30.0
2.44,3.5,0.0,0.0,7.193670749664307,1.875422477722168,0.8476959466934204,3.4705147743225098,-0.001079619163647294,-0.011264107190072536,0.2933691143989563,0.5387633442878723,0.015536717139184475,-0.1639142483472824,-0.04999976605176926,0.3162005543708801,0.1874820590019226,-0.8000449538230896,-0.09201119095087051,-0.14987356960773468,-0.3912231922149658,1.1446118354797363,-0.03161041811108589,3.506697177886963,-0.26976221799850464,0.4537726640701294,-4.657623291015625,0.0005890649626962841,1.5898364782333374,-0.3971960246562958,-4.101966857910156,4.070862293243408,3.5847971439361572,6.980323791503906,-21.2786808013916,74.79147338867188,26.39143943786621,-30.0,18.479393005371094,18.09980583190918,-74.72518157958984,-36.78220748901367,-2.869386672973633
2.46,3.5,0.0,0.0,7.25937032699585,1.8943527936935425,0.8439556360244751,3.469822645187378,0.0019135706825181842,-0.19085952639579773,0.28041696548461914,0.5018376708030701,-0.0799679085612297,-0.07051914930343628,-0.05266746133565903,0.3444729149341583,0.0738881528377533,-0.4333278238773346,-0.013634643517434597,-0.15911956131458282,-0.46894538402557373,1.2341614961624146,-0.6520478129386902,4.8739542961120605,-0.23653878271579742,1.8848836421966553,-5.0401291847229,17.530838012695312,5.076544761657715,-0.500349223613739,-4.053767204284668,2.715529680252075,-30.44447135925293,2.6102943420410156,-15.136466026306152,55.06008529663086,19.7213077545166,1.3070755004882812,18.2080020904541,17.95290756225586,-56.583641052246094,-27.961397171020508,-1.938446044921875
2.48,3.5,0.0,0.0,7.325947284698486,1.9131276607513428,0.8384414911270142,3.4923317432403564,-0.009125307202339172,-0.19522491097450256,0.32778024673461914,0.006203784141689539,-0.10170154273509979,-0.023663774132728577,-0.05331746116280556,0.3957828879356384,0.12111136317253113,-0.3055591881275177,0.07029546052217484,-0.1678033024072647,-0.5184617638587952,1.1694093942642212,-0.7999999523162842,1.9319727420806885,-0.03103235736489296,3.374610185623169,2.1078896522521973,6.318612575531006,3.542097568511963,-0.30475181341171265,-1.901292324066162,-5.679864883422852,-0.00246633542701602,13.630571365356445,-37.82135772705078,1.5369043350219727,-0.654754638671875,30.0,-0.7061958312988281,18.355031967163086,-10.900148391723633,-10.654474258422852,-30.0
2.5,3.5,0.0,0.0,7.393949031829834,1.9328711032867432,0.8328008055686951,3.4927470684051514,0.017519712448120117,-0.23974786698818207,0.42410942912101746,-0.7777833938598633,-0.026284243911504745,0.013510823249816895,-0.05290381982922554,0.4576900005340576,0.1784757524728775,-0.15850147604942322,0.06277364492416382,-0.16462042927742004,-0.5039976239204407,0.9423076510429382,-0.7675275802612305,1.6150720119476318,0.0722721666097641,2.512965202331543,4.021255016326904,8.792604446411133,-1.9303934574127197,0.31699472665786743,1.6022148132324219,-7.98700475692749,0.00421142578125,4.4092206954956055,-8.980284690856934,-24.99401092529297,9.002229690551758,30.0,-19.31227684020996,-1.7454837560653687,30.077627182006836,0.39762115478515625,-30.0
2.52,3.5,0.0,0.0,7.461348533630371,1.9521658420562744,0.8276358246803284,3.5098557472229004,0.007786676287651062,-0.11828804016113281,0.1754654198884964,0.16029290854930878,-0.103221096098423,-0.03198033943772316,-0.06964374333620071,0.3811603784561157,0.47546863555908203,-0.11231819540262222,0.033402249217033386,-0.1650148630142212,-0.43646448850631714,0.8780943751335144,-0.43022894859313965,-3.6892130374908447,-0.735956609249115,-6.517000675201416,18.123149871826172,2.6018762588500977,-1.593087911605835,-0.013139680027961731,7.092717170715332,-3.2327842712402344,-10.238982200622559,-28.130184173583984,51.2946891784668,-75.03422546386719,-13.634765625,-0.8610849380493164,-31.525371551513672,16.85161590576172,59.680076599121094,-94.48214721679688,30.0
2.54,3.5,0.0,0.0,7.530881404876709,1.9703342914581299,0.8322641849517822,3.510295867919922,-0.008316278457641602,0.6199815273284912,-1.0176212787628174,-1.3404496908187866,0.0014263553312048316,-0.10854155570268631,-0.04748648777604103,0.36158639192581177,0.5191521644592285,-0.7997762560844421,0.029837094247341156,-0.14965203404426575,-0.26124218106269836,0.795530378818512,-0.540759801864624,-4.123049736022949,2.4375569820404053,0.6393653154373169,-9.065336227416992,-0.3503965139389038,-0.637479841709137,1.8652634620666504,10.332504272460938,-8.313530921936035,5.692854881286621,-16.58647918701172,43.126033782958984,-136.00482177734375,-64.86556243896484,-7.2320098876953125,-29.34824562072754,173.0013885498047,124.74116516113281,-143.9912872314453,30.0
2.56,3.5,0.0,0.0,7.599645137786865,1.9878016710281372,0.8416111469268799,3.4957213401794434,0.009923073463141918,0.35444512963294983,-0.68619304895401,-0.05614704638719559,0.06118672713637352,-0.21116755902767181,-0.03269530460238457,0.3331975042819977,0.3948264420032501,-0.7999668717384338,-0.048598989844322205,-0.12957464158535004,-0.19813966751098633,0.8472364544868469,-0.4072200655937195,-4.5141472816467285,-0.30699485540390015,-2.0235166549682617,-5.1125006675720215,-0.011661981232464314,-5.825040817260742,0.5010285973548889,-0.18433712422847748,6.927245140075684,10.474198341369629,48.620506286621094,-88.78742980957031,4.79831600189209,3.6625728607177734,-30.0,-15.825790405273438,83.46905517578125,-11.139472007751465,24.191097259521484,30.0
2.58,3.5,0.0,0.0,7.666101455688477,2.006375551223755,0.8473432660102844,3.489133596420288,0.006662135943770409,0.2298489809036255,0.19542966783046722,0.5876864194869995,0.030287301167845726,-0.2535078227519989,-0.044116321951150894,0.2875449061393738,0.3166538178920746,-0.8000186681747437,-0.10450071096420288,-0.13721992075443268,-0.2657284140586853,1.0274680852890015,-0.04351649060845375,-0.4975186586380005,-1.1584851741790771,-1.9488674402236938,-3.4354593753814697,-0.015161916613578796,-1.2808493375778198,-0.74372398853302,-5.455955982208252,10.212736129760742,23.587644577026367,31.345172882080078,-66.62232208251953,65.01387786865234,21.47150421142578,-30.0,10.602193832397461,50.84760284423828,-76.43946838378906,-28.38159942626953,30.0
2.6,3.5,0.0,0.0,7.732640266418457,2.0257151126861572,0.8498896956443787,3.4905285835266113,-0.006455402355641127,0.06496915221214294,0.4227084815502167,0.20580659806728363,-0.003989988472312689,-0.1915743201971054,-0.05294903740286827,0.2913663983345032,0.21885928511619568,-0.7640848755836487,-0.08305491507053375,-0.1492164582014084,-0.3476109206676483,1.1594561338424683,-0.05936160311102867,4.342628002166748,-0.40823298692703247,0.8843295574188232,-0.9716284275054932,-31.272552490234375,2.116652250289917,-0.5352680087089539,-4.086296558380127,3.6295230388641357,-1.2615185976028442,6.497610092163086,-20.313861846923828,67.76216125488281,22.412633895874023,-30.0,17.268461227416992,18.29471778869629,-71.70199584960938,-38.98755645751953,-3.038970947265625
2.62,3.5,0.0,0.0,7.799469470977783,2.0451531410217285,0.8485791087150574,3.492522954940796,-0.004934364464133978,-0.09805968403816223,0.3448200523853302,-0.053898148238658905,0.01861773617565632,-0.08388753235340118,-0.05504389479756355,0.33570724725723267,0.1540086716413498,-0.34044191241264343,0.008208012208342552,-0.16413994133472443,-0.4277283251285553,1.2449769973754883,-0.6671987175941467,3.625361919403076,-0.08708138018846512,3.654362201690674,1.4879770278930664,6.976090908050537,5.722135066986084,-0.7756655812263489,-4.028676509857178,2.912612199783325,-29.734094619750977,5.778375625610352,-20.571041107177734,61.35143280029297,-1.5802836418151855,30.0,18.286813735961914,9.818681716918945,-59.39691162109375,-25.080169677734375,-1.7029876708984375
