DanielTruong99/RLHumanoidRobot/analysis/data/state_log.csv
time_step,c_x,c_y,c_z,base_x,base_y,base_z,base_vx,base_vy,base_vz,base_wx,base_wy,base_wz,pos_R_hip_joint,pos_R_hip2_joint,pos_R_thigh_joint,pos_R_calf_joint,pos_R_toe_joint,pos_L_hip_joint,pos_L_hip2_joint,pos_L_thigh_joint,pos_L_calf_joint,pos_L_toe_joint,vel_R_hip_joint,vel_R_hip2_joint,vel_R_thigh_joint,vel_R_calf_joint,vel_R_toe_joint,vel_L_hip_joint,vel_L_hip2_joint,vel_L_thigh_joint,vel_L_calf_joint,vel_L_toe_joint,torque_R_hip_joint,torque_R_hip2_joint,torque_R_thigh_joint,torque_R_calf_joint,torque_R_toe_joint,torque_L_hip_joint,torque_L_hip2_joint,torque_L_thigh_joint,torque_L_calf_joint,torque_L_toe_joint
0.02,1.0,0.0,0.0,-0.0011420072987675667,-0.005620364099740982,0.9233891367912292,-0.1462136209011078,-0.3312895894050598,-0.4876495599746704,2.1733226776123047,-1.8652745485305786,0.24513264000415802,-0.05913703516125679,-0.22311337292194366,-0.12681615352630615,0.19551454484462738,-0.17962364852428436,-0.018271567299962044,-0.013630054891109467,-0.3257743716239929,0.48598262667655945,-0.3027816712856293,0.07463132590055466,-4.0894999504089355,6.878474235534668,-12.817869186401367,-5.824913501739502,4.862044811248779,-7.029928207397461,-1.2973414659500122,14.641471862792969,-17.669679641723633,-2.6969473361968994,-6.588884353637695,-8.491050720214844,-9.762657165527344,-0.8185691833496094,-15.073002815246582,-89.135986328125,35.157012939453125,24.834266662597656,2.3251800537109375
0.04,1.0,0.0,0.0,-0.002281789667904377,-0.010211893357336521,0.9110124111175537,-0.03958769887685776,-0.33988815546035767,-0.7527275085449219,2.041921377182007,-0.17233943939208984,-0.9685378670692444,-0.08157619088888168,-0.3036758601665497,-0.07849803566932678,0.003515915246680379,0.1482704132795334,-0.031078612431883812,-0.12399938702583313,-0.3619503378868103,0.7861015796661377,-0.7999998927116394,-1.2402783632278442,-4.139800548553467,-0.8855874538421631,-5.625507354736328,12.260613441467285,-2.498605966567993,-4.966355323791504,-2.4579901695251465,13.458185195922852,0.016861995682120323,16.52273178100586,-21.357460021972656,-59.99835205078125,-17.486675262451172,-1.1398468017578125,-7.709592819213867,25.541645050048828,30.714366912841797,19.956092834472656,-30.0
0.06,1.0,0.0,0.0,-0.0061470456421375275,-0.016339825466275215,0.8938175439834595,-0.03143306076526642,-0.2778780460357666,-0.9947616457939148,0.31367623805999756,0.6317341923713684,-1.4359636306762695,-0.2350436896085739,-0.31195682287216187,-0.24536097049713135,0.20583783090114594,-0.800006628036499,-0.0428147092461586,-0.20911753177642822,-0.4317030608654022,1.085999846458435,-0.7999999523162842,-9.014612197875977,2.320890426635742,-9.033590316772461,7.115667819976807,-0.0018310546875,0.20104962587356567,-3.760240316390991,-3.3102009296417236,15.316045761108398,7.493556950066704e-06,10.588558197021484,76.32684326171875,-3.3176727294921875,-1.4921340942382812,-30.0,-3.891315221786499,-23.189714431762695,14.145027160644531,6.106101989746094,-30.0
0.08,1.0,0.0,0.0,-0.010051378980278969,-0.02275390923023224,0.8703520894050598,-0.06890325993299484,-0.25232768058776855,-1.3769639730453491,1.051316738128662,-0.20249652862548828,-1.2892937660217285,-0.3511117696762085,-0.27259260416030884,-0.38615304231643677,0.3190285265445709,-0.800049901008606,-0.07533126324415207,-0.33254048228263855,-0.5094152092933655,1.508169174194336,-0.7999999523162842,-4.813154697418213,1.6132704019546509,-6.3304762840271,5.048906326293945,0.0017124238656833768,-2.4488272666931152,-8.43022346496582,-3.5113565921783447,23.72366714477539,9.89565705822315e-06,11.079079627990723,20.219755172729492,-16.07427215576172,-7.048425674438477,-30.0,-27.5668888092041,-67.95907592773438,40.996551513671875,44.974266052246094,-30.0
0.1,1.0,0.0,0.0,-0.012316111475229263,-0.02885477989912033,0.8420935869216919,-0.03390399366617203,-0.2520465850830078,-1.3989005088806152,-1.1466766595840454,-0.2532391846179962,-0.5149961709976196,-0.41634002327919006,-0.2604424059391022,-0.4737216532230377,0.35338690876960754,-0.7986879348754883,-0.12989166378974915,-0.5000222325325012,-0.5160230994224548,1.8576964139938354,-0.800000011920929,-3.19211483001709,3.4529383182525635,-2.866360902786255,-0.3757949769496918,-3.948807716369629e-07,-5.654374122619629,0.0008744270307943225,-0.8460155725479126,16.537038803100586,2.8132089937571436e-06,-5.530426025390625,-48.82958221435547,-35.63264465332031,-13.415956497192383,-30.0,-20.56658172607422,54.76042175292969,27.493650436401367,2.4101104736328125,-30.0
0.12,1.0,0.0,0.0,-0.013896813616156578,-0.03827757388353348,0.8149482607841492,-0.09036509692668915,-0.3587326109409332,-1.4170067310333252,0.6665940284729004,-1.5597336292266846,0.05229871720075607,-0.3551286458969116,-0.31726038455963135,-0.5125398635864258,0.41808781027793884,-0.7229409217834473,-0.2029874175786972,-0.4723578095436096,-0.4260994791984558,2.0000433921813965,-0.7999998927116394,4.133010387420654,-6.27330207824707,-2.1484148502349854,4.911855220794678,3.770777940750122,-3.4318861961364746,3.4949049949645996,6.4868645668029785,1.5925618410110474,6.875052349641919e-07,-43.01076126098633,-135.5196533203125,-32.63075256347656,-4.245002746582031,-0.5951595306396484,11.046570777893066,131.23031616210938,3.356121063232422,-42.20990753173828,-30.0
0.14,1.0,0.0,0.0,-0.013824556022882462,-0.04830697178840637,0.7896581888198853,0.1426667869091034,-0.47845739126205444,-1.2605210542678833,0.6241297125816345,0.2699323296546936,-0.6313340663909912,-0.31270575523376465,-0.42317575216293335,-0.6138083934783936,0.6004441976547241,-0.2822212874889374,-0.30018818378448486,-0.3667903244495392,-0.26595190167427063,1.5514289140701294,-0.7999996542930603,1.6603457927703857,-4.542853355407715,-6.527486324310303,11.201525688171387,21.508920669555664,-5.196352005004883,6.927274703979492,9.15278434753418,-38.45561218261719,1.115869963541627e-06,-10.995220184326172,-5.436824798583984,23.628643035888672,18.631813049316406,0.5591354370117188,20.6491641998291,97.55642700195312,-80.94528198242188,-159.49261474609375,-30.0
0.16,1.0,0.0,0.0,-0.014169909060001373,-0.060027580708265305,0.7641470432281494,0.5274343490600586,-0.4622754752635956,-1.1363131999969482,0.7430500984191895,2.683950424194336,0.37173280119895935,-0.21896597743034363,-0.5137788653373718,-0.7389745116233826,0.9441941380500793,-0.6741480827331543,-0.42546936869621277,-0.2798507511615753,-0.17130960524082184,0.8761181235313416,-0.4673713445663452,6.475653171539307,-5.0760650634765625,-4.361146926879883,17.21915054321289,-20.654451370239258,-2.066624402999878,0.786827802658081,-5.697492599487305,-3.489290237426758,53.35720443725586,2.1264495849609375,58.178192138671875,74.4371337890625,27.828384399414062,1.5148391723632812,28.48659896850586,4.025157928466797,-151.8530731201172,-138.2064208984375,-30.0
0.18,1.0,0.0,0.0,-0.007046679966151714,-0.07235153764486313,0.7526324987411499,0.772461473941803,-0.5131035447120667,-0.12495411187410355,0.2978185713291168,-0.010845921002328396,-0.7165524959564209,-0.21511796116828918,-0.5062972903251648,-0.7816495299339294,1.1086152791976929,-0.8000029921531677,-0.4363929033279419,-0.3062220513820648,-0.20387747883796692,1.0043203830718994,-0.7906062602996826,-2.295743227005005,3.9597156047821045,-0.7526131868362427,4.756240367889404,0.04979066178202629,0.6225919723510742,-0.10803049802780151,2.079228401184082,-1.6045928001403809,0.5374295711517334,20.29009246826172,86.1034164428711,-10.87382698059082,-2.2063522338867188,-30.0,-69.6747817993164,69.4412841796875,27.60965919494629,-300.0,-30.0
0.2,1.0,0.0,0.0,0.006508746184408665,-0.08814796060323715,0.7558975219726562,1.029669165611267,-0.48226121068000793,0.3904188871383667,-0.9103404879570007,0.1541595607995987,-0.33676090836524963,-0.24059230089187622,-0.3963044285774231,-0.7387675642967224,1.1369218826293945,-0.7999686002731323,-0.42254433035850525,-0.29497963190078735,-0.14009307324886322,0.9539867043495178,-0.8002963066101074,-0.9972179532051086,6.894224643707275,3.548187017440796,-0.1922696828842163,0.003151573473587632,0.045729756355285645,1.6283364295959473,3.407867670059204,-4.401795387268066,5.939493656158447,13.162389755249023,31.763219833374023,-1.9309625625610352,4.472774028778076,-30.0,-64.26675415039062,127.40227508544922,1.9904613494873047,-170.16087341308594,30.0
0.22,1.0,0.0,0.0,0.023168399930000305,-0.10552079230546951,0.7642879486083984,1.0757560729980469,-0.41978731751441956,0.36040326952934265,-1.476660966873169,-0.39676326513290405,-0.02583327144384384,-0.2191879004240036,-0.27821066975593567,-0.5984715819358826,1.026167392730713,-0.7999871373176575,-0.41174307465553284,-0.2673215866088867,-0.047855500131845474,0.8756502866744995,-0.7845298051834106,1.7217212915420532,5.594487190246582,8.224458694458008,-7.833413600921631,-0.004387945868074894,0.48652875423431396,1.5900838375091553,5.361758708953857,-4.7538228034973145,-0.10315197706222534,-0.49530887603759766,-17.114025115966797,-4.176876068115234,-5.7372589111328125,-30.0,-15.382087707519531,60.995243072509766,14.574413299560547,-15.980398178100586,30.0
0.24,1.0,0.0,0.0,0.04088420793414116,-0.12021762877702713,0.772803008556366,0.9928410649299622,-0.22839577496051788,0.4198284149169922,-1.0910149812698364,-0.9473953247070312,0.4185691177845001,-0.09871384501457214,-0.24019171297550201,-0.4545719623565674,0.8166037797927856,-0.3396739661693573,-0.36466309428215027,-0.23963044583797455,-0.004539479035884142,0.9111906886100769,-0.6327584385871887,2.3787589073181152,1.145514965057373,6.3220133781433105,-6.613627910614014,5.779691696166992,3.4388577938079834,1.2351781129837036,1.0785719156265259,4.4599151611328125,13.912771224975586,-11.174426078796387,-5.145685195922852,7.697917938232422,-71.66731262207031,30.0,10.663366317749023,-17.29619598388672,6.208647727966309,19.33997344970703,30.0
0.26,1.0,0.0,0.0,0.059824422001838684,-0.12965472042560577,0.7834806442260742,0.9442003965377808,-0.11222659051418304,0.6156761646270752,0.4881570339202881,-0.8317398428916931,-0.2490795999765396,-0.06324777752161026,-0.23557314276695251,-0.35033154487609863,0.7365578413009644,-0.36773234605789185,-0.2810879945755005,-0.23824284970760345,-0.01835351623594761,1.005406141281128,-0.35916998982429504,1.9004050493240356,-0.711250901222229,5.372302532196045,-5.441986083984375,1.5287718772888184,4.748417377471924,-1.099031925201416,-1.883116602897644,4.412753105163574,14.24120807647705,10.517086029052734,-77.48014068603516,35.02226638793945,-70.27842712402344,30.0,22.782577514648438,-20.291248321533203,-62.4158821105957,-14.044269561767578,-1.3759078979492188
0.28,1.0,0.0,0.0,0.07926011085510254,-0.13422492146492004,0.7957678437232971,0.9882081747055054,-0.10814285278320312,0.6314209699630737,2.190983772277832,0.23046091198921204,0.47964492440223694,0.011774164624512196,-0.27640607953071594,-0.2317783683538437,0.6133767366409302,-0.3568979501724243,-0.1519390493631363,-0.2475368231534958,-0.07468946278095245,1.11721932888031,-0.7999999523162842,4.884805679321289,-3.729973554611206,6.792910099029541,-8.048795700073242,1.8356525897979736,7.200542449951172,-0.26566779613494873,-4.183370590209961,3.2264962196350098,-0.0003642954397946596,-2.442626953125,-156.5262451171875,35.81972122192383,-18.290966033935547,30.0,1.4565086364746094,76.95098114013672,-53.656829833984375,-19.46150016784668,-30.0
0.3,1.0,0.0,0.0,0.0982363224029541,-0.13692928850650787,0.8077176213264465,1.0003162622451782,-0.07199592888355255,0.6155605912208557,2.0034544467926025,0.6452587842941284,0.2591034173965454,0.0660453736782074,-0.33440259099006653,-0.15514104068279266,0.5313137173652649,-0.2968544661998749,-0.007867809385061264,-0.23842979967594147,-0.14106972515583038,1.1121201515197754,-0.800000011920929,2.127194881439209,-2.607583999633789,2.523139476776123,-2.5551915168762207,4.581332206726074,6.727355480194092,1.183427095413208,-2.8234851360321045,-2.2466659545898438,-0.0003192380245309323,12.81916332244873,-93.04463958740234,-3.9766855239868164,-3.863100051879883,30.0,-22.53872299194336,77.6755599975586,10.195240020751953,-6.402312278747559,-30.0
0.32,1.0,0.0,0.0,0.1167156845331192,-0.13987936079502106,0.8173861503601074,1.0151705741882324,-0.057934630662202835,0.4245648682117462,1.7258806228637695,0.9901512265205383,0.2525671124458313,0.127121239900589,-0.3915817141532898,-0.1369905322790146,0.5631746649742126,-0.1705697774887085,0.07185722142457962,-0.21081414818763733,-0.19954636693000793,1.0153350830078125,-0.800000011920929,3.6048882007598877,-3.1474924087524414,0.2784827649593353,3.3782877922058105,8.181035995483398,1.96414315700531,1.9471436738967896,-2.9557430744171143,-6.266876697540283,4.332180651545059e-06,7.850360870361328,-48.0811653137207,-10.514352798461914,5.519866943359375,1.4617195129394531,-23.265758514404297,64.2615966796875,10.114418029785156,-3.9146175384521484,-30.0
0.34,1.0,0.0,0.0,0.13484974205493927,-0.14459575712680817,0.8233780264854431,1.046510100364685,0.03195163980126381,0.24422110617160797,0.0073910066857934,0.9844573736190796,0.07057111710309982,0.17915965616703033,-0.41252413392066956,-0.1601727306842804,0.7033857703208923,-0.4904487431049347,0.07502894103527069,-0.15933269262313843,-0.2405422478914261,0.8386837244033813,-0.7780233025550842,2.327643871307373,0.8212400674819946,-1.8087972402572632,7.177323341369629,-15.582046508789062,1.76910400390625,2.4118006229400635,-1.7695691585540771,0.7036395072937012,-21.84789276123047,9.116971015930176,58.731964111328125,-26.53521728515625,-7.369289398193359,-0.38709259033203125,-11.429758071899414,-5.1155805587768555,14.873428344726562,-1.1033782958984375,-30.0
0.36,1.0,0.0,0.0,0.15502996742725372,-0.1498103141784668,0.8283460736274719,1.0603283643722534,0.00013620895333588123,0.3933168947696686,0.8924251198768616,-0.21366436779499054,0.29649868607521057,0.15804311633110046,-0.3911617696285248,-0.19933725893497467,0.8070301413536072,-0.6621665954589844,0.0862722396850586,-0.1604699045419693,-0.19063086807727814,0.7456398606300354,-0.6014763116836548,-2.4532699584960938,1.3808155059814453,-2.000061273574829,4.417684078216553,-8.019916534423828,-0.0893707275390625,-0.8255543112754822,4.607929229736328,-5.8923139572143555,2.900296688079834,8.296568870544434,53.688072204589844,-36.96821212768555,-9.235433578491211,-0.8516845703125,-47.15870666503906,-30.27243423461914,31.96289825439453,-72.3271484375,30.0
0.38,1.0,0.0,0.0,0.17685937881469727,-0.15726281702518463,0.8376240134239197,0.9922808408737183,-0.008850937709212303,0.6094500422477722,-0.7366185784339905,-1.7992444038391113,0.04140812158584595,0.047644492238759995,-0.302494078874588,-0.26435399055480957,0.9364960789680481,-0.7998968958854675,0.08651695400476456,-0.15348398685455322,-0.07288236171007156,0.6214929223060608,-0.5729358792304993,-6.554385185241699,7.022887229919434,-3.3923494815826416,7.170316696166992,-0.015469148755073547,0.2216968536376953,1.5276522636413574,7.285747528076172,-8.334844589233398,6.535185813903809,8.378080368041992,83.35258483886719,-42.109092712402344,2.4697837829589844,-30.0,-32.176475524902344,51.74087142944336,55.12373352050781,-47.525054931640625,30.0
0.4,1.0,0.0,0.0,0.1995672732591629,-0.1658509224653244,0.8487712144851685,1.0493777990341187,-0.013209613971412182,0.5037058591842651,-0.1414235383272171,-1.475888729095459,-0.027298159897327423,-0.0727468878030777,-0.17899630963802338,-0.2767319083213806,0.9463260769844055,-0.7999905943870544,0.09673196822404861,-0.13367551565170288,0.05805245414376259,0.4953210651874542,-0.49999237060546875,-5.711903095245361,5.381474494934082,0.10771894454956055,-2.4182167053222656,-0.0061249942518770695,0.8770231008529663,0.6863274574279785,6.126768589019775,-6.039341449737549,6.408557891845703,9.40032958984375,-32.2762451171875,-32.81406784057617,-21.05602264404297,-30.0,-10.71381950378418,31.795637130737305,14.864173889160156,5.651645660400391,30.0
0.42,1.0,0.0,0.0,0.22166696190834045,-0.1733478456735611,0.8580689430236816,1.063836693763733,-0.026148149743676186,0.3795410692691803,0.2961989641189575,-0.8851935267448425,0.011889148503541946,-0.15606139600276947,-0.08752883225679398,-0.2568233907222748,0.8414691090583801,-0.7999919056892395,0.12089607119560242,-0.12449028342962265,0.11455588042736053,0.4806238114833832,-0.38553333282470703,-3.076984167098999,3.903775691986084,1.162082314491272,-6.349722385406494,-0.009772063232958317,1.1959314346313477,0.21321243047714233,1.208748698234558,1.9878240823745728,7.76410436630249,8.58366584777832,-30.592147827148438,-22.56020736694336,-9.507205963134766,-30.0,-7.767991065979004,37.942508697509766,11.292365074157715,16.50429916381836,30.0
0.44,1.0,0.0,0.0,0.24317434430122375,-0.17992426455020905,0.8653960227966309,1.0715150833129883,-0.044615238904953,0.24586817622184753,0.8212184906005859,-0.6300899386405945,0.21112461388111115,-0.11940787732601166,-0.030748339369893074,-0.2176533341407776,0.6576681137084961,-0.5492926239967346,0.1488717943429947,-0.12463885545730591,0.07987810671329498,0.602857232093811,-0.21845166385173798,3.773547649383545,1.8923230171203613,2.172435760498047,-4.963448524475098,-52.801109313964844,1.1857380867004395,-0.30923086404800415,-3.2398617267608643,8.32896900177002,11.54675006866455,8.85501766204834,-32.50345230102539,-10.743400573730469,-4.196842193603516,-0.5065956115722656,-6.741521835327148,36.36847686767578,1.0155019760131836,13.294601440429688,30.0
0.46,1.0,0.0,0.0,0.26507216691970825,-0.18533261120319366,0.8708838820457458,1.0939306020736694,0.05102517828345299,0.2274499535560608,0.5538062453269958,-0.5249835848808289,0.2665618062019348,-0.04474099352955818,-0.0313604474067688,-0.15952497720718384,0.5513995289802551,-0.32226428389549255,0.1740933656692505,-0.1302107274532318,0.012195877730846405,0.7842411994934082,-0.42689141631126404,1.9651100635528564,-0.6972295641899109,4.464309215545654,-4.5481672286987305,-0.7395093441009521,1.3368260860443115,-0.07569856196641922,-3.493385076522827,8.28584098815918,-10.190794944763184,11.550508499145508,-16.118501663208008,5.621522903442383,-42.46912384033203,30.0,4.184788703918457,-1.2081103324890137,-23.55170249938965,-8.456977844238281,-0.5723991394042969
0.48,1.0,0.0,0.0,0.2874186336994171,-0.19009587168693542,0.8766516447067261,1.1060943603515625,0.0434141531586647,0.20898222923278809,0.8933420181274414,-0.325717955827713,-0.03764478117227554,-0.039779312908649445,-0.05286761745810509,-0.08999428898096085,0.49829381704330444,-0.3204953074455261,0.19570229947566986,-0.13179133832454681,-0.027549540624022484,0.8217832446098328,-0.800000011920929,-0.17512184381484985,-1.2626333236694336,2.954967975616455,-2.259533643722534,0.9277949333190918,0.7615995407104492,-0.05186230689287186,-1.9949551820755005,-2.266709566116333,-1.9974413589807227e-05,16.49351692199707,-63.53248596191406,31.93024253845215,13.33518123626709,30.0,-1.3915205001831055,27.316253662109375,-50.501617431640625,-21.697765350341797,-30.0
0.5,1.0,0.0,0.0,0.3085612952709198,-0.19431136548519135,0.8811819553375244,1.091967225074768,0.03410544991493225,0.11129625886678696,0.9460911750793457,0.42811813950538635,-0.0535569041967392,-0.03379322215914726,-0.07853946834802628,-0.10170939564704895,0.5565138459205627,-0.27680504322052,0.16950063407421112,-0.13049699366092682,-0.08273707330226898,0.7052866220474243,-0.8000003099441528,0.1662609875202179,-1.296363353729248,-2.3071279525756836,5.558649063110352,3.805225133895874,-2.601288080215454,0.4517463743686676,-3.4596617221832275,-7.621744632720947,-0.0015145664801821113,12.835679054260254,-70.28977966308594,49.22542190551758,36.41204833984375,30.0,-3.879749298095703,44.30991744995117,-61.6132926940918,-25.435501098632812,-30.0
0.52,1.0,0.0,0.0,0.3291390538215637,-0.19938169419765472,0.8824074864387512,1.090299367904663,0.046560611575841904,-0.11589609086513519,-0.016308262944221497,0.3881802558898926,0.11763215065002441,-0.033635787665843964,-0.09580570459365845,-0.16118456423282623,0.7493568062782288,-0.4267359972000122,0.0648481696844101,-0.09055764973163605,-0.11482486873865128,0.39046308398246765,-0.2070341855287552,-0.08610549569129944,-0.3241836726665497,-3.1144843101501465,10.718748092651367,-7.107396125793457,-6.736278057098389,3.5552382469177246,-1.1872446537017822,-17.48427391052246,28.14569091796875,0.006643891334533691,-15.432573318481445,13.564123153686523,9.991252899169922,0.6598701477050781,-3.542755126953125,51.58572769165039,-22.589324951171875,-11.592964172363281,-1.095062255859375
0.54,1.0,0.0,0.0,0.3498692512512207,-0.20557840168476105,0.8824894428253174,1.0859119892120361,0.05746324360370636,0.09149569272994995,-0.5141381621360779,-0.12643957138061523,0.07319798320531845,-0.06260190159082413,-0.07471343129873276,-0.19600984454154968,0.9055804014205933,-0.7999297380447388,0.031231123954057693,-0.05884571373462677,-0.11299905180931091,0.35165339708328247,-0.18498438596725464,-2.1403555870056152,2.208928346633911,-1.1964222192764282,4.719520568847656,-0.06134119629859924,-0.00925859808921814,0.6759559512138367,2.285611152648926,-1.9135469198226929,3.0479257106781006,-6.363559722900391,72.20236206054688,-21.100908279418945,-8.108200073242188,-0.9308319091796875,-13.08051586151123,23.04755210876465,11.901378631591797,-56.69069290161133,30.0
0.56,1.0,0.0,0.0,0.3709450364112854,-0.21244612336158752,0.8863772749900818,1.0773173570632935,0.049745459109544754,0.13382484018802643,-0.3407687544822693,-0.395864874124527,0.013506779447197914,-0.08752144128084183,-0.046791642904281616,-0.1791698932647705,0.882685124874115,-0.7998838424682617,0.030354255810379982,-0.0496121309697628,-0.05790414288640022,0.31907153129577637,-0.18178465962409973,-0.7699193954467773,0.8042429685592651,1.402352213859558,-3.812832832336426,-0.003593113273382187,-0.017977453768253326,0.3900968134403229,3.0633065700531006,-2.2542924880981445,0.5764031410217285,6.16217565536499,-43.65681838989258,-23.895671844482422,-17.176782608032227,-30.0,-4.284895420074463,70.69823455810547,10.900575637817383,1.8753890991210938,30.0
0.58,1.0,0.0,0.0,0.39168521761894226,-0.219070166349411,0.890136182308197,1.0728029012680054,0.036325909197330475,0.10130402445793152,-0.20297284424304962,-0.07809104025363922,0.03876708447933197,-0.07539394497871399,-0.039283763617277145,-0.13307832181453705,0.7255585789680481,-0.7999773025512695,0.03005210869014263,-0.04288620874285698,-0.028616737574338913,0.32445016503334045,-0.16834938526153564,1.3806748390197754,-0.026694118976593018,2.4551756381988525,-9.620315551757812,-0.0015701637603342533,-0.1722353994846344,0.2430436760187149,0.568677544593811,1.4090180397033691,1.4126663208007812,6.164667129516602,-31.027971267700195,-17.881990432739258,-10.905799865722656,-30.0,-0.2447516918182373,51.2032585144043,6.39285945892334,11.966649055480957,30.0
0.6,1.0,0.0,0.0,0.41155436635017395,-0.2255537062883377,0.8918054699897766,1.0591281652450562,0.040677715092897415,-0.049924399703741074,-0.43051910400390625,0.2973846197128296,0.04986729472875595,0.000915575074031949,-0.032040152698755264,-0.07844381034374237,0.4706135392189026,-0.36757999658584595,0.03126620128750801,-0.03374622389674187,-0.05573991686105728,0.41601860523223877,-0.1537919044494629,4.862028121948242,0.4838598072528839,2.619027853012085,-12.901898384094238,20.61261749267578,0.11860661208629608,0.5397748351097107,-2.3156347274780273,6.243508815765381,1.645392656326294,2.8860244750976562,0.10332274436950684,-6.775643348693848,-0.7218017578125,-0.413787841796875,-0.7933174967765808,19.714860916137695,4.650243759155273,8.552228927612305,30.0
0.62,1.0,0.0,0.0,0.43155810236930847,-0.23188404738903046,0.8914050459861755,1.0534459352493286,0.058836277574300766,-0.06450420618057251,-0.2931954860687256,-0.16114667057991028,0.017117682844400406,0.019880572333931923,-0.02626660279929638,-0.02474937029182911,0.37026894092559814,-0.19917376339435577,0.0551016703248024,-0.030879834666848183,-0.07096437364816666,0.5040755867958069,-0.5310004949569702,0.03139295428991318,0.3565336763858795,4.153665065765381,-4.668117046356201,-0.21725600957870483,1.5532455444335938,-0.09433339536190033,0.09393525868654251,2.625739574432373,-18.27492332458496,3.3296141624450684,-12.205649375915527,-5.610274314880371,-33.090850830078125,30.0,2.987030506134033,-22.38737678527832,-2.154163122177124,-3.24367618560791,-0.22464752197265625
0.64,1.0,0.0,0.0,0.45153653621673584,-0.23716500401496887,0.8905539512634277,1.0273334980010986,0.04301195964217186,-0.13013450801372528,0.43689486384391785,0.2401900738477707,0.056997235864400864,0.019801074638962746,-0.02905847690999508,0.0119200823828578,0.35108262300491333,-0.22240373492240906,0.06694964319467545,-0.04938962310552597,-0.08028147369623184,0.5403602123260498,-0.7999999523162842,0.05390208214521408,-0.5779516696929932,0.8325725197792053,0.5626543164253235,-0.7534884214401245,0.1207793653011322,-1.6548956632614136,-0.9509811997413635,1.1547242403030396,-0.0014392640441656113,0.7517929673194885,-35.34891128540039,22.721649169921875,21.040422439575195,30.0,0.23325061798095703,-15.110555648803711,-19.094636917114258,-0.6141886711120605,-30.0
0.66,1.0,0.0,0.0,0.4707963466644287,-0.24165038764476776,0.8885592818260193,1.0280342102050781,0.04018784686923027,-0.16837947070598602,0.44162100553512573,0.5080857872962952,-0.08734849095344543,0.019663728773593903,-0.04064684361219406,-0.013734791427850723,0.43030843138694763,-0.23498742282390594,0.03654351830482483,-0.07606545090675354,-0.09553774446249008,0.5245542526245117,-0.7767910361289978,-0.0015356829389929771,-0.6994274854660034,-2.2002716064453125,5.616579532623291,-0.12557077407836914,-2.110901355743408,-1.1074079275131226,-0.4087088108062744,-0.7912628650665283,-9.25101089477539,4.35280704498291,-47.396881103515625,22.620052337646484,18.411527633666992,30.0,-2.814044952392578,26.890518188476562,-25.412097930908203,-38.412620544433594,30.0
0.68,1.0,0.0,0.0,0.48963800072669983,-0.24708639085292816,0.8849356770515442,1.0559154748916626,0.05701703578233719,-0.22570937871932983,-0.36557209491729736,0.6847512125968933,-0.11640104651451111,-0.004984131548553705,-0.047826386988162994,-0.09393933415412903,0.6342019438743591,-0.23797915875911713,-0.017430653795599937,-0.07119329273700714,-0.057053472846746445,0.3518443703651428,-0.22783511877059937,-1.6823252439498901,-0.27972841262817383,-4.467682361602783,11.588887214660645,0.3010418117046356,-0.33952796459198,0.4031623899936676,3.7844784259796143,-5.874086856842041,-4.1200079917907715,1.685776710510254,-26.170759201049805,4.925333023071289,8.290092468261719,0.23362159729003906,-19.066938400268555,97.78229522705078,-13.23617172241211,-64.65727233886719,30.0
0.7000000000000001,1.0,0.0,0.0,0.509310781955719,-0.25351065397262573,0.8852370381355286,1.036009430885315,-0.0037438925355672836,0.09418181329965591,-0.161188542842865,-0.24809861183166504,-0.01578352600336075,-0.03291556239128113,-0.058639515191316605,-0.12154440581798553,0.7451623678207397,-0.7999572157859802,-0.020217927172780037,-0.07142676413059235,0.012986627407371998,0.27333003282546997,-0.2447398602962494,-1.304461121559143,-0.21442198753356934,-0.3383113741874695,-0.16085799038410187,0.006241298280656338,0.21456943452358246,0.1819964349269867,4.478229522705078,-5.371156215667725,1.149191975593567,1.2380404472351074,7.648472309112549,-45.83309555053711,-23.542587280273438,-1.911651611328125,-19.30765724182129,61.21393966674805,42.86193084716797,-1.7820301055908203,30.0
0.72,1.0,0.0,0.0,0.5285161137580872,-0.2607054114341736,0.8872809410095215,1.0286983251571655,0.01018590573221445,0.04374149069190025,-0.6115065813064575,0.201112300157547,0.007115176413208246,-0.03562961891293526,-0.056548669934272766,-0.12298040091991425,0.6836044192314148,-0.7999374270439148,-0.02007121779024601,-0.06206579506397247,0.05376323312520981,0.24469125270843506,-0.23804114758968353,0.5109290480613708,0.34397783875465393,-0.13746318221092224,-4.41164493560791,2.292916178703308e-05,-0.15717853605747223,0.7209073901176453,0.8234922289848328,0.3263493776321411,0.8074895143508911,5.036250591278076,-11.419587135314941,-23.54365348815918,-11.217636108398438,-30.0,-2.7853784561157227,50.42164611816406,20.79886245727539,26.14602279663086,30.0
0.74,1.0,0.0,0.0,0.5469837784767151,-0.26798680424690247,0.8883446455001831,1.0202454328536987,-0.007880903780460358,-0.011345675215125084,-0.47579389810562134,0.35373038053512573,0.005435678642243147,0.023238232359290123,-0.048740994185209274,-0.10130953043699265,0.5132490992546082,-0.7372708916664124,-0.018518786877393723,-0.04822702705860138,0.03163423761725426,0.32235297560691833,-0.24031144380569458,4.116094589233398,0.2680349051952362,1.4814406633377075,-8.603860855102539,-22.758506774902344,0.08577480912208557,0.5969098210334778,-2.121427536010742,5.740498065948486,2.2241098880767822,3.4296741485595703,-0.5553274154663086,-11.634835243225098,-7.26458740234375,-0.6231026649475098,2.619474172592163,18.67683219909668,9.65371322631836,14.79670524597168,30.0
0.76,1.0,0.0,0.0,0.5653573274612427,-0.2750297784805298,0.8872630596160889,1.0114887952804565,0.013947551138699055,-0.07301360368728638,-0.5214048027992249,0.03770129382610321,-0.014529301784932613,0.06700464338064194,-0.04039841890335083,-0.05926009640097618,0.3331846296787262,-0.2176596224308014,0.0025745052844285965,-0.04114631190896034,-0.013529928401112556,0.4603606164455414,-0.34029799699783325,-0.28210577368736267,0.9035021066665649,3.8556361198425293,-5.5876054763793945,-1.4010412693023682,1.3349052667617798,0.2812941372394562,-1.8663628101348877,6.665407180786133,-4.823830604553223,9.982723236083984,-3.3768579959869385,6.002312660217285,-54.450294494628906,30.0,3.929365634918213,-20.964826583862305,-4.141762733459473,-0.5507278442382812,-0.07575035095214844
0.78,1.0,0.0,0.0,0.5844569802284241,-0.28114810585975647,0.8858002424240112,0.9956281781196594,0.01799488253891468,-0.04698498547077179,0.2912648916244507,0.1022292897105217,0.01164831593632698,0.06718473881483078,-0.039143215864896774,0.0027401347178965807,0.27070528268814087,-0.25161048769950867,0.036750487983226776,-0.054394546896219254,-0.03556887060403824,0.5430620908737183,-0.800000011920929,-0.051194291561841965,-0.2977336049079895,2.185609817504883,-3.188128709793091,6.857640743255615,1.7859801054000854,-1.2690834999084473,-1.1195491552352905,0.8813130855560303,-0.0677642971277237,2.426098585128784,-44.741397857666016,39.82798767089844,25.70661163330078,30.0,3.7402257919311523,-15.297740936279297,-40.05903625488281,-10.063810348510742,-30.0
0.8,1.0,0.0,0.0,0.6028996109962463,-0.285948783159256,0.8846471905708313,0.9864465594291687,-0.0012458848068490624,-0.10341610759496689,0.7212040424346924,0.5311344861984253,0.0224316269159317,0.06834131479263306,-0.05059420317411423,-0.002107725478708744,0.3141966462135315,-0.2750163674354553,0.051593117415905,-0.08093167096376419,-0.06330556422472,0.5216897130012512,-0.8000001311302185,-0.00830041989684105,-0.8672942519187927,-1.1255961656570435,3.441331148147583,-0.6982280611991882,0.14239376783370972,-1.401073932647705,-1.7038224935531616,-1.9806710481643677,-0.0032642243895679712,5.775661468505859,-67.02649688720703,33.508304595947266,29.304828643798828,30.0,-2.6942453384399414,27.448410034179688,-30.93968963623047,-12.430492401123047,-30.0
0.8200000000000001,1.0,0.0,0.0,0.6209231615066528,-0.2907002866268158,0.8824354410171509,1.0090608596801758,0.027617929503321648,-0.1530989706516266,0.007866810075938702,0.6145521998405457,-0.031115857884287834,0.07035746425390244,-0.06236090883612633,-0.05788884311914444,0.4416479468345642,-0.28545430302619934,0.009617003612220287,-0.09593602269887924,-0.08069712668657303,0.44130179286003113,-0.5659477710723877,-0.09474964439868927,-0.05056547373533249,-3.6424949169158936,7.9039716720581055,1.0260138511657715,-4.665049076080322,0.4315964877605438,0.19486239552497864,-2.9747135639190674,-67.70408630371094,0.4697307348251343,-51.53057861328125,16.369112014770508,16.186962127685547,30.0,-5.573299407958984,52.814151763916016,-22.118804931640625,-35.00550079345703,30.0
0.84,1.0,0.0,0.0,0.6395018100738525,-0.2964196801185608,0.8804295659065247,0.9892249703407288,-0.032431405037641525,0.0662204921245575,0.483220636844635,-0.1895597279071808,0.010713659226894379,0.038840871304273605,-0.06553719192743301,-0.10173140466213226,0.5835341215133667,-0.7170403003692627,-0.008268147706985474,-0.09556149691343307,-0.04268862307071686,0.3360157012939453,-0.29488295316696167,-2.075573682785034,-0.5950852036476135,-1.4181491136550903,6.236514568328857,-20.842388153076172,0.12955033779144287,-0.4915563464164734,3.2381410598754883,-4.417446613311768,7.434299945831299,-1.9365110397338867,2.423204183578491,-6.633716583251953,1.463653564453125,-0.5446624755859375,-8.218945503234863,63.1397705078125,8.983800888061523,-44.142913818359375,30.0
0.86,1.0,0.0,0.0,0.6586487889289856,-0.3033468425273895,0.8822049498558044,0.9915732741355896,-0.0011067891027778387,0.11185745149850845,-0.6345385313034058,-0.2793433368206024,-0.030265992507338524,0.004266530275344849,-0.05767061561346054,-0.12648944556713104,0.6635354161262512,-0.7998132705688477,-0.007197787053883076,-0.09260843694210052,0.031103096902370453,0.25884029269218445,-0.2838021218776703,-1.5693669319152832,1.2604379653930664,-1.4359986782073975,3.5815117359161377,-0.027011558413505554,-0.11625362187623978,0.8112885355949402,3.9767887592315674,-5.03734016418457,3.807936429977417,1.7712645530700684,6.5108795166015625,-20.566463470458984,-3.6368865966796875,-30.0,-12.319319725036621,81.31903076171875,16.800148010253906,1.4665279388427734,30.0
0.88,1.0,0.0,0.0,0.6775083541870117,-0.31094589829444885,0.8841792345046997,0.9911842942237854,-0.0004711688670795411,0.07227274775505066,-0.5836215615272522,-0.1432953029870987,-0.013449599035084248,-0.02143842726945877,-0.03991642966866493,-0.13358257710933685,0.646551787853241,-0.7999404072761536,-0.006245950702577829,-0.07800330966711044,0.08512744307518005,0.2155279815196991,-0.27010053396224976,-1.0530651807785034,0.6239920258522034,-0.168595090508461,-2.7572360038757324,0.0002252534031867981,-0.12182179093360901,0.7153152227401733,1.972939372062683,-1.104001760482788,1.2186943292617798,3.7009642124176025,-24.921161651611328,-25.921171188354492,-14.154898643493652,-30.0,-2.938443899154663,45.722503662109375,22.57750701904297,23.2025203704834,30.0
0.9,1.0,0.0,0.0,0.6959184408187866,-0.31826329231262207,0.8852640390396118,0.9938600063323975,-0.020045127719640732,-0.001973664853721857,-0.3479216694831848,0.07576609402894974,0.0008365738904103637,0.003153144381940365,-0.030334796756505966,-0.12272194027900696,0.5354475378990173,-0.7813785672187805,-0.002024916233494878,-0.06531079113483429,0.08312217891216278,0.2667657434940338,-0.26727455854415894,2.4049177169799805,0.24099500477313995,0.5078016519546509,-0.8284120559692383,-59.45917510986328,0.12224945425987244,0.47189784049987793,-1.1344300508499146,4.414989948272705,2.3830811977386475,4.266700744628906,-11.17201042175293,-13.639479637145996,-7.533782958984375,-30.0,0.6198967099189758,29.361867904663086,10.911100387573242,16.939626693725586,30.0
0.92,1.0,0.0,0.0,0.7142964601516724,-0.3248113989830017,0.8848028779029846,0.9789525866508484,-0.02898743748664856,-0.018980486318469048,0.24476702511310577,-0.09800606220960617,0.06825773417949677,0.0530557744204998,-0.033847056329250336,-0.07321424037218094,0.3683725893497467,-0.2474941462278366,0.015255122445523739,-0.06582824885845184,0.02581733465194702,0.42525166273117065,-0.24591581523418427,0.43220245838165283,-0.10567254573106766,4.307214736938477,-5.157998085021973,-1.8412340879440308,1.3922171592712402,-0.36532509326934814,-3.4207074642181396,9.103911399841309,3.674163579940796,15.780736923217773,-22.830814361572266,8.779842376708984,-52.45824432373047,30.0,5.34127140045166,-28.47153091430664,-4.818334579467773,10.2904052734375,16.84193992614746
0.9400000000000001,1.0,0.0,0.0,0.7332134246826172,-0.3305506706237793,0.8840081691741943,0.98833167552948,-0.0031985349487513304,-0.020568139851093292,0.4551302194595337,0.10595986992120743,-0.035738855600357056,0.0520692802965641,-0.042486026883125305,0.0010029772529378533,0.2870042622089386,-0.2829165756702423,0.059882935136556625,-0.07983314245939255,-0.022554315626621246,0.5586290955543518,-0.7362101674079895,-0.0016370341181755066,-0.5190913081169128,2.8445329666137695,-3.9872233867645264,4.445286750793457,2.4818954467773438,-0.920815110206604,-2.1793453693389893,4.099938869476318,-23.890064239501953,0.7532194256782532,-26.993648529052734,28.240345001220703,17.006120681762695,30.0,4.832779884338379,-10.817540168762207,-35.816253662109375,-18.84267234802246,-1.325836181640625
0.96,1.0,0.0,0.0,0.7517030239105225,-0.33557525277137756,0.8834646940231323,0.9785508513450623,-0.011082329787313938,-0.0630149394273758,0.6320726871490479,0.35767436027526855,0.06076093018054962,0.053176574409008026,-0.0544404573738575,0.01679227314889431,0.2964629530906677,-0.296651691198349,0.08615536987781525,-0.0967167317867279,-0.05768553167581558,0.5393962264060974,-0.7999999523162842,-0.0038830069825053215,-0.7380871176719666,0.01163475215435028,1.6135327816009521,-0.1370335817337036,0.6320723295211792,-0.7748389840126038,-1.9836632013320923,-2.3772811889648438,-0.0021279146894812584,2.6132254600524902,-54.69810485839844,35.00297927856445,31.14327049255371,30.0,-2.376563549041748,28.42102813720703,-33.5501708984375,-14.152181625366211,-30.0
0.98,1.0,0.0,0.0,0.7695565223693848,-0.34048330783843994,0.8817607164382935,0.9931478500366211,0.017477480694651604,-0.14766941964626312,0.04208455979824066,0.43476948142051697,-0.10414288192987442,0.05398513004183769,-0.06628405302762985,-0.02436201460659504,0.40051549673080444,-0.3107914626598358,0.04876880720257759,-0.10527960956096649,-0.0946929082274437,0.4722626507282257,-0.6969179511070251,0.1414828598499298,-0.04569444805383682,-2.5333240032196045,6.233482360839844,2.2290751934051514,-4.187015533447266,0.5863882899284363,0.44908106327056885,-3.6455464363098145,-75.80522918701172,2.283738851547241,-50.03219223022461,21.073654174804688,22.80596160888672,30.0,-3.415010452270508,40.03565979003906,-22.52384376525879,-36.87080383300781,30.0
1.0,1.0,0.0,0.0,0.787702202796936,-0.34638136625289917,0.8794696927070618,0.9593530893325806,-0.07418704777956009,0.1726149469614029,0.8063234090805054,-0.1726122349500656,-0.009415388107299805,0.021629268303513527,-0.06738917529582977,-0.07823048532009125,0.5674488544464111,-0.6068829894065857,0.018496278673410416,-0.10128193348646164,-0.06013043597340584,0.34234294295310974,-0.30395203828811646,-2.1192777156829834,-1.009270191192627,-2.342203378677368,8.53305435180664,-14.462325096130371,-0.3409726619720459,-0.5833754539489746,1.7013812065124512,-4.149639129638672,20.56243324279785,-1.0091514587402344,-2.2371301651000977,-8.909597396850586,1.9567527770996094,-0.43341064453125,-30.00848388671875,70.75775909423828,-0.2874946594238281,-35.018211364746094,30.0
1.02,1.0,0.0,0.0,0.8067286610603333,-0.3535820543766022,0.8827955722808838,0.9813310503959656,0.002666151151061058,0.1739245355129242,-0.8798021674156189,-0.3917894959449768,0.011770619079470634,-0.004476729780435562,-0.0596751905977726,-0.09765724837779999,0.6508305668830872,-0.7998256683349609,0.020762590691447258,-0.09796467423439026,0.00814898032695055,0.2787235975265503,-0.27073660492897034,-1.0664268732070923,1.6404480934143066,-1.0242377519607544,2.391061544418335,-0.005173332989215851,0.19230665266513824,1.1465880870819092,4.345656394958496,-4.826198101043701,0.7001783847808838,2.8706870079040527,5.838821887969971,-30.50604248046875,-8.811613082885742,-30.0,-19.838647842407227,94.33833312988281,19.270845413208008,-1.7246875762939453,30.0
1.04,1.0,0.0,0.0,0.8254075646400452,-0.36146649718284607,0.8856232762336731,0.9766424298286438,-0.010443559847772121,0.11944163590669632,-0.548111617565155,-0.20950129628181458,-0.01620262674987316,-0.030110979452729225,-0.0424000509083271,-0.10564427822828293,0.6257935166358948,-0.7999381422996521,0.021585721522569656,-0.07983407378196716,0.06816722452640533,0.22548888623714447,-0.25414034724235535,-1.217150092124939,0.26910409331321716,-0.41012895107269287,-2.844494581222534,-0.0014625564217567444,-0.014842569828033447,0.741129994392395,2.2590253353118896,-1.648767113685608,2.725259304046631,4.9308881759643555,-36.40928268432617,-31.51621437072754,-15.142176628112793,-30.0,-5.425947189331055,47.78041458129883,28.56018829345703,27.28497314453125,30.0
1.06,1.0,0.0,0.0,0.8435873985290527,-0.3688828945159912,0.8874119520187378,0.9753665924072266,-0.02352219447493553,0.06316903233528137,-0.46934351325035095,0.12219448387622833,-0.04660588875412941,-0.003093794686719775,-0.03888128697872162,-0.09961175173521042,0.5052226781845093,-0.7999740839004517,0.024960240349173546,-0.06659596413373947,0.06965842097997665,0.2692743241786957,-0.24350279569625854,1.967787504196167,0.2821193337440491,-0.733500599861145,-0.6087470054626465,-0.01297760009765625,0.23572275042533875,0.6456700563430786,-1.1476601362228394,4.5145697593688965,2.275890588760376,5.101673126220703,-13.190162658691406,-16.468460083007812,-8.222480773925781,-30.0,-1.72552490234375,33.36304473876953,12.635242462158203,20.78881072998047,30.0
1.08,1.0,0.0,0.0,0.8617072701454163,-0.3759846091270447,0.8877965211868286,0.9817158579826355,-0.009458792395889759,0.035809606313705444,-0.3862342834472656,-0.06266569346189499,-0.03150403872132301,0.05458574742078781,-0.03425464406609535,-0.06158412620425224,0.35829436779022217,-0.21792413294315338,0.04037002846598625,-0.057668302208185196,0.021762270480394363,0.41564810276031494,-0.2238619327545166,0.47413554787635803,0.682457447052002,3.617717981338501,-4.425386428833008,-0.06147700548171997,1.1577404737472534,0.5009336471557617,-2.802093505859375,8.05357551574707,3.170022964477539,16.77680778503418,-18.808931350708008,-1.9182028770446777,-68.96378326416016,30.0,2.907526969909668,-14.015837669372559,2.619424819946289,11.387653350830078,14.933919906616211
1.1,1.0,0.0,0.0,0.8805450797080994,-0.3822934329509735,0.8880152106285095,0.985750675201416,-0.013858973979949951,-0.008160727098584175,0.4815913140773773,-0.03184551000595093,-0.001988617703318596,0.05472332611680031,-0.03354155272245407,0.010030029341578484,0.27963176369667053,-0.22666597366333008,0.07440284639596939,-0.06504524499177933,-0.017127353698015213,0.5446829795837402,-0.7069563269615173,0.09935033321380615,-0.506524384021759,3.554377794265747,-4.040274620056152,0.07456499338150024,1.9118456840515137,-1.2477052211761475,-1.7158207893371582,4.33949613571167,-23.507972717285156,-1.1683409214019775,-35.654327392578125,29.589439392089844,15.479564666748047,30.0,5.8483381271362305,-23.210988998413086,-32.3693733215332,-15.73408317565918,-1.1094589233398438
1.12,1.0,0.0,0.0,0.8990755677223206,-0.3875004053115845,0.8873774409294128,0.9769684076309204,-0.016765084117650986,-0.054506003856658936,0.631074845790863,0.33029818534851074,0.024853356182575226,0.05617792159318924,-0.04613928496837616,0.03720492497086525,0.27137139439582825,-0.24426628649234772,0.1001288965344429,-0.08903463184833527,-0.04701993986964226,0.5397825241088867,-0.7999999523162842,-0.037325650453567505,-0.7265546321868896,0.3129996061325073,1.078017234802246,-0.08175712823867798,0.8304597735404968,-1.1247154474258423,-1.8220664262771606,-1.5605348348617554,-0.00505933677777648,4.026928901672363,-48.20536422729492,37.2881965637207,33.1306266784668,30.0,-1.3910727500915527,22.277873992919922,-35.65443801879883,-14.069709777832031,-30.0
1.1400000000000001,1.0,0.0,0.0,0.9168016910552979,-0.39253658056259155,0.885409951210022,0.982516884803772,0.0038699249271303415,-0.15194739401340485,0.22785842418670654,0.6133524775505066,-0.09473145008087158,0.05654456838965416,-0.05770549550652504,-0.00020342071366030723,0.3678475618362427,-0.2640048861503601,0.06651148945093155,-0.10239435732364655,-0.07725651562213898,0.46746599674224854,-0.8004493117332458,0.0817209929227829,-0.33604249358177185,-2.4659056663513184,5.988030910491943,2.04934024810791,-3.139073371887207,0.09262853860855103,-0.39579376578330994,-2.4286303520202637,-48.426124572753906,5.285045146942139,-53.7022819519043,29.221786499023438,25.252010345458984,30.0,-3.313953399658203,39.00196838378906,-26.718891143798828,-49.73453140258789,30.0
1.16,1.0,0.0,0.0,0.9345352053642273,-0.3983146846294403,0.8831083178520203,0.9411064982414246,-0.07969047874212265,0.20341144502162933,1.1969810724258423,-0.11007925868034363,0.030299482867121696,0.023918231949210167,-0.06796369701623917,-0.067763552069664,0.5661153793334961,-0.41156625747680664,0.00780924828723073,-0.09835352003574371,-0.04839092120528221,0.29689255356788635,-0.2842170298099518,-2.1015477180480957,-1.9387609958648682,-3.0586767196655273,10.283620834350586,-7.3740105628967285,3.7280094623565674,-1.318089485168457,2.385956287384033,-6.438175678253174,29.08647346496582,0.40198230743408203,-14.454999923706055,-7.695384979248047,1.9293556213378906,-0.19638442993164062,-22.756139755249023,86.10255432128906,9.58133316040039,-58.243961334228516,30.0
1.18,1.0,0.0,0.0,0.0,0.0,0.9300000071525574,-0.2208615243434906,-0.42801281809806824,-0.020889483392238617,0.6362705230712891,-0.3095996677875519,0.35571518540382385,0.03838711231946945,-0.1936192661523819,-0.06425169110298157,0.7487552165985107,0.2750775218009949,-0.05437271296977997,0.1525784283876419,-0.3871217966079712,0.6284936666488647,-0.014109253883361816,0.007753491401672363,-0.02477593719959259,0.08569364994764328,0.016937993466854095,0.06255979090929031,0.08344785124063492,-0.035817645490169525,-0.07761549949645996,-0.004244312644004822,0.09955794364213943,4.780942440032959,6.4601287841796875,-56.607669830322266,-17.221967697143555,-30.0,-24.916183471679688,97.09095001220703,43.91941452026367,15.897984504699707,30.0
1.2,1.0,0.0,0.0,-0.005746245384216309,-0.006573175545781851,0.9241158962249756,-0.05173245072364807,-0.33993494510650635,-0.3498142957687378,-0.7183570265769958,2.5621109008789062,0.39986753463745117,0.10098136961460114,-0.17991405725479126,-0.07692195475101471,0.767476499080658,-0.6857840418815613,0.004030575044453144,0.1885850727558136,-0.5069074034690857,0.8144267201423645,-0.8000004887580872,4.6270647048950195,0.8063363432884216,-0.8798943161964417,-1.713404893875122,-48.0511589050293,3.7322885990142822,3.421421527862549,-9.217944145202637,7.982835292816162,0.0014450366143137217,13.56551742553711,-52.218238830566406,11.088315963745117,-12.939918518066406,-30.0,7.669586181640625,84.83819580078125,-65.87567138671875,-21.775718688964844,-1.147552490234375
1.22,1.0,0.0,0.0,-0.012005210854113102,-0.011779551394283772,0.9110856056213379,-0.0037477926816791296,-0.20134076476097107,-0.7551684379577637,-0.6384801268577576,3.147855520248413,-0.1924130767583847,0.16696973145008087,-0.16204150021076202,-0.1185452938079834,0.6122727394104004,-0.8000760078430176,0.09693495184183121,0.20871742069721222,-0.7944496870040894,1.2964694499969482,-0.800000011920929,2.55124831199646,0.9465091228485107,-3.028548240661621,-9.328964233398438,0.0025258217938244343,4.7913689613342285,-1.2763203382492065,-15.205221176147461,30.678173065185547,1.6358415450667962e-05,3.128763198852539,69.26995849609375,-82.98859405517578,-31.094310760498047,-30.0,-19.49928092956543,-110.32122039794922,75.06143951416016,65.29168701171875,-30.0
1.24,1.0,0.0,0.0,-0.017088983207941055,-0.013951897621154785,0.8967235088348389,0.04357662424445152,-0.04428941011428833,-0.7666319012641907,0.16376735270023346,2.2955093383789062,0.20869560539722443,0.17806947231292725,-0.14947134256362915,-0.20215457677841187,0.44764444231987,-0.6655505895614624,0.14345209300518036,0.13665641844272614,-0.9738535284996033,1.7710126638412476,-0.8000000715255737,3.312389850616455,-1.212723970413208,1.6176073551177979,-7.146402359008789,4.151819229125977,0.9652231931686401,-4.518455982208252,-2.2485103607177734,13.247283935546875,-0.5453079342842102,18.28670310974121,103.99202728271484,-117.89497375488281,-166.71444702148438,30.0,-39.690242767333984,-126.85621643066406,102.00682830810547,46.83711242675781,-30.0
1.26,1.0,0.0,0.0,-0.02104973793029785,-0.011463775299489498,0.884789764881134,-0.006801598705351353,0.06572901457548141,-0.48340949416160583,1.0606555938720703,2.1734659671783447,-0.12063128501176834,0.1027718037366867,-0.16115248203277588,-0.3543671667575836,0.6063343286514282,-0.8001244068145752,0.18472017347812653,-0.05142636224627495,-0.9225980639457703,2.000123977661133,-0.7999999523162842,-8.691306114196777,-0.5010125041007996,-7.573084831237793,4.723506927490234,-18.780858993530273,2.285160541534424,-14.573683738708496,8.973180770874023,-0.7385081052780151,-0.0019658373203128576,0.7848644256591797,112.42852020263672,-125.35435485839844,-70.72732543945312,-30.0,-40.91877746582031,-105.48129272460938,116.084716796875,47.803802490234375,-30.0
1.28,1.0,0.0,0.0,-0.023136164993047714,-0.007704056799411774,0.8715329170227051,-0.007340727373957634,0.04155838117003441,-0.8083844780921936,0.9470601081848145,0.49808400869369507,-0.130788654088974,-0.015148768201470375,-0.16993694007396698,-0.5058794021606445,0.7496994733810425,-0.8000195622444153,0.1625463217496872,-0.25939440727233887,-0.6809532642364502,2.0000112056732178,-0.7999999523162842,-4.629487991333008,-0.7197993397712708,-7.319148063659668,8.518604278564453,-0.008606873452663422,-3.738436460494995,-8.200939178466797,13.957313537597656,-0.0590268149971962,-5.423314723884687e-05,1.8395709991455078,-32.58794021606445,-31.988147735595703,-3.0332107543945312,-30.0,-36.814781188964844,34.083091735839844,53.45805358886719,82.81063842773438,-30.0
1.3,1.0,0.0,0.0,-0.02248561568558216,-0.006464182399213314,0.8541907668113708,0.02686578594148159,0.03944694623351097,-0.9300246834754944,-0.8948286175727844,-0.3329499065876007,-0.010953227058053017,-0.060813434422016144,-0.1750965714454651,-0.6052722930908203,0.8804296255111694,-0.7999460697174072,0.052798520773649216,-0.34122076630592346,-0.40435275435447693,1.843473196029663,-0.7999998927116394,-1.267056941986084,0.032414957880973816,-3.838181972503662,5.843128681182861,-0.0004227554309181869,-6.672450542449951,-1.0821924209594727,12.947782516479492,-11.818487167358398,-2.1345113054849207e-07,-14.802391052246094,-47.283260345458984,17.929397583007812,6.917915344238281,-30.0,12.33055305480957,99.7091293334961,-33.05327224731445,-31.813190460205078,-30.0
1.32,1.0,0.0,0.0,-0.020172132179141045,-0.008180166594684124,0.8355605006217957,0.1855236291885376,0.051304012537002563,-0.9723315834999084,-1.70782470703125,0.6299716234207153,0.2980140149593353,-0.037930671125650406,-0.19890020787715912,-0.6655279994010925,1.0055404901504517,-0.7999153137207031,-0.11160622537136078,-0.34202560782432556,-0.13180924952030182,1.276167631149292,-0.7999998331069946,1.994238018989563,-1.7514604330062866,-3.084719657897949,6.556924343109131,-0.00039986419142223895,-8.898126602172852,1.4548709392547607,13.465291976928711,-38.361846923828125,-6.408037734217942e-06,-17.98408317565918,-50.282447814941406,28.13506507873535,13.955631256103516,-24.6640625,17.078777313232422,102.76560974121094,-76.38414764404297,-87.45468139648438,-30.0
1.34,1.0,0.0,0.0,-0.020050324499607086,-0.013127081096172333,0.8113853931427002,0.4446326196193695,0.11715997755527496,-1.4343746900558472,-3.616985321044922,4.389828681945801,1.44098961353302,0.028604459017515182,-0.2284342497587204,-0.7823934555053711,1.2291643619537354,-0.799916684627533,-0.3822920322418213,-0.28792500495910645,0.09331192076206207,0.38962414860725403,-0.7999999523162842,4.251603603363037,-1.4962419271469116,-7.512506484985352,13.165778160095215,-0.0002549109631218016,-15.315072059631348,4.853393077850342,9.207056999206543,-45.81209945678711,-5.2666073315776885e-06,-0.7139778137207031,-11.480177879333496,44.517608642578125,24.83728790283203,-30.0,21.434757232666016,66.0473861694336,-101.79534912109375,-47.87583923339844,-30.0
1.36,1.0,0.0,0.0,-0.009587479755282402,-0.014105797745287418,0.812466561794281,0.6762595772743225,-0.017773780971765518,0.21159550547599792,-0.9030678272247314,-0.2769365906715393,-0.46145784854888916,0.03323657810688019,-0.2832399904727936,-0.8037582039833069,1.4424564838409424,-0.7999776601791382,-0.37770333886146545,-0.3108174800872803,0.01161277201026678,0.5038740634918213,-0.6419193744659424,-2.398730754852295,3.0165913105010986,-0.7957921624183655,12.02846908569336,-0.04227183759212494,1.9020916223526,1.2917193174362183,5.245815753936768,-6.641586780548096,7.781710624694824,14.132979393005371,87.4663314819336,-3.2570929527282715,17.21713638305664,-30.0,-30.349218368530273,73.92059326171875,-18.6772518157959,-88.28424072265625,-30.0
1.3800000000000001,1.0,0.0,0.0,0.007456275634467602,-0.019403893500566483,0.8227252960205078,0.940798282623291,0.03348778933286667,0.7549222111701965,-2.134904623031616,-0.3221141993999481,-0.02651912160217762,-0.08130866289138794,-0.16768325865268707,-0.7532404065132141,1.4833142757415771,-0.799996554851532,-0.340345561504364,-0.27647992968559265,0.15881270170211792,0.2988908290863037,-0.47693416476249695,-7.594196796417236,7.924091815948486,4.021444797515869,-3.611701250076294,0.004407095722854137,0.06968605518341064,2.173994302749634,9.870437622070312,-15.017991065979004,5.656120300292969,3.314239501953125,35.33985900878906,-29.578956604003906,-36.22315979003906,-30.0,-77.6606674194336,98.94578552246094,1.1046485900878906,-89.8283462524414,16.274734497070312
1.4000000000000001,1.0,0.0,0.0,0.026505740359425545,-0.023317644372582436,0.8370074033737183,0.8761691451072693,0.040735553950071335,0.7469729781150818,-0.39877429604530334,-0.6371909976005554,-0.2188016176223755,-0.17282931506633759,-0.08746878057718277,-0.613976001739502,1.3117399215698242,-0.7999815344810486,-0.2794027626514435,-0.24711549282073975,0.24627229571342468,0.2179793119430542,-0.3173291087150574,-2.7831854820251465,1.5338730812072754,8.67077350616455,-11.344443321228027,-0.006203302647918463,4.651315689086914,0.8620520830154419,1.5452935695648193,1.2476763725280762,8.911547660827637,4.741445541381836,-21.021709442138672,33.11452102661133,-7.823932647705078,-30.0,30.01970672607422,-17.67466163635254,-33.327247619628906,18.91158103942871,30.0
1.42,1.0,0.0,0.0,0.046402834355831146,-0.02541462704539299,0.8512519598007202,0.92740797996521,0.039868440479040146,0.7066933512687683,-0.11674369126558304,-0.7461065649986267,-0.12395656853914261,-0.1707976758480072,-0.07490196824073792,-0.3810136616230011,0.9558041095733643,-0.7999817728996277,-0.20275156199932098,-0.23309485614299774,0.2299070507287979,0.3266502618789673,-0.15190203487873077,2.009019613265991,0.2973705232143402,13.111937522888184,-20.78957748413086,-0.013314849697053432,3.2516210079193115,0.5189779996871948,-2.4262945652008057,7.9198784828186035,12.535574913024902,10.266749382019043,12.498504638671875,34.96661376953125,2.9947052001953125,-30.0,14.327693939208984,1.0948424339294434,-46.084022521972656,-7.801631927490234,30.0
1.44,1.0,0.0,0.0,0.06632360816001892,-0.026480652391910553,0.8611682057380676,0.9616347551345825,-0.011650804430246353,0.37103694677352905,1.4387785196304321,0.0049133626744151115,0.24866032600402832,-0.09198371320962906,-0.09887668490409851,-0.13257236778736115,0.5412362217903137,-0.3569057583808899,-0.11704915016889572,-0.23358313739299774,0.14514213800430298,0.5356627106666565,-0.10579963028430939,4.538488864898682,-2.290759325027466,11.75041389465332,-18.515426635742188,21.123899459838867,4.883785247802734,-0.5440626740455627,-5.228539943695068,10.42010498046875,2.1019389629364014,-3.0759029388427734,-44.55781173706055,34.49336242675781,24.370040893554688,1.642181396484375,11.002355575561523,12.0155611038208,-48.58158874511719,-17.819259643554688,-1.275822639465332
1.46,1.0,0.0,0.0,0.08489670604467392,-0.026909008622169495,0.8661538362503052,0.9410296678543091,-0.0008101792773231864,0.24668774008750916,1.3218412399291992,0.48474937677383423,-0.16841012239456177,-0.02791690267622471,-0.13450278341770172,0.04327518492937088,0.2558097243309021,-0.28537943959236145,0.007170337717980146,-0.23052430152893066,0.036464184522628784,0.7840057611465454,-0.8000008463859558,3.2985639572143555,-1.5754928588867188,7.517914295196533,-13.056558609008789,4.103109359741211,6.588804244995117,0.5376622676849365,-5.1046366691589355,8.391106605529785,-2.2930634021759033,14.205427169799805,-55.93742370605469,18.133792877197266,26.645401000976562,30.0,-6.986259460449219,44.35102844238281,-17.237794876098633,-10.505207061767578,-0.486083984375
1.48,1.0,0.0,0.0,0.10239414125680923,-0.02766840159893036,0.8698514103889465,0.8980912566184998,0.005514670163393021,0.1999242603778839,0.944884181022644,0.3785543739795685,-0.007583822123706341,-0.014760584570467472,-0.16872255504131317,0.10745230317115784,0.16323597729206085,-0.23529447615146637,0.10870444029569626,-0.20126013457775116,-0.05504784360527992,0.8526462912559509,-0.7999999523162842,0.28826552629470825,-1.8833132982254028,1.4882533550262451,-0.6093869209289551,3.406877040863037,3.7869856357574463,2.5165257453918457,-4.267496585845947,0.9183245897293091,-1.3851374205842149e-05,8.456192970275879,-98.11441040039062,38.286869049072266,43.80298614501953,30.0,-22.198040008544922,99.32518005371094,-23.666709899902344,-17.10272216796875,-30.0
1.5,1.0,0.0,0.0,0.11983422189950943,-0.028847642242908478,0.8727604746818542,0.8904843926429749,0.052507445216178894,0.16789130866527557,0.48660901188850403,0.3196251690387726,-0.01952267996966839,0.003311134409159422,-0.19281689822673798,0.09474996477365494,0.2274927794933319,-0.2071084976196289,0.1047203317284584,-0.1485339254140854,-0.12261979281902313,0.7347451448440552,-0.800000011920929,1.8636305332183838,-0.5986954569816589,-1.6811078786849976,5.141647815704346,2.357736825942993,-2.6192948818206787,3.208505868911743,-3.09710693359375,-9.090718269348145,3.9820015445002355e-06,10.481391906738281,-49.58036422729492,28.048751831054688,37.9539794921875,30.0,-12.107173919677734,46.8919563293457,-29.34886932373047,-19.300334930419922,-30.0
1.52,1.0,0.0,0.0,0.13710390031337738,-0.03027603030204773,0.8726643323898315,0.9299495816230774,0.06261526793241501,-0.07860000431537628,0.1640598326921463,0.40967610478401184,0.07666611671447754,0.014959054999053478,-0.20120573043823242,0.014724942855536938,0.48215624690055847,-0.7436410188674927,0.015011205337941647,-0.09414681047201157,-0.15871483087539673,0.5136925578117371,-0.6175194978713989,0.24929910898208618,0.1860077977180481,-4.177427291870117,13.546998977661133,-25.74994659423828,-6.935587406158447,2.901923656463623,-0.7616622447967529,-5.924783229827881,-68.10503387451172,-4.253273963928223,22.917638778686523,-0.10655784606933594,3.7092514038085938,0.55865478515625,-1.4719047546386719,-17.649211883544922,-6.238393783569336,-14.898704528808594,30.0
1.54,1.0,0.0,0.0,0.1556304693222046,-0.03230328857898712,0.8736835718154907,0.9445589184761047,0.022183308377861977,0.26207834482192993,0.19661042094230652,-0.1658068299293518,-0.07801163196563721,0.025622406974434853,-0.1762440949678421,-0.04069996252655983,0.6461408138275146,-0.7998868823051453,0.004397398326545954,-0.09554637223482132,-0.12886843085289001,0.43652209639549255,-0.3566712439060211,0.5649839639663696,2.4768950939178467,-2.8267221450805664,7.8418731689453125,0.001685015857219696,0.8478683233261108,-0.25550228357315063,4.396494388580322,-5.449458122253418,0.840796709060669,-5.70422887802124,81.70616912841797,-28.48305892944336,-4.030773162841797,-30.0,-23.467487335205078,10.028762817382812,21.508697509765625,-73.93184661865234,30.0
1.56,1.0,0.0,0.0,0.1755407303571701,-0.03610045835375786,0.8792546987533569,0.9191055297851562,0.024678541347384453,0.3516390025615692,-0.49199870228767395,-0.9204318523406982,-0.0325021855533123,-0.028725018724799156,-0.12121444195508957,-0.07446108758449554,0.7040315270423889,-0.7998023629188538,0.005500966217368841,-0.09257776290178299,-0.019677139818668365,0.30564773082733154,-0.32260772585868835,-4.015478134155273,3.3157005310058594,-1.4616639614105225,0.8683892488479614,-0.039779722690582275,0.1072152704000473,0.6947692632675171,6.554563045501709,-8.748794555664062,5.9935526847839355,1.9864273071289062,6.674081802368164,-49.742774963378906,-18.752159118652344,-30.0,-19.852697372436523,66.80912780761719,55.609745025634766,13.595394134521484,30.0
1.58,1.0,0.0,0.0,0.19527849555015564,-0.04018238186836243,0.8846481442451477,0.9174090623855591,0.02126280777156353,0.2621608078479767,-0.16580356657505035,-0.6156426072120667,-0.016613641753792763,-0.10014412552118301,-0.06804382055997849,-0.08876504749059677,0.6509204506874084,-0.7999125123023987,0.009666088037192822,-0.0845782533288002,0.06665121018886566,0.21552275121212006,-0.26523852348327637,-3.0533053874969482,2.092933177947998,-0.6348567008972168,-4.146874904632568,-0.005454026162624359,0.3346902132034302,0.21440386772155762,3.153958320617676,-2.3429718017578125,4.846961975097656,9.898025512695312,-40.71023941040039,-31.227767944335938,-14.405590057373047,-30.0,-8.03554916381836,52.780616760253906,28.67201042175293,31.33004379272461,30.0
1.6,1.0,0.0,0.0,0.21427984535694122,-0.04366438835859299,0.888637125492096,0.925984799861908,0.01508384756743908,0.1887626200914383,0.023007450625300407,-0.205332413315773,-0.01899835281074047,-0.09524606168270111,-0.030238831415772438,-0.09274891763925552,0.5276374220848083,-0.7999341487884521,0.019344940781593323,-0.08259951323270798,0.08059784770011902,0.24499915540218353,-0.2144593745470047,1.8681213855743408,1.5753859281539917,-0.2163279801607132,-6.844686985015869,-0.0019039511680603027,0.8594138026237488,0.06457275152206421,-0.6304625272750854,4.146461486816406,2.4776909351348877,8.042400360107422,-28.46280288696289,-9.504925727844238,-3.9084129333496094,-30.0,-3.7395873069763184,49.75621795654297,4.047891139984131,13.334190368652344,30.0
1.62,1.0,0.0,0.0,0.23293878138065338,-0.04670799523591995,0.891031801700592,0.9392681121826172,0.009430276229977608,0.0943470448255539,0.2634052336215973,-0.02842267043888569,-0.013135688379406929,0.004508323967456818,-0.00809495896100998,-0.08740358054637909,0.33632636070251465,-0.3883661925792694,0.03857078775763512,-0.08410176634788513,0.043482404202222824,0.3577152192592621,-0.17830970883369446,6.1624650955200195,0.5666837096214294,0.29986852407455444,-7.878048896789551,-6.081763744354248,0.6097447872161865,-0.31342411041259766,-2.681885242462158,7.2657647132873535,3.9975194931030273,2.6383628845214844,-17.358257293701172,3.892366647720337,0.56317138671875,-30.0,3.7363758087158203,34.732051849365234,-8.380433082580566,1.6766090393066406,30.0
1.6400000000000001,1.0,0.0,0.0,0.2520904242992401,-0.04953077808022499,0.8921158313751221,0.9390532970428467,0.06509727239608765,0.0899483859539032,-0.16839759051799774,-0.5116751790046692,0.038183294236660004,0.03945774585008621,-0.00667768158018589,-0.06261978298425674,0.28019872307777405,-0.1821201741695404,0.07796069234609604,-0.08086337149143219,0.02096840925514698,0.4499927759170532,-0.3674522936344147,-0.28316763043403625,0.20405693352222443,3.2967770099639893,-2.661262273788452,0.5397174954414368,2.36621356010437,0.6072824001312256,-0.45938023924827576,2.8885295391082764,-9.2960205078125,8.982295036315918,-15.343347549438477,6.8541364669799805,-29.038232803344727,30.0,2.583756446838379,1.6584266424179077,-14.87625503540039,-8.22234058380127,-0.64007568359375
1.6600000000000001,1.0,0.0,0.0,0.27118659019470215,-0.05176051706075668,0.8929005861282349,0.9531927704811096,0.029317840933799744,0.03206998482346535,0.7074177265167236,0.2263515442609787,-0.03905240818858147,0.040904320776462555,-0.013566798530519009,-0.03483876585960388,0.2798978090286255,-0.1904604434967041,0.09980721026659012,-0.08338937908411026,-0.0011972615029662848,0.4863099157810211,-0.800000011920929,-0.16422756016254425,-0.9108028411865234,0.3580828905105591,1.5519860982894897,0.7799572944641113,0.545078456401825,-0.7441794276237488,-1.8327280282974243,-0.36977750062942505,-7.4782437877729535e-06,12.219925880432129,-68.87940979003906,36.783321380615234,27.477619171142578,30.0,0.09545612335205078,8.444680213928223,-43.67618179321289,-6.789159297943115,-30.0
1.68,1.0,0.0,0.0,0.2891344726085663,-0.053467776626348495,0.8924809098243713,0.9470636248588562,0.028901994228363037,-0.03208845853805542,0.53978431224823,0.6704149842262268,-0.038446106016635895,0.04265391081571579,-0.029279623180627823,-0.07728657871484756,0.3817749321460724,-0.20006024837493896,0.07454336434602737,-0.08753565698862076,-0.03920992091298103,0.414752721786499,-0.8000003099441528,0.045147061347961426,-0.7910802960395813,-3.4015440940856934,7.525748252868652,0.5068204402923584,-2.2167272567749023,0.3603780269622803,-2.207179546356201,-4.956361293792725,0.005089380778372288,5.3703484535217285,-62.031497955322266,35.625572204589844,29.35354232788086,30.0,-4.0782470703125,44.769622802734375,-36.529869079589844,-15.8326416015625,-30.0
1.7,1.0,0.0,0.0,0.30745047330856323,-0.055838100612163544,0.8896355032920837,0.9584094882011414,0.04732111096382141,-0.17807407677173615,0.0025815535336732864,0.14021971821784973,0.1086307168006897,0.026768870651721954,-0.04091859981417656,-0.13547207415103912,0.5691172480583191,-0.5637887716293335,0.011532562784850597,-0.0705501139163971,-0.028006989508867264,0.18831031024456024,-0.17413532733917236,-1.155646562576294,-0.39147576689720154,-2.567206621170044,9.082562446594238,-17.393749237060547,-3.678663492202759,1.0882326364517212,1.0832463502883911,-5.95371150970459,1.7683098316192627,-0.5267953872680664,-14.428398132324219,3.9327611923217773,2.8074874877929688,0.13144683837890625,-6.607046127319336,51.24336624145508,-7.938222885131836,-13.188003540039062,-1.449981689453125
1.72,1.0,0.0,0.0,0.3271194100379944,-0.05865434184670448,0.8891974687576294,0.9624538421630859,0.03307114914059639,0.0723472312092781,-0.16125984489917755,-0.45811814069747925,-0.04486255720257759,0.005988700315356255,-0.04981963708996773,-0.1475868672132492,0.6565266847610474,-0.799689769744873,0.010583024471998215,-0.0761510580778122,0.031022386625409126,0.14585621654987335,-0.1917996108531952,-1.0970146656036377,0.24505193531513214,-0.37149614095687866,2.5717673301696777,-0.059220314025878906,0.12914961576461792,0.16593746840953827,4.505035877227783,-5.656432628631592,4.179666519165039,-0.2244429588317871,14.082300186157227,-16.918649673461914,-2.6162214279174805,-30.0,-7.372480869293213,73.92498016357422,5.882392883300781,-8.28458023071289,30.0
1.74,1.0,0.0,0.0,0.3467165529727936,-0.06261765956878662,0.8899314403533936,0.9572914242744446,0.03608587756752968,0.03165686875581741,-0.5076224207878113,-0.2858180105686188,0.0050109270960092545,-0.018280234187841415,-0.041994787752628326,-0.1428087055683136,0.6472904682159424,-0.7998847961425781,0.01128244586288929,-0.06852999329566956,0.09543263167142868,0.08816275745630264,-0.17759506404399872,-1.1891592741012573,0.5806756615638733,0.3045128881931305,-1.7668540477752686,0.0004718489944934845,-0.22162002325057983,0.603951096534729,2.4863107204437256,-1.8656049966812134,1.3691470623016357,1.5678458213806152,-7.153631210327148,-18.60396385192871,-9.323404312133789,-30.0,1.1155641078948975,44.83061218261719,16.609344482421875,24.732864379882812,30.0
1.76,1.0,0.0,0.0,0.3657280504703522,-0.06681890040636063,0.889992356300354,0.9590901136398315,0.021239416673779488,-0.007172730751335621,-0.44072651863098145,-0.01304926909506321,-0.013677392154932022,-0.003910422790795565,-0.031840529292821884,-0.12067621946334839,0.5452072620391846,-0.7999742031097412,0.0118637103587389,-0.057790014892816544,0.10877235233783722,0.11867355555295944,-0.19507931172847748,1.6040668487548828,0.48309776186943054,1.2353241443634033,-6.402746200561523,-0.0008027143776416779,-0.20971283316612244,0.5272489786148071,-0.4172954559326172,3.304421901702881,1.0661808252334595,3.518697738647461,-5.712669849395752,-12.099401473999023,-7.088991165161133,-30.0,3.892571449279785,27.808128356933594,8.556964874267578,22.882335662841797,30.0
1.78,1.0,0.0,0.0,0.38420340418815613,-0.07102731615304947,0.8891240954399109,0.9554122686386108,-0.001188774942420423,-0.062285687774419785,-0.2563357949256897,0.17635290324687958,0.00458651315420866,0.07611382752656937,-0.021509084850549698,-0.0814436823129654,0.33409610390663147,-0.3116614818572998,0.014114628545939922,-0.04890644550323486,0.069138303399086,0.23925679922103882,-0.22594194114208221,4.878367900848389,0.4920969307422638,1.9989515542984009,-10.936269760131836,23.267377853393555,0.2756948471069336,0.31940504908561707,-2.8729312419891357,7.85487699508667,-1.2043702602386475,1.5436668395996094,11.32012939453125,-2.907604694366455,-0.6030998229980469,-0.3101654052734375,3.0017971992492676,7.316044807434082,1.3427677154541016,15.463516235351562,30.0
1.8,1.0,0.0,0.0,0.4027702510356903,-0.0750100165605545,0.8874310255050659,0.9532496333122253,0.04250985383987427,-0.043115392327308655,-0.3693423569202423,-0.10513482242822647,0.015666650608181953,0.09046418964862823,-0.012967526912689209,-0.03191724047064781,0.2607162296772003,-0.2352084517478943,0.03779391199350357,-0.04549415782094002,0.02726735547184944,0.36561664938926697,-0.24623140692710876,-0.12281309068202972,0.542592465877533,3.6148643493652344,-3.973125457763672,-1.1973721981048584,1.5116941928863525,0.019275739789009094,-1.7429554462432861,5.550966262817383,-0.7042243480682373,2.8155200481414795,-6.960007667541504,-2.083550453186035,-21.06692886352539,30.0,4.616329669952393,-26.874996185302734,-4.414445877075195,-1.57720947265625,-4.99180269241333
1.82,1.0,0.0,0.0,0.4215392768383026,-0.07788369059562683,0.8866182565689087,0.9450783133506775,0.024394605308771133,-0.030948886647820473,0.5371667742729187,0.08529436588287354,0.04201904311776161,0.09138133376836777,-0.01135643757879734,0.010017302818596363,0.2307923287153244,-0.24697528779506683,0.06210942938923836,-0.05871459096670151,-0.004397490061819553,0.46250879764556885,-0.8000009655952454,-0.2473762482404709,-0.5780129432678223,1.6938738822937012,-1.094316005706787,0.8120240569114685,1.0764793157577515,-1.5326781272888184,-1.5600924491882324,1.1042720079421997,-0.020546354353427887,5.278140544891357,-61.7933349609375,44.891319274902344,31.02281379699707,30.0,2.3702354431152344,-7.195009708404541,-40.8236083984375,-18.480207443237305,-1.1084442138671875
1.84,1.0,0.0,0.0,0.4393472969532013,-0.07978089898824692,0.8849362134933472,0.9497768878936768,0.014455773867666721,-0.12067394703626633,0.5845674276351929,0.708328127861023,0.006323905196040869,0.0916435644030571,-0.026016704738140106,-0.011652027256786823,0.2998364567756653,-0.28082916140556335,0.05915819853544235,-0.08386695384979248,-0.05047208443284035,0.460978239774704,-0.80022132396698,-0.08154673874378204,-0.70067298412323,-2.3222246170043945,5.162847995758057,-0.8829173445701599,-0.9502134323120117,-0.8399612903594971,-2.8973162174224854,3.060014009475708,-59.08049011230469,6.920722484588623,-72.07891082763672,35.644989013671875,33.226806640625,30.0,-3.873971939086914,40.63963317871094,-33.2518196105957,-13.482305526733398,-30.0
1.86,1.0,0.0,0.0,0.4568355679512024,-0.0822814404964447,0.8810930252075195,0.9535720944404602,0.03301423043012619,-0.19894450902938843,0.07286697626113892,0.5400964021682739,-0.017147168517112732,0.06711908429861069,-0.038229893893003464,-0.07925061136484146,0.45422446727752686,-0.2970554828643799,0.012894587591290474,-0.08099070936441422,-0.05300534516572952,0.3098609745502472,-0.28406351804733276,-1.720646858215332,-0.6011040806770325,-3.9438512325286865,8.80059814453125,0.957303524017334,-2.041273593902588,0.1800995171070099,0.42207062244415283,-1.0284165143966675,-0.8648560047149658,-0.2854623794555664,-36.87993240356445,4.073639869689941,10.331878662109375,14.325435638427734,-10.626675605773926,73.53755187988281,-3.446756362915039,-14.477958679199219,-11.513519287109375
1.8800000000000001,1.0,0.0,0.0,0.4763351380825043,-0.08539224416017532,0.8811861276626587,0.9421203136444092,-0.023959742859005928,0.14451494812965393,0.3120262920856476,-0.8526603579521179,-0.022824689745903015,0.03886352851986885,-0.058006126433610916,-0.10935092717409134,0.5981370210647583,-0.7999178767204285,0.013416665606200695,-0.09400594979524612,0.02196398936212063,0.24011211097240448,-0.28494763374328613,-1.4945751428604126,-0.5380353927612305,-0.7232041358947754,4.091286659240723,-0.08395332098007202,0.556999146938324,-0.327542245388031,6.336586952209473,-8.689004898071289,7.5146613121032715,-0.06339788436889648,5.788237571716309,-19.05224609375,-5.954288482666016,-1.073455810546875,-23.464784622192383,88.4566879272461,13.274986267089844,-27.75204086303711,30.0
1.9000000000000001,1.0,0.0,0.0,0.49588078260421753,-0.09005524218082428,0.8829045295715332,0.954639732837677,0.016613854095339775,0.07542210817337036,-0.8291261196136475,-0.27665627002716064,-0.03681009262800217,-0.00033910045749507844,-0.05242588371038437,-0.1344272792339325,0.6479327082633972,-0.799881100654602,0.015194447711110115,-0.0861518532037735,0.1076396033167839,0.14525237679481506,-0.2519128620624542,-2.0416383743286133,1.0487046241760254,-1.7060418128967285,1.608346700668335,0.0002811029553413391,-0.16236425936222076,1.0300806760787964,3.3256757259368896,-3.5613272190093994,1.8218746185302734,2.3198366165161133,-1.1120448112487793,-32.027809143066406,-12.265905380249023,-30.0,-4.691744804382324,69.02498626708984,25.487621307373047,26.612607955932617,30.0
1.92,1.0,0.0,0.0,0.5148595571517944,-0.09513363987207413,0.8838697075843811,0.9628361463546753,0.0018854637164622545,0.04178781807422638,-0.5637194514274597,-0.08012233674526215,-0.0209439005702734,-0.012155027128756046,-0.03942165523767471,-0.1404798924922943,0.5799561142921448,-0.799955427646637,0.016838572919368744,-0.06905041635036469,0.1396360844373703,0.14046375453472137,-0.24736320972442627,0.14986370503902435,0.32143914699554443,0.03756321221590042,-5.470139503479004,0.000467449426651001,-0.3200623393058777,0.6674743890762329,0.5165107250213623,1.4677037000656128,0.5968687534332275,4.142157077789307,-20.144052505493164,-17.879209518432617,-11.913158416748047,-30.0,2.083158016204834,32.670310974121094,12.813386917114258,23.642284393310547,30.0
1.94,1.0,0.0,0.0,0.5334034562110901,-0.10027507692575455,0.8842202425003052,0.9730947017669678,-0.021754924207925797,-0.00561490235850215,-0.5216659903526306,-0.02945706807076931,0.07405386865139008,0.033263493329286575,-0.026397371664643288,-0.13353990018367767,0.4778740108013153,-0.5312449336051941,0.022347187623381615,-0.05315782129764557,0.11253294348716736,0.23796559870243073,-0.2592100203037262,3.809648036956787,0.6764126420021057,2.078073024749756,-5.604085922241211,-9.940994262695312,-0.003300398588180542,0.7220312356948853,-2.2823755741119385,7.312403678894043,-0.1946420669555664,7.355655670166016,8.811668395996094,-2.467658519744873,-8.554389953613281,-2.063426971435547,6.883827209472656,15.53298568725586,-4.675066947937012,17.606887817382812,30.0
1.96,1.0,0.0,0.0,0.5525425672531128,-0.1048402190208435,0.8832790851593018,0.9892476797103882,-0.011319669894874096,-0.03066861815750599,0.0908566564321518,-0.11234337091445923,0.014512465335428715,0.05531178414821625,-0.020603122189641,-0.05225023999810219,0.3275561034679413,-0.2701056897640228,0.04714889079332352,-0.05324357748031616,0.056843314319849014,0.4152123034000397,-0.28471991419792175,-0.49048227071762085,-0.02420019544661045,6.096773147583008,-8.351482391357422,-1.183021903038025,1.792651891708374,-0.7036976218223572,-2.8472323417663574,9.066508293151855,-1.159577488899231,17.664072036743164,-26.83714485168457,-2.021350860595703,-36.024627685546875,30.0,7.981219291687012,-34.564449310302734,-8.876502990722656,-0.8358573913574219,-0.009621620178222656
1.98,1.0,0.0,0.0,0.5720115900039673,-0.10819938033819199,0.8839849829673767,0.9717006683349609,0.017274878919124603,0.07092861831188202,0.33662736415863037,-0.08373132348060608,0.05695716291666031,0.05655509606003761,-0.020300230011343956,0.01864035613834858,0.24695314466953278,-0.26931557059288025,0.08852884918451309,-0.06726370751857758,0.014056192710995674,0.5368092656135559,-0.8000008463859558,-0.351133793592453,-0.35626962780952454,3.253815174102783,-3.74350905418396,1.8555331230163574,2.0359058380126953,-1.1794253587722778,-2.064251184463501,1.8153676986694336,-0.008321341127157211,9.762897491455078,-53.15096664428711,65.59121704101562,35.02476119995117,30.0,4.630370140075684,-3.1237783432006836,-62.231388092041016,-27.486373901367188,-1.356475830078125
2.0,1.0,0.0,0.0,0.5906614661216736,-0.11057164520025253,0.8843808174133301,0.9656079411506653,-0.014248928055167198,0.0032447942066937685,0.8227739930152893,0.4873409867286682,-0.006201091688126326,0.05824984610080719,-0.0341729037463665,0.026564402505755424,0.2667582333087921,-0.27807801961898804,0.10875508189201355,-0.09228745847940445,-0.03775911033153534,0.5283333659172058,-0.7999999523162842,-0.20611634850502014,-0.9682703018188477,-0.9132065176963806,2.8946433067321777,0.3731991648674011,0.3235900104045868,-1.2326505184173584,-3.066267490386963,-1.5504704713821411,-0.010803153738379478,13.392586708068848,-83.47888946533203,47.37004470825195,40.87770080566406,30.0,-4.317981243133545,39.64104461669922,-45.494873046875,-17.965702056884766,-30.0
2.02,1.0,0.0,0.0,0.6087164282798767,-0.11310461163520813,0.8834096789360046,0.9813570380210876,0.0140431709587574,-0.07293190062046051,0.10630815476179123,0.5713377594947815,-0.09099945425987244,0.05954068526625633,-0.04635446146130562,-0.024825237691402435,0.38668331503868103,-0.28751325607299805,0.06552331894636154,-0.10278664529323578,-0.08001811057329178,0.4600500762462616,-0.7150425910949707,0.04037439823150635,-0.17787474393844604,-2.750779151916504,6.301815986633301,2.995835065841675,-3.7011449337005615,0.3803751468658447,-0.21624773740768433,-3.9878716468811035,-25.884140014648438,3.3945417404174805,-59.8677978515625,26.696931838989258,25.141448974609375,30.0,-1.8689594268798828,57.79439926147461,-31.17978286743164,-50.441009521484375,30.0
2.04,1.0,0.0,0.0,0.6273656487464905,-0.11704214662313461,0.881456732749939,0.9631436467170715,-0.019550388678908348,0.17850814759731293,0.19447119534015656,-0.21835623681545258,-0.02954704314470291,0.035802893340587616,-0.04351373016834259,-0.08890536427497864,0.5887000560760498,-0.6383205056190491,0.012715660966932774,-0.08666694909334183,-0.03008393757045269,0.2967216670513153,-0.31221386790275574,-1.6071252822875977,-0.6930952072143555,-2.7156190872192383,9.955698013305664,-16.882671356201172,0.5573121309280396,-0.04958292841911316,3.4112582206726074,-7.41987943649292,22.999473571777344,0.5555219650268555,-20.84516143798828,-11.033610343933105,1.5817451477050781,-0.31749725341796875,-21.62694549560547,112.07474517822266,4.64825439453125,-42.1009521484375,30.0
2.06,1.0,0.0,0.0,0.6474080681800842,-0.12176965177059174,0.8846650719642639,0.9818751215934753,0.02323680929839611,0.16597989201545715,-0.8371788263320923,-0.44464796781539917,0.07140778750181198,-0.002950801746919751,-0.041169069707393646,-0.1049812063574791,0.6498743295669556,-0.7999054789543152,0.013087219558656216,-0.07775016129016876,0.05603176727890968,0.20023728907108307,-0.26800721883773804,-2.1266489028930664,0.900844156742096,-0.7767385244369507,0.43681463599205017,-0.007685717195272446,0.38277459144592285,1.0742523670196533,4.9506144523620605,-6.142223834991455,2.489736557006836,1.400364875793457,5.7938079833984375,-43.938812255859375,-18.004179000854492,-30.0,-18.993864059448242,56.568634033203125,35.16434097290039,16.813257217407227,30.0
2.08,1.0,0.0,0.0,0.666934609413147,-0.12672552466392517,0.8869208693504333,0.9661229848861694,-0.0018518532160669565,0.0989006906747818,-0.3769132196903229,-0.2058124989271164,0.008630380965769291,-0.025965794920921326,-0.034274470061063766,-0.1128186285495758,0.5959138870239258,-0.799974799156189,0.014339927583932877,-0.06292971223592758,0.10668822377920151,0.1624523252248764,-0.24630703032016754,-0.5473936200141907,-0.11131337285041809,-0.43695512413978577,-4.078119277954102,-0.0021334728226065636,0.011917337775230408,0.5071840882301331,1.3223005533218384,0.08715920150279999,3.6679089069366455,4.8059163093566895,-21.45440101623535,-31.179441452026367,-14.428470611572266,-30.0,-2.9408376216888428,23.69725799560547,34.16658020019531,37.812686920166016,30.0
2.1,1.0,0.0,0.0,0.685813844203949,-0.131395161151886,0.8880994319915771,0.9722328782081604,-0.021356072276830673,0.024905651807785034,-0.22666501998901367,-0.007895550690591335,0.047108475118875504,0.022838374599814415,-0.030962759628891945,-0.10766810178756714,0.4656309187412262,-0.674807071685791,0.019042596220970154,-0.05321464687585831,0.08517156541347504,0.25026893615722656,-0.24365413188934326,4.199131965637207,0.06645816564559937,1.2665462493896484,-6.423208236694336,-49.91313934326172,0.3454926609992981,0.3069215416908264,-2.2235050201416016,7.1514129638671875,2.4115865230560303,3.756744384765625,8.525102615356445,-13.061514854431152,-10.478702545166016,30.0,1.3959376811981201,11.467525482177734,11.258182525634766,20.783679962158203,30.0
2.12,1.0,0.0,0.0,0.7048262357711792,-0.13557438552379608,0.8871593475341797,0.9732574820518494,0.0029014211613684893,-0.028407976031303406,-0.07781330496072769,-0.2692248821258545,0.03834405913949013,0.07412154227495193,-0.03166597709059715,-0.0633668452501297,0.29580336809158325,-0.21044984459877014,0.03223597630858421,-0.05895489826798439,0.03417094796895981,0.41152092814445496,-0.24544480443000793,-0.0035472214221954346,0.26051992177963257,4.205683708190918,-4.607619762420654,-1.0359039306640625,0.745550811290741,-0.6384670734405518,-2.2905349731445312,7.9034857749938965,-0.09746946394443512,12.418865203857422,-0.6373224854469299,11.534414291381836,-44.421409606933594,30.0,6.347725868225098,-32.077674865722656,-11.610586166381836,-2.8286666870117188,-0.24690213799476624
2.14,1.0,0.0,0.0,0.7244613170623779,-0.13871356844902039,0.8857698440551758,0.9826521873474121,-0.006530585698783398,-0.013092704117298126,0.6886811852455139,0.052768461406230927,-0.027886368334293365,0.07468729466199875,-0.03946782648563385,0.010593759827315807,0.21891416609287262,-0.24284431338310242,0.07185731828212738,-0.08226839452981949,-0.00030231193522922695,0.524209201335907,-0.8000008463859558,-0.6719608902931213,-0.6829126477241516,2.887988567352295,-4.197779655456543,6.234196662902832,2.3691844940185547,-1.5489516258239746,-1.6925468444824219,0.9629684090614319,-0.03968776762485504,9.945076942443848,-60.18702697753906,53.207916259765625,32.68801498413086,30.0,4.866931915283203,0.24449634552001953,-57.33344650268555,-26.185142517089844,-1.7677459716796875
2.16,1.0,0.0,0.0,0.7430931329727173,-0.1410476118326187,0.8851840496063232,0.9672281742095947,-0.007206431590020657,-0.036745134741067886,0.6779184341430664,0.47706350684165955,0.020430913195014,0.07686054706573486,-0.05353789031505585,0.008068166673183441,0.2581961750984192,-0.2640143930912018,0.09023589640855789,-0.10273004323244095,-0.047859158366918564,0.5104419589042664,-0.7999999523162842,-0.27925920486450195,-0.7818964719772339,-1.193801760673523,3.5261783599853516,-0.07779085636138916,0.036369867622852325,-0.6387357115745544,-2.900099277496338,-1.5396878719329834,-0.012473047710955143,11.754989624023438,-81.91088104248047,49.72808837890625,40.545249938964844,30.0,-4.7488203048706055,51.43960952758789,-44.30105972290039,-16.91596221923828,-30.0
2.18,1.0,0.0,0.0,0.7612459063529968,-0.14355169236660004,0.8837802410125732,0.9854563474655151,0.023413076996803284,-0.1087590754032135,-0.06990239769220352,0.3458153307437897,-0.017246929928660393,0.07855349779129028,-0.0659853145480156,-0.04960884526371956,0.39303526282310486,-0.2748638391494751,0.04342984780669212,-0.10483930259943008,-0.09165044873952866,0.4243645966053009,-0.6120045185089111,-0.023406192660331726,0.0872950628399849,-3.5346298217773438,8.275283813476562,0.9662418365478516,-6.309532165527344,1.5498335361480713,-0.3855699896812439,-3.5390472412109375,-102.9191665649414,0.42587119340896606,-60.882354736328125,24.285045623779297,23.21597671508789,30.0,-3.976289749145508,55.561885833740234,-25.662017822265625,-26.727956771850586,30.0
2.2,1.0,0.0,0.0,0.7802088260650635,-0.1471923589706421,0.8819133043289185,0.9511655569076538,-0.02555704489350319,0.06262172013521194,0.2750225365161896,-0.4979763627052307,0.030913550406694412,0.055960189551115036,-0.0640011876821518,-0.09662997722625732,0.5699559450149536,-0.703935980796814,0.01956726424396038,-0.09942590445280075,-0.0581829771399498,0.31670907139778137,-0.2842254340648651,-1.4985461235046387,-0.009256400167942047,-1.8729631900787354,9.362433433532715,-20.539478302001953,0.6104821562767029,-0.22446514666080475,3.7486846446990967,-3.9702908992767334,3.621361255645752,-2.569368362426758,15.519599914550781,-0.5039901733398438,7.680335998535156,0.260162353515625,-12.996734619140625,56.14560317993164,9.254322052001953,-51.92274475097656,30.0
2.22,1.0,0.0,0.0,0.8002346158027649,-0.15187007188796997,0.8838452696800232,0.9727970957756042,-0.005510928574949503,0.15545515716075897,-0.608289897441864,-0.5381062030792236,-0.039834026247262955,0.008068854920566082,-0.05239872261881828,-0.1185084879398346,0.6605401635169983,-0.7997450232505798,0.020734772086143494,-0.09400743246078491,0.031161146238446236,0.22419613599777222,-0.26910898089408875,-2.7233004570007324,1.209324598312378,-1.337198257446289,3.0226402282714844,-0.03546945005655289,-0.15411171317100525,0.8670810461044312,4.929043292999268,-6.357227802276611,4.766559600830078,1.6554222106933594,-0.23781633377075195,-40.752197265625,-13.594446182250977,-30.0,-15.015605926513672,84.34375762939453,29.261760711669922,5.249666213989258,30.0
2.24,1.0,0.0,0.0,0.8200147151947021,-0.15696346759796143,0.886184573173523,0.9726650714874268,-0.00453514838591218,0.10400865972042084,-0.43600261211395264,-0.3207787573337555,-0.009169942699372768,-0.03366325795650482,-0.03885946050286293,-0.12703901529312134,0.6361653208732605,-0.7999364733695984,0.022566968575119972,-0.08052388578653336,0.09642825275659561,0.16606071591377258,-0.24417029321193695,-1.6499841213226318,0.26427122950553894,-0.30831483006477356,-3.0750739574432373,0.00013647228479385376,-0.011199712753295898,0.5933762788772583,2.342193603515625,-1.5986428260803223,2.0381264686584473,5.28337287902832,-32.54339599609375,-29.278156280517578,-15.226995468139648,-30.0,-5.713019847869873,49.28654861450195,25.938949584960938,28.994216918945312,30.0
2.2600000000000002,1.0,0.0,0.0,0.8391997814178467,-0.16174693405628204,0.8875702619552612,0.971356987953186,-0.014800284057855606,0.0527782216668129,-0.3918614685535431,0.03337385877966881,-0.04922096058726311,-0.00964315515011549,-0.034235067665576935,-0.11911273002624512,0.5116720795631409,-0.773659348487854,0.02754104882478714,-0.06979899853467941,0.09658142924308777,0.21854141354560852,-0.23832659423351288,1.9813028573989868,0.4029550552368164,-0.6735755205154419,-1.1523082256317139,10.519615173339844,0.3762246370315552,0.5534392595291138,-1.3363133668899536,5.132430076599121,-0.12459671497344971,4.9276533126831055,-8.190103530883789,-13.262706756591797,-6.976764678955078,-30.0,0.7195968627929688,29.677833557128906,10.004225730895996,22.73753547668457,30.0
2.2800000000000002,1.0,0.0,0.0,0.858242392539978,-0.16621045768260956,0.8881807923316956,0.9827561378479004,-0.010414832271635532,0.08096808940172195,-0.176459401845932,-0.08748167008161545,-0.05102838948369026,0.04518453776836395,-0.03143973648548126,-0.08064575493335724,0.3713231086730957,-0.20526552200317383,0.039831895381212234,-0.0632142722606659,0.042283911257982254,0.3677043616771698,-0.22933168709278107,0.2582687437534332,0.3856983184814453,3.678553581237793,-4.359307765960693,0.09303081035614014,1.0200082063674927,0.343882292509079,-3.309175729751587,8.577033996582031,2.961815357208252,18.711631774902344,-14.555970191955566,-2.2742228507995605,-70.56074523925781,30.0,5.720650672912598,-12.966617584228516,0.5773019790649414,11.630352020263672,30.0
2.3000000000000003,1.0,0.0,0.0,0.8777633905410767,-0.16986045241355896,0.889167308807373,0.982969343662262,-0.004956427495926619,0.036309607326984406,0.44710230827331543,-0.04213859885931015,0.018174661323428154,0.04614684358239174,-0.03295805677771568,-0.012018309906125069,0.297931045293808,-0.21143710613250732,0.07545336335897446,-0.06753595918416977,-0.008052651770412922,0.506237804889679,-0.6815879344940186,0.04896441102027893,-0.4860103130340576,3.3286447525024414,-3.674370050430298,0.23743051290512085,2.0504305362701416,-0.8503254055976868,-2.3077220916748047,4.856081962585449,-21.968399047851562,-2.2807540893554688,-34.712581634521484,30.37307357788086,15.43034553527832,30.0,5.210068702697754,-15.96748161315918,-32.47467803955078,-15.71434211730957,-1.1207504272460938
2.32,1.0,0.0,0.0,0.8968778252601624,-0.17255939543247223,0.8892868757247925,0.9733089208602905,-0.008062531240284443,-0.012251904234290123,0.6708294749259949,0.25789675116539,0.02054235339164734,0.047458697110414505,-0.04593268781900406,0.013258855789899826,0.2941704988479614,-0.22251872718334198,0.10037361085414886,-0.0854540690779686,-0.046163398772478104,0.5109003782272339,-0.7999999523162842,-0.049151740968227386,-0.8603466153144836,0.24985261261463165,1.6972376108169556,1.2095551490783691,0.7374064326286316,-0.8987886905670166,-2.1537363529205322,-1.1800669431686401,0.0002901399275287986,3.859609842300415,-51.04588317871094,33.49043655395508,29.82817268371582,30.0,-1.6769611835479736,21.384258270263672,-31.733142852783203,-12.325727462768555,-30.0
2.34,1.0,0.0,0.0,0.9153538942337036,-0.17512796819210052,0.888197124004364,0.9803040027618408,0.01483381912112236,-0.09591950476169586,0.24834850430488586,0.4397035837173462,-0.03813210502266884,0.05083050951361656,-0.05899950861930847,-0.023649627342820168,0.39498376846313477,-0.23494581878185272,0.060971640050411224,-0.09546010196208954,-0.08264763653278351,0.43490561842918396,-0.7238250374794006,0.466965913772583,-0.2723274230957031,-2.743417263031006,6.295447826385498,1.045881986618042,-3.875608444213867,0.3343731760978699,-1.4942715167999268,-2.430445909500122,-69.11903381347656,4.569033622741699,-49.541748046875,24.659469604492188,21.330745697021484,30.0,-2.6419944763183594,35.50721740722656,-27.407630920410156,-25.4758243560791,30.0
2.36,1.0,0.0,0.0,0.0,0.0,0.9300000071525574,0.158373162150383,-0.2445133775472641,0.42223814129829407,-0.2721092104911804,-0.3288079798221588,-0.274695485830307,0.04672607034444809,-0.06398461759090424,-0.09528189897537231,0.47136133909225464,-0.28088194131851196,-0.06318014860153198,-0.06944553554058075,-0.3032538890838623,0.42034363746643066,0.25223493576049805,0.014774404466152191,0.06730157881975174,0.005414925515651703,-0.036187544465065,-0.0015868321061134338,0.07757800072431564,-0.052713342010974884,0.07813353091478348,0.05094035714864731,-0.08827966451644897,-0.7896394729614258,-5.786444187164307,-2.5824403762817383,1.6502571105957031,-0.15613555908203125,-9.666512489318848,58.41736602783203,2.9215493202209473,-53.05308532714844,30.0
2.38,1.0,0.0,0.0,0.00017463229596614838,-0.007812817580997944,0.9332719445228577,0.2992730140686035,-0.2075941413640976,0.047694142907857895,-2.295832872390747,3.4447457790374756,-0.0896104946732521,0.07058951258659363,-0.04177425801753998,-0.20793935656547546,0.7030400633811951,-0.7999358177185059,-0.059663135558366776,-0.006089785601943731,-0.4310661852359772,0.5711679458618164,-0.7351556420326233,1.8563134670257568,1.8902990818023682,-7.7732954025268555,13.254666328430176,-0.0007929987041279674,0.47264084219932556,5.866609573364258,-9.545331954956055,6.7249627113342285,-50.000038146972656,1.3442449569702148,-32.515106201171875,74.2728500366211,39.08910369873047,-30.0,30.812284469604492,112.02643585205078,-125.43106079101562,-53.363189697265625,-28.1082763671875
2.4,1.0,0.0,0.0,0.00014133192598819733,-0.016608793288469315,0.927801787853241,0.08980686962604523,-0.18112419545650482,-0.43758872151374817,-2.311324119567871,1.3152027130126953,-0.1720075160264969,0.1275796890258789,0.005142093636095524,-0.3687320351600647,1.0732078552246094,-0.8000622987747192,0.0009351010085083544,0.08057272434234619,-0.7007935047149658,0.9564371705055237,-0.8000003695487976,3.1851916313171387,2.86064076423645,-6.581855297088623,20.41790199279785,0.0011605495819821954,3.782864809036255,3.1132054328918457,-13.57086181640625,25.484407424926758,-4.261046342435293e-06,2.6471595764160156,39.850303649902344,17.54753303527832,18.851821899414062,-30.0,-13.259509086608887,-54.79011535644531,47.58036804199219,44.804771423339844,-30.0
2.42,1.0,0.0,0.0,0.003278816118836403,-0.02188466489315033,0.920663058757782,0.056969158351421356,-0.1690390706062317,-0.37392085790634155,0.18450871109962463,-0.3261638581752777,0.07295148074626923,0.2147296667098999,0.012373284436762333,-0.3524908423423767,1.1074410676956177,-0.8000779747962952,0.057337094098329544,0.07450856268405914,-0.8964200019836426,1.4211413860321045,-0.8000003099441528,5.029181957244873,-1.9712235927581787,3.7159323692321777,-7.5519633293151855,0.0015713567845523357,2.2261886596679688,-3.548483371734619,-7.836962699890137,22.83083724975586,-1.9150002117385156e-07,0.28464698791503906,-47.14645004272461,-49.66082000732422,-69.44559478759766,-30.0,-28.260164260864258,-76.00933837890625,49.665809631347656,28.683853149414062,-30.0
2.44,1.0,0.0,0.0,0.00671724695712328,-0.023519078269600868,0.9133522510528564,0.27586063742637634,-0.12702195346355438,-0.4972798824310303,0.5050021409988403,2.208834409713745,-0.041208431124687195,0.2598213255405426,-0.02410278096795082,-0.23560094833374023,0.596125066280365,-0.8000850677490234,0.10950259119272232,-0.06829959154129028,-1.023831844329834,1.8757368326187134,-0.8000000715255737,0.1218179240822792,-2.1167101860046387,5.22032356262207,-34.80491638183594,0.001492390758357942,2.8955745697021484,-10.53779411315918,-5.656271457672119,22.96599769592285,1.3379900337895378e-05,-8.62335205078125,29.329500198364258,-176.63433837890625,-96.30342102050781,-30.0,-30.69097137451172,-74.42465209960938,84.89231872558594,38.371177673339844,-30.0
2.46,1.0,0.0,0.0,0.00747700547799468,-0.02623458206653595,0.9027958512306213,0.23603734374046326,-0.23907941579818726,-0.5705889463424683,0.2896856963634491,3.0609371662139893,-0.3647409975528717,0.13434559106826782,-0.022286729887127876,-0.3252112865447998,0.35437890887260437,-0.8000205755233765,0.1052052304148674,-0.2700626254081726,-1.021134853363037,1.9999700784683228,-0.7999999523162842,-9.078383445739746,3.1153781414031982,-9.406357765197754,-2.51590895652771,-0.00027703645173460245,-1.5282849073410034,-8.192342758178711,3.2732253074645996,0.0005934253567829728,6.988220775383525e-07,10.677959442138672,85.44129943847656,-103.61958312988281,-4.383707046508789,-30.0,-37.086830139160156,6.910575866699219,97.76188659667969,148.00601196289062,-30.0
2.48,1.0,0.0,0.0,0.00957923661917448,-0.028408775106072426,0.8891414999961853,0.10900478065013885,-0.32237279415130615,-0.7888715267181396,2.4120137691497803,-0.01052237581461668,-0.0853811576962471,0.044567205011844635,0.004913148935884237,-0.4783380329608917,0.3557492792606354,-0.800053596496582,0.08043164759874344,-0.4649546146392822,-0.8380741477012634,1.999964714050293,-0.8000000715255737,-2.6221985816955566,-0.5204778909683228,-6.583261013031006,1.4859564304351807,0.0017887477297335863,-1.4176115989685059,-10.595344543457031,13.378731727600098,0.003300689160823822,6.54561563351308e-06,-14.180355072021484,-50.56840133666992,-28.072101593017578,-1.8108327388763428,-30.0,-47.432891845703125,-3.27374267578125,88.50537872314453,170.95770263671875,-30.0
2.5,1.0,0.0,0.0,0.01517925038933754,-0.032283782958984375,0.8727881908416748,0.011632909066975117,-0.4166508913040161,-0.9066337943077087,0.8281341195106506,-1.2464021444320679,-0.07602119445800781,0.06252802163362503,-0.017118005082011223,-0.5563459396362305,0.3354751467704773,-0.7999877333641052,-0.008536797016859055,-0.49358931183815,-0.5943148136138916,1.999253511428833,-0.8000000715255737,1.9201079607009888,-3.096498489379883,-3.4478726387023926,-0.03140847384929657,-0.0121979471296072,-3.5327236652374268,0.9825325012207031,11.451964378356934,0.41464146971702576,0.17960895597934723,-27.584083557128906,-64.0771713256836,-18.43077850341797,13.644886016845703,-30.0,-2.846363067626953,48.95067596435547,26.459869384765625,51.622215270996094,-30.0
2.52,1.0,0.0,0.0,0.021093245595693588,-0.036704789847135544,0.8522258400917053,0.018007252365350723,-0.48340192437171936,-1.1257565021514893,1.181016206741333,-1.157188892364502,-0.7557143568992615,0.04120026156306267,-0.061547424644231796,-0.6904184818267822,0.5138505697250366,-0.7637454271316528,-0.029344705864787102,-0.5000081062316895,-0.3318527638912201,1.836617350578308,-0.7999999523162842,-2.106447696685791,-1.382514476776123,-7.949652194976807,12.195700645446777,1.996443271636963,-0.29837942123413086,0.0007673262152820826,13.835028648376465,-13.373141288757324,1.639673428144306e-07,-4.896115303039551,-3.1978883743286133,3.9836769104003906,10.557685852050781,0.21786975860595703,14.600458145141602,-6.816336154937744,-17.054397583007812,-42.37119674682617,-30.0
2.54,1.0,0.0,0.0,0.029185162857174873,-0.041849471628665924,0.8293653726577759,0.11705205589532852,-0.5774081945419312,-1.203011393547058,0.8764516711235046,-0.8581636548042297,-0.2838204503059387,0.06031426787376404,-0.13056237995624542,-0.8655984997749329,0.8854455947875977,-0.6328475475311279,-0.09796462953090668,-0.4865005314350128,-0.056581832468509674,1.2447197437286377,-0.7999998331069946,1.9326897859573364,-4.065215587615967,-8.567488670349121,21.05586051940918,6.378143787384033,-5.2712531089782715,1.6076394319534302,13.651707649230957,-39.50785446166992,3.4829354262910783e-06,-10.264541625976562,-13.22401237487793,70.0610122680664,38.44142150878906,1.7218208312988281,25.511201858520508,81.49854278564453,-98.47103881835938,-88.99433898925781,-30.0
2.56,1.0,0.0,0.0,0.03796359896659851,-0.050163011997938156,0.8060963153839111,0.6018082499504089,-0.47415024042129517,-0.9382826089859009,-0.5164573192596436,2.4548377990722656,0.3691927492618561,0.10999349504709244,-0.19892975687980652,-1.0565965175628662,1.3462059497833252,-0.79991614818573,-0.21011780202388763,-0.410798579454422,0.07443258166313171,0.593148946762085,-0.5963992476463318,3.1967010498046875,-3.535655975341797,-8.811639785766602,22.994905471801758,0.019729703664779663,4.178604602813721,3.418477773666382,6.768627643585205,-24.12903594970703,69.70870208740234,8.632676124572754,9.646642684936523,92.6983642578125,44.17527770996094,1.0656814575195312,50.415367126464844,163.5969696044922,-196.27633666992188,-80.42791748046875,-30.0
2.58,1.0,0.0,0.0,0.05163693055510521,-0.05700937658548355,0.7997995018959045,0.9575735330581665,-0.3484521508216858,-0.0065002781338989735,-0.7486504316329956,1.3204318284988403,-1.027923345565796,0.12158966809511185,-0.1952311396598816,-1.1145753860473633,1.689896583557129,-0.7999417781829834,-0.1980125904083252,-0.39534467458724976,0.027322858572006226,0.674376904964447,-0.613262414932251,0.11546062678098679,3.175426959991455,-0.8080900311470032,17.93950080871582,-0.009296250529587269,0.24274137616157532,1.4238686561584473,-0.12129691243171692,-0.9887207746505737,4.169063091278076,-2.72007417678833,36.094390869140625,43.446617126464844,39.38529968261719,-30.0,6.728717803955078,210.7447967529297,-99.85128021240234,-225.010986328125,29.818025588989258
2.6,1.0,0.0,0.0,0.06924862414598465,-0.06422848254442215,0.8061020374298096,1.0526703596115112,-0.1778441220521927,0.4744120240211487,-1.7763315439224243,0.9456843733787537,-0.5914249420166016,0.12154944241046906,-0.1324506402015686,-1.0327833890914917,1.8283557891845703,-0.7999922037124634,-0.1862165331840515,-0.35486966371536255,0.0656755119562149,0.6194512248039246,-0.6075636148452759,-0.5073002576828003,2.9342033863067627,6.573024749755859,0.433752179145813,-0.016296226531267166,-0.4714455008506775,2.412626266479492,2.4584505558013916,-4.462871074676514,2.5239405632019043,-24.5806941986084,-31.39197540283203,5.864816665649414,-42.432403564453125,-30.0,-24.26795196533203,151.63046264648438,-5.055095195770264,-83.3516616821289,30.0
