DanielTruong99/RLHumanoidRobot/analysis/data/state_log.csv
time_step,c_x,c_y,c_z,base_x,base_y,base_z,base_vx,base_vy,base_vz,base_wx,base_wy,base_wz,pos_R_hip_joint,pos_R_hip2_joint,pos_R_thigh_joint,pos_R_calf_joint,pos_R_toe_joint,pos_L_hip_joint,pos_L_hip2_joint,pos_L_thigh_joint,pos_L_calf_joint,pos_L_toe_joint,vel_R_hip_joint,vel_R_hip2_joint,vel_R_thigh_joint,vel_R_calf_joint,vel_R_toe_joint,vel_L_hip_joint,vel_L_hip2_joint,vel_L_thigh_joint,vel_L_calf_joint,vel_L_toe_joint,torque_R_hip_joint,torque_R_hip2_joint,torque_R_thigh_joint,torque_R_calf_joint,torque_R_toe_joint,torque_L_hip_joint,torque_L_hip2_joint,torque_L_thigh_joint,torque_L_calf_joint,torque_L_toe_joint
0.01,0.7500384449958801,0.0,-0.025516627356410027,-69.99827575683594,0.006656917277723551,1.1449754238128662,-0.006861608475446701,0.32039815187454224,-0.06899672001600266,4.304910182952881,-2.995389223098755,-0.5172336101531982,0.06543952971696854,0.10475651174783707,-0.29397451877593994,0.3790504038333893,0.48867854475975037,-0.10261765867471695,0.027366716414690018,-0.06715083867311478,0.7434288859367371,-0.2661162316799164,7.469117164611816,-8.178935050964355,3.1179358959198,1.0267488956451416,49.99018478393555,-3.5876624584198,-9.209628105163574,2.7940762042999268,4.080813884735107,-0.441689670085907,11.934540748596191,14.694087982177734,-203.3482208251953,-128.49887084960938,30.261661529541016,121.61668395996094,47.12688446044922,67.5577163696289,3.738630771636963,20.493576049804688
0.02,0.8999999761581421,0.0,-0.025065815076231956,-69.99714660644531,0.015998540446162224,1.1424291133880615,-0.08839502185583115,0.3040015399456024,-0.32350531220436096,6.534953594207764,-2.6384310722351074,-0.2628524601459503,0.18957434594631195,-0.007730539888143539,-0.26661965250968933,0.4431888461112976,0.8000007271766663,-0.1349930465221405,-0.08859602361917496,-0.07637181133031845,0.8530324697494507,-0.2479986846446991,14.32768440246582,-13.466512680053711,2.9042270183563232,10.435909271240234,-0.0006842633010819554,-3.160642623901367,-13.255409240722656,-2.7513387203216553,14.637627601623535,2.3379576206207275,5.39189338684082,4.863620758056641,-44.83032989501953,-148.88711547851562,-30.427265167236328,64.86317443847656,50.962703704833984,41.174072265625,4.8809309005737305,30.0
0.03,0.8999999761581421,0.0,-0.025332678109407425,-69.9972152709961,0.026338813826441765,1.1378560066223145,-0.012734814547002316,0.3061245083808899,-0.6002395749092102,6.526167869567871,-0.4161584675312042,0.5293119549751282,0.3268250524997711,-0.14142827689647675,-0.20448024570941925,0.48753514885902405,0.7999774813652039,-0.14520466327667236,-0.21203897893428802,-0.1526353657245636,1.0809487104415894,-0.2135586440563202,12.665175437927246,-13.870223045349121,7.082459449768066,1.1540194749832153,0.0010722354054450989,0.10235145688056946,-11.583572387695312,-10.238214492797852,26.954526901245117,4.110695838928223,9.81675910949707,-14.146255493164062,72.48829650878906,-112.32640075683594,-39.27170181274414,9.670293807983398,60.33226013183594,-38.18596267700195,5.919050216674805,30.0
0.04,0.8999999761581421,0.0,-0.026251090690493584,-69.9979248046875,0.03622349351644516,1.1317315101623535,0.082670658826828,0.26490116119384766,-0.7512564659118652,5.477663516998291,0.814618706703186,0.523750901222229,0.4268007278442383,-0.2677701413631439,-0.1149253100156784,0.4599456191062927,0.7999764084815979,-0.12261542677879333,-0.3085786700248718,-0.24767613410949707,1.3271441459655762,-0.15654057264328003,7.358302593231201,-12.260168075561523,8.399922370910645,-4.404429912567139,0.0007940813666209579,3.452605962753296,-7.921527862548828,-9.290308952331543,23.328317642211914,5.918562889099121,3.314824104309082,-17.70507049560547,127.54066467285156,-58.247291564941406,5.146015167236328,-30.442312240600586,-11.121360778808594,-31.47774314880371,-0.7939567565917969,30.0
0.05,0.8999999761581421,0.0,-0.026962164789438248,-69.99847412109375,0.04456411302089691,1.1248753070831299,0.15033318102359772,0.2307177484035492,-0.7959051132202148,3.62402606010437,0.9233907461166382,0.10145428031682968,0.47436076402664185,-0.37429144978523254,-0.032401494681835175,0.3999968469142914,0.7998246550559998,-0.07331085950136185,-0.3599638342857361,-0.31337741017341614,1.5177488327026367,-0.08159948140382767,2.532754898071289,-9.659049034118652,6.862791061401367,-6.051980495452881,3.0919909477233887e-07,5.768579959869385,-2.5286264419555664,-5.043826580047607,16.394573211669922,7.478219509124756,-12.010351181030273,-5.393610000610352,177.30406188964844,-21.441558837890625,42.37163543701172,-38.98202133178711,-40.05610656738281,-14.844520568847656,-3.145233154296875,30.0
0.06,0.8999999761581421,0.0,-0.027066325768828392,-69.99809265136719,0.05099071189761162,1.1177102327346802,0.14476671814918518,0.21166932582855225,-0.8035227656364441,1.7219250202178955,-0.018088381737470627,-0.060830987989902496,0.4859119653701782,-0.4535723924636841,0.0307477917522192,0.33777451515197754,0.7998718619346619,-0.008679460734128952,-0.354388952255249,-0.334710031747818,1.650781512260437,-0.0005752149154432118,0.07704249024391174,-6.5924906730651855,5.3564300537109375,-5.525692939758301,5.941838026046753e-07,6.7768988609313965,3.2717864513397217,-0.21521736681461334,11.091678619384766,7.970937252044678,-25.172245025634766,3.9012107849121094,166.1064910888672,-1.4891471862792969,66.68683624267578,-27.673564910888672,-33.407928466796875,-2.2873783111572266,-2.544525146484375,30.0
0.07,0.8999999761581421,0.0,-0.026490241289138794,-69.99649047851562,0.055955685675144196,1.1102256774902344,0.09744414687156677,0.18100190162658691,-0.8342770338058472,0.6875545382499695,-1.3365461826324463,-0.3620437681674957,0.4866108298301697,-0.5077922344207764,0.08657277375459671,0.2809738218784332,0.7999880909919739,0.05487428233027458,-0.2985664904117584,-0.3142736256122589,1.7339946031570435,0.07558558881282806,-0.23414760828018188,-4.567711353302002,5.274056434631348,-5.04484748840332,6.442423909902573e-07,5.995482444763184,7.348298072814941,3.696892261505127,6.269773483276367,7.369259357452393,-33.82022476196289,11.282508850097656,99.22484588623047,-7.703413009643555,69.34893798828125,-23.979402542114258,-29.854202270507812,-1.4459991455078125,-2.398937225341797,30.0
0.08,0.8999999761581421,0.0,-0.025111328810453415,-69.99388885498047,0.06035792455077171,1.1020537614822388,0.04707368463277817,0.1283160299062729,-0.9303008317947388,0.7301878929138184,-2.2977359294891357,-0.6903328895568848,0.485906183719635,-0.5524056553840637,0.14287368953227997,0.23100167512893677,0.8000128865242004,0.09989697486162186,-0.21791137754917145,-0.2642214894294739,1.7736518383026123,0.13701951503753662,-0.2679421603679657,-4.493091106414795,5.4499382972717285,-4.327262878417969,-0.0001482619991293177,3.563383102416992,8.30542278289795,6.074673652648926,2.384460687637329,5.83268928527832,-34.86297607421875,13.556503295898438,15.596115112304688,-19.69258689880371,57.91317367553711,-22.2305908203125,-18.90186309814453,-0.44519615173339844,-1.6981544494628906,30.0
0.09,0.8999999761581421,0.0,-0.02310119941830635,-69.99079895019531,0.06496445834636688,1.0927215814590454,0.009710121899843216,0.06329414993524551,-1.0801942348480225,1.3619500398635864,-2.519124746322632,-0.968329131603241,0.482923686504364,-0.6048882007598877,0.19480526447296143,0.1926559954881668,0.800014078617096,0.11526358872652054,-0.14241312444210052,-0.1984051614999771,1.784888505935669,0.18241959810256958,-0.4141192138195038,-5.8862409591674805,4.782842636108398,-3.084908962249756,-0.0004551531746983528,0.3247322738170624,6.640156269073486,6.9861226081848145,0.49126556515693665,4.287508964538574,-30.03543472290039,18.291975021362305,-38.08323669433594,-24.018795013427734,41.50408935546875,-26.635122299194336,0.6257033348083496,-1.4998626708984375,-0.2001953125,30.0
0.1,0.8999999761581421,0.0,-0.020709151402115822,-69.98782348632812,0.07006905972957611,1.0819215774536133,-0.011398056522011757,-0.0006638644263148308,-1.2481101751327515,1.9638566970825195,-2.0804407596588135,-1.235270380973816,0.48134493827819824,-0.6728641986846924,0.23703332245349884,0.16417206823825836,0.800006091594696,0.09982110559940338,-0.09001792967319489,-0.1298707127571106,1.7886728048324585,0.21550196409225464,-0.00704595260322094,-7.469852447509766,3.686988353729248,-2.376950263977051,-0.0005565736792050302,-2.5952699184417725,4.036951065063477,6.62610387802124,0.6689015030860901,3.1693148612976074,-20.089344024658203,23.672842025756836,-49.1434211730957,-17.123756408691406,19.453075408935547,-31.310142517089844,15.90627670288086,-6.748952865600586,1.10198974609375,30.0
0.11,0.8999999761581421,0.0,-0.018151529133319855,-69.98529815673828,0.07556009292602539,1.0695513486862183,-0.011058319360017776,-0.06059028208255768,-1.406904935836792,2.262275218963623,-1.1406898498535156,-1.4986212253570557,0.4871099293231964,-0.7536828517913818,0.2679620683193207,0.13735465705394745,0.7999976277351379,0.06027018278837204,-0.06306187063455582,-0.07195162028074265,1.8024553060531616,0.24016828835010529,0.9298301339149475,-8.494991302490234,2.518073797225952,-2.5639662742614746,-7.522176019847393e-07,-4.617724895477295,1.7539530992507935,4.97247838973999,2.2124569416046143,2.443443775177002,-9.806516647338867,26.355379104614258,-39.22711944580078,-4.719573974609375,-6.354619979858398,-33.410770416259766,20.730777740478516,-12.18712329864502,1.6499176025390625,30.0
0.12,0.8999999761581421,0.0,-0.015645503997802734,-69.98347473144531,0.08121079951524734,1.0556591749191284,0.012327790260314941,-0.11783803254365921,-1.5455760955810547,2.305410146713257,0.03074987791478634,-1.7223682403564453,0.5015397071838379,-0.8414322137832642,0.2880098223686218,0.10273249447345734,0.7999917268753052,0.005338480696082115,-0.05532276630401611,-0.03530867397785187,1.8356850147247314,0.2594274580478668,1.7754956483840942,-8.936986923217773,1.4415143728256226,-3.644655227661133,6.135087460279465e-07,-5.801990985870361,0.2001105546951294,2.5275063514709473,4.316594123840332,1.9965245723724365,-1.944223403930664,25.740985870361328,-30.03032875061035,8.603324890136719,-24.134307861328125,-33.73933410644531,19.836105346679688,-16.213340759277344,1.7105436325073242,30.0
0.13,0.8999999761581421,0.0,-0.013287887908518314,-69.98231506347656,0.08684501051902771,1.0404040813446045,0.04703991115093231,-0.17311665415763855,-1.6601793766021729,2.1808407306671143,1.0215766429901123,-1.9497487545013428,0.5204294919967651,-0.9307904839515686,0.29601991176605225,0.05835401639342308,0.7999853491783142,-0.05844955891370773,-0.05901220813393593,-0.021708304062485695,1.888024926185608,0.27663812041282654,2.1129367351531982,-8.85837173461914,0.24393650889396667,-4.537656784057617,-6.257323548197746e-10,-6.455365180969238,-0.6830911636352539,0.41008108854293823,5.971347332000732,1.8382766246795654,3.732666015625,22.566362380981445,-28.82381820678711,24.505403518676758,-25.907943725585938,-32.516517639160156,14.932624816894531,-15.125272750854492,1.343841552734375,30.0
0.14,0.8999999761581421,0.0,-0.010873439721763134,-69.9815902709961,0.09206695854663849,1.0242335796356201,-0.031024159863591194,-0.04153582826256752,-1.5922935009002686,-0.7534844279289246,0.41307729482650757,-2.0615427494049072,0.5604169368743896,-1.000278353691101,0.30734962224960327,0.011991128325462341,0.7999637126922607,-0.12776294350624084,-0.062067627906799316,-0.020455412566661835,1.9507564306259155,0.2926490902900696,10.049917221069336,0.01618219166994095,5.396726131439209,-4.000049114227295,0.05490143224596977,-7.472226142883301,2.4271743297576904,1.2126628160476685,6.516836166381836,1.675917625427246,9.011428833007812,17.771682739257812,-32.91462707519531,40.30939483642578,-21.877870559692383,-27.780784606933594,5.898014068603516,-9.727142333984375,0.5905246734619141,30.0
0.15,0.8999999761581421,0.0,-0.007682831957936287,-69.98039245605469,0.09579725563526154,1.0085393190383911,-0.0338568352162838,-0.041169174015522,-1.6080121994018555,-0.8156012296676636,-0.3004533350467682,-2.45754075050354,0.5993790030479431,-1.000098466873169,0.29824209213256836,-1.783594416338019e-05,0.7999235987663269,-0.20514868199825287,-0.04944383725523949,0.009851973503828049,1.9827905893325806,0.3074101507663727,2.1749684810638428,0.0029819507617503405,-2.863316774368286,-0.0017357048345729709,3.725290298461914e-09,-7.407630920410156,0.000547512318007648,3.9410903453826904,0.9773852229118347,1.3472702503204346,17.72441291809082,-5.60990047454834,-69.97271728515625,-8.99819564819336,-1.4005508422851562,-19.63778305053711,-46.952579498291016,2.4784817695617676,-3.7619967460632324,30.0
0.16,0.8999999761581421,0.0,-0.0035801625344902277,-69.97875213623047,0.0998641699552536,0.9925963282585144,-0.021532602608203888,-0.0690569132566452,-1.6527553796768188,-0.2112409621477127,-0.48675790429115295,-2.9041683673858643,0.6291432976722717,-1.000093936920166,0.2736537456512451,0.007697690278291702,0.7996693849563599,-0.2772524654865265,-0.0731358751654625,0.05115402117371559,1.9630383253097534,0.31567612290382385,3.2521369457244873,0.002130282809957862,-2.3610103130340576,1.1366546154022217,-2.0116567611694336e-07,-6.910658359527588,-3.94701886177063,3.9985477924346924,-3.9058501720428467,0.6313775777816772,18.755407333374023,-3.9120006561279297,-73.46775817871094,-22.7747859954834,-37.25,-4.549215316772461,-51.859291076660156,3.6878843307495117,-4.0724077224731445,30.0
0.17,0.8999999761581421,0.0,0.0009577213204465806,-69.97686004638672,0.10430432856082916,0.9762629270553589,-0.014050329104065895,-0.09506791085004807,-1.7135145664215088,0.19612090289592743,-0.5197780132293701,-3.050750494003296,0.6578962206840515,-1.0000606775283813,0.2431986778974533,0.031718816608190536,0.7997209429740906,-0.34567224979400635,-0.13161595165729523,0.08362843841314316,1.9076189994812012,0.3152132034301758,2.8584911823272705,0.0024604774080216885,-3.1235101222991943,2.8251523971557617,3.725290298461914e-08,-6.729844093322754,-7.052535057067871,2.658094644546509,-6.577143669128418,-0.1949222832918167,16.812734603881836,-10.104350090026855,-57.19847869873047,-26.22003746032715,-44.399566650390625,1.971776008605957,-34.758724212646484,6.7708234786987305,-2.6745941638946533,30.0
0.18,0.8999999761581421,0.0,0.005673483479768038,-69.97482299804688,0.10901771485805511,0.9593060612678528,-0.012366309762001038,-0.12894009053707123,-1.7923833131790161,0.4849860370159149,-0.5117729306221008,-3.158856153488159,0.6801707744598389,-1.000032663345337,0.20121769607067108,0.07735783606767654,0.7997813820838928,-0.4136461615562439,-0.21509286761283875,0.09861426055431366,1.8326259851455688,0.3065308630466461,2.3079428672790527,0.002415464026853442,-4.195643901824951,5.0406999588012695,4.842877388000488e-08,-6.689351558685303,-9.131390571594238,0.8104432225227356,-8.072306632995605,-0.9689714908599854,18.180484771728516,-11.673869132995605,-40.56802749633789,-28.193445205688477,-41.94215393066406,6.307428359985352,-24.79009246826172,9.463190078735352,-1.8709063529968262,30.0
0.19,0.8999999761581421,0.0,0.01059699896723032,-69.97271728515625,0.11391887068748474,0.9414871335029602,-0.02010899968445301,-0.1813962161540985,-1.8895868062973022,0.7632984519004822,-0.5135469436645508,-3.3322110176086426,0.7042809128761292,-1.0000073909759521,0.1501511037349701,0.15862904489040375,0.7998179197311401,-0.48280808329582214,-0.31428179144859314,0.09240978211164474,1.7464274168014526,0.28512969613075256,2.8792200088500977,0.002208543010056019,-4.887572765350342,9.087265968322754,-2.5331974029541016e-07,-6.719083309173584,-10.389860153198242,-1.287236213684082,-9.007225036621094,-2.2107605934143066,23.358333587646484,-15.070918083190918,-30.786720275878906,-32.20860290527344,-40.133888244628906,14.401216506958008,-20.54737091064453,18.344120025634766,-1.5253171920776367,30.0
0.2,0.8999999761581421,0.0,0.01572444476187229,-69.97057342529297,0.11894935369491577,0.9225639700889587,-0.04532712325453758,-0.2509438693523407,-2.0094354152679443,1.0237209796905518,-0.6555372476577759,-3.4448580741882324,0.7344818115234375,-0.9999895691871643,0.09240026026964188,0.28416815400123596,0.7998614311218262,-0.5552170872688293,-0.42141392827033997,0.0633685365319252,1.6565885543823242,0.25008895993232727,3.540261745452881,3.119930624961853e-08,-5.378564834594727,13.474205017089844,-6.332993507385254e-07,-6.9198713302612305,-10.944432258605957,-3.4723870754241943,-9.002276420593262,-3.5195841789245605,29.48772621154785,-21.193492889404297,-25.910472869873047,-42.76414489746094,-35.90919494628906,22.664445877075195,-10.441158294677734,23.03002166748047,-0.7215728759765625,30.0
0.21,0.8999999761581421,0.0,0.020272526890039444,-69.96893310546875,0.12373863905668259,0.9024394750595093,0.0658847838640213,-0.3074954152107239,-2.0226223468780518,-0.18755869567394257,1.9916582107543945,-2.6281046867370605,0.7665279507637024,-0.9999340176582336,0.024998130276799202,0.44305896759033203,0.7997933626174927,-0.6179348230361938,-0.500006377696991,0.010282965376973152,1.5842198133468628,0.20263858139514923,3.56904935836792,-0.10556124150753021,-7.76772928237915,16.581518173217773,0.33043423295021057,-2.3640334606170654,0.007764912210404873,-5.641729831695557,-5.259566783905029,-4.513828277587891,38.51386260986328,-25.287662506103516,-17.88263702392578,-56.69008255004883,-35.16838073730469,26.01065444946289,11.089622497558594,17.96075439453125,1.0891456604003906,30.0
0.22,0.8999999761581421,0.0,0.022663764655590057,-69.96874237060547,0.12792576849460602,0.8813923597335815,0.06704824417829514,-0.31018710136413574,-2.1592984199523926,0.03340056538581848,1.9682273864746094,-2.253283739089966,0.8147999048233032,-1.0000128746032715,-0.03184571489691734,0.5950222015380859,0.799986720085144,-0.6389338374137878,-0.49999621510505676,-0.0572994127869606,1.5644562244415283,0.14872309565544128,5.06472635269165,0.003693076316267252,-4.623131275177002,13.862326622009277,0.0005910970503464341,-1.4486148357391357,-0.00036749595892615616,-7.483624458312988,0.4076498746871948,-5.068470478057861,44.52129364013672,-28.09038734436035,-103.12835693359375,-55.9327392578125,-46.801170349121094,27.704744338989258,42.813716888427734,2.1298980712890625,3.893016815185547,30.0
0.23,0.8999999761581421,0.0,0.024730226024985313,-69.96878051757812,0.1329076886177063,0.8591840267181396,0.06374888122081757,-0.3055150508880615,-2.293102741241455,0.22382022440433502,1.8404523134231567,-2.078216791152954,0.8614991903305054,-1.0000133514404297,-0.07083088904619217,0.713049054145813,0.7999948859214783,-0.6397687792778015,-0.4999934136867523,-0.1367519646883011,1.5963472127914429,0.09573143720626831,4.332337856292725,0.0032249349169433117,-3.3713879585266113,10.166824340820312,0.00026562780840322375,1.2865703105926514,-0.0007900494383648038,-8.143115043640137,5.1112775802612305,-4.951425075531006,51.273353576660156,-26.474668502807617,-101.34488677978516,-45.97880935668945,-38.53721618652344,20.99203109741211,38.74158477783203,-6.869548797607422,3.4724864959716797,30.0
0.24,0.8999999761581421,0.0,0.026707153767347336,-69.96888732910156,0.13853196799755096,0.8360046148300171,0.08181501924991608,-0.3125515580177307,-2.3908588886260986,0.3487362563610077,1.6351767778396606,-1.951002836227417,0.8992860317230225,-0.99998539686203,-0.09823834896087646,0.7913865447044373,0.7999992370605469,-0.6060771942138672,-0.4999983310699463,-0.21042515337467194,1.650151252746582,0.053244780749082565,3.2892918586730957,1.748558133840561e-07,-2.3007473945617676,6.134355545043945,2.078537545457948e-05,4.890185832977295,-0.0004701237485278398,-6.790027618408203,5.603137969970703,-4.0404181480407715,37.1989631652832,-28.91403579711914,-84.88208770751953,-33.46561050415039,-13.257957458496094,23.726726531982422,9.088035583496094,-10.72374153137207,0.7862377166748047,30.0
0.25,0.8999999761581421,0.0,0.02854127064347267,-69.96875,0.1443912237882614,0.8121548295021057,0.12752678990364075,-0.33850446343421936,-2.4459171295166016,0.43373823165893555,1.3512639999389648,-1.7120298147201538,0.924537718296051,-0.9999275803565979,-0.11719447374343872,0.8332239985466003,0.7999995350837708,-0.5390884280204773,-0.5000132918357849,-0.2612012028694153,1.6830213069915771,0.030457878485322,1.92988920211792,-0.0644872784614563,-1.5061359405517578,2.7872252464294434,-1.3882527127861977e-08,7.699925899505615,0.00046774884685873985,-3.985671281814575,1.8195340633392334,-2.265795946121216,10.703754425048828,-32.30558776855469,-55.91560363769531,-17.969459533691406,17.25619888305664,29.366209030151367,-24.60022735595703,-8.261566162109375,-2.153109550476074,30.0
0.26,0.8999999761581421,0.0,0.030306698754429817,-69.96792602539062,0.1499461829662323,0.7880207896232605,0.13725177943706512,-0.3524790108203888,-2.439333915710449,0.19708269834518433,0.28387340903282166,-1.3226245641708374,0.9384550452232361,-0.9919607043266296,-0.12738873064517975,0.8511314988136292,0.7999985814094543,-0.4522624611854553,-0.5000262260437012,-0.2722338140010834,1.656630277633667,0.030889157205820084,0.8507586121559143,1.3705711364746094,-0.6232739090919495,1.086047887802124,1.2350938050076365e-07,8.806317329406738,0.0020112115889787674,0.6773152351379395,-5.459692001342773,-0.16786673665046692,-19.883756637573242,-30.281307220458984,-31.938417434692383,-0.3193016052246094,44.86680603027344,28.31442642211914,-52.552120208740234,-1.7817730903625488,-4.460439682006836,30.0
0.27,0.8999999761581421,0.0,0.03215295448899269,-69.96623229980469,0.15510329604148865,0.7636697292327881,0.10408444702625275,-0.3330448269844055,-2.5431430339813232,0.20481762290000916,0.014520920813083649,-1.3730109930038452,0.9607144594192505,-0.9778596758842468,-0.11304403096437454,0.8531442880630493,0.7950377464294434,-0.3644517660140991,-0.5000207424163818,-0.23849576711654663,1.5571303367614746,0.04393822327256203,12.17685317993164,-3.3783745765686035,9.932673454284668,-0.4694768190383911,0.853273868560791,8.233675956726074,0.019651396200060844,3.592259407043457,-12.123148918151855,0.9595367908477783,-41.25020980834961,-20.92276382446289,-23.46420669555664,0.3295106887817383,56.711273193359375,18.86107635498047,-49.792137145996094,-3.269326686859131,-4.307316780090332,30.0
0.28,0.8999999761581421,0.0,0.033905815333127975,-69.96456909179688,0.16055747866630554,0.7387729287147522,-0.011051617562770844,-0.23886729776859283,-2.4975380897521973,-0.6775692701339722,-1.3495488166809082,-0.7756163477897644,0.9781287908554077,-0.9983678460121155,-0.13830050826072693,0.9444843530654907,0.7454355359077454,-0.2933197021484375,-0.4961167871952057,-0.17937952280044556,1.4093619585037231,0.06027456372976303,0.01344098150730133,-1.1876143217086792,-5.136643409729004,10.380453109741211,-5.252023220062256,5.858068943023682,0.3746602535247803,7.012160301208496,-16.056320190429688,1.3130079507827759,-55.26044464111328,-21.60148811340332,1.9776756763458252,37.596710205078125,67.16145324707031,8.133654594421387,-12.675483703613281,-34.89555358886719,-1.524205207824707,30.0
0.29,0.8999999761581421,0.0,0.0362519808113575,-69.96273040771484,0.1662701666355133,0.7144559621810913,-0.2000339776277542,-0.1493026167154312,-2.4975943565368652,-0.7153027653694153,-2.7331151962280273,-0.6070036888122559,1.0047420263290405,-0.9989088773727417,-0.17341342568397522,1.027610182762146,0.8044256567955017,-0.24975866079330444,-0.49711430072784424,-0.08822301030158997,1.2132165431976318,0.08431415259838104,3.708405017852783,0.16107085347175598,-1.6734589338302612,7.184432029724121,5.498078346252441,2.424560070037842,-0.8087095022201538,9.523072242736816,-20.846527099609375,1.939093828201294,-57.860137939453125,-18.637781143188477,-17.922325134277344,0.7491245269775391,60.58485412597656,17.047191619873047,-10.313682556152344,-56.471317291259766,-1.6075820922851562,30.0
0.3,0.8999999761581421,0.0,0.03826504200696945,-69.96028137207031,0.17222058773040771,0.6898748874664307,-0.24765613675117493,-0.0620870366692543,-2.4735305309295654,-1.1046398878097534,-3.3725085258483887,-0.1590316742658615,1.0310239791870117,-0.992459237575531,-0.19212137162685394,1.1041518449783325,0.8028335571289062,-0.21798034012317657,-0.5001593828201294,0.019091935828328133,1.1382808685302734,-0.009435235522687435,2.051623821258545,1.1054595708847046,-1.8060016632080078,7.797497749328613,-0.8294814229011536,5.659968852996826,0.10204747319221497,12.308539390563965,1.7350571155548096,-28.663192749023438,-52.55342102050781,-17.952686309814453,17.329030990600586,-19.686260223388672,60.881744384765625,15.842987060546875,-134.17137145996094,-69.73037719726562,30.0,30.0
0.31,0.8999999761581421,0.0,0.03997877985239029,-69.95703125,0.17835131287574768,0.6668576002120972,-0.14380887150764465,0.03754327446222305,-2.3129525184631348,-0.7188100218772888,-2.14870548248291,-0.2948043942451477,1.0673953294754028,-0.9871711134910583,-0.18760810792446136,1.1627702713012695,0.8004878759384155,-0.16992971301078796,-0.49819934368133545,0.14024211466312408,1.1227467060089111,-0.23493057489395142,3.738232374191284,-0.07907102257013321,0.6929379105567932,4.677955627441406,0.4641258120536804,4.069915771484375,0.0767602026462555,11.658892631530762,-3.0056822299957275,-21.871559143066406,-42.893253326416016,-14.295673370361328,105.76509857177734,-16.498079299926758,-56.868675231933594,13.147156715393066,-169.90289306640625,-108.33406829833984,30.0,30.0
0.32,0.8999999761581421,0.0,0.04114647954702377,-69.95337677001953,0.18515466153621674,0.6458461284637451,-0.0050957947969436646,0.1618839055299759,-2.1461968421936035,-0.512615978717804,-0.6783503293991089,-0.2847606837749481,1.1125445365905762,-0.9935079216957092,-0.171665221452713,1.199140191078186,0.8021214604377747,-0.13678045570850372,-0.5002466440200806,0.2546329200267792,1.063545823097229,-0.44917410612106323,4.401684284210205,-1.1624220609664917,1.6248598098754883,2.830512285232544,0.35041579604148865,2.8990097045898438,-0.005826648324728012,11.185898780822754,-7.549837112426758,-21.98981285095215,-34.08219528198242,-30.74117660522461,94.03141784667969,5.427280426025391,-87.65193176269531,25.911863327026367,-170.8650665283203,-124.04830169677734,30.0,30.0
0.33,0.8999999761581421,0.0,0.041423968970775604,-69.94930267333984,0.19238220155239105,0.6267758011817932,0.09314877539873123,0.3265170454978943,-1.9794926643371582,-1.0455416440963745,-0.1846780627965927,0.24682097136974335,1.1548734903335571,-1.0001269578933716,-0.15510854125022888,1.2362250089645386,0.8019221425056458,-0.11522945761680603,-0.5002757906913757,0.37706848978996277,0.9423211812973022,-0.6558119654655457,4.263015270233154,0.054742615669965744,1.7361257076263428,4.6280059814453125,-2.805172920227051,0.9790870547294617,-0.0878276377916336,12.668715476989746,-14.70917797088623,-21.10780906677246,-44.686737060546875,-41.118797302246094,50.79254150390625,31.323997497558594,-82.60284423828125,30.486759185791016,-151.670166015625,-119.76851654052734,30.0,30.0
0.34,0.8999999761581421,0.0,0.04037594795227051,-69.9450454711914,0.19989629089832306,0.6092597246170044,0.20767542719841003,0.5023679733276367,-1.8229318857192993,-1.6493080854415894,0.7229773998260498,0.9246085286140442,1.1941596269607544,-1.0001204013824463,-0.13685862720012665,1.2690205574035645,0.8043340444564819,-0.11543213576078415,-0.500402569770813,0.503690779209137,0.7660039663314819,-0.8549688458442688,2.9718916416168213,0.21250496804714203,1.0610259771347046,3.6473169326782227,0.7384397387504578,-0.5561615228652954,0.4258739650249481,11.798914909362793,-20.092363357543945,-4.227142333984375,-41.957679748535156,-35.199974060058594,23.193378448486328,20.36893653869629,-82.05731201171875,22.95128631591797,-98.1548080444336,-121.51284790039062,30.0,30.0
0.35000000000000003,0.8999999761581421,0.0,0.03861793130636215,-69.94032287597656,0.2080141007900238,0.5943889021873474,0.3610931634902954,0.6649136543273926,-1.5209730863571167,-1.2132441997528076,1.264366626739502,0.7963437438011169,1.2369685173034668,-1.0001246929168701,-0.1055719330906868,1.2901215553283691,0.8027193546295166,-0.1216043159365654,-0.5002045035362244,0.6040043234825134,0.5917948484420776,-0.9832947254180908,4.635869979858398,0.03940996527671814,3.898472547531128,1.2016420364379883,1.960681676864624,-0.32083576917648315,0.46762651205062866,8.512384414672852,-16.681194305419922,5.959301948547363,-30.78431510925293,-34.27248764038086,10.774194717407227,-0.17453163862228394,-92.21661376953125,16.96163558959961,-64.75965881347656,-136.46408081054688,30.0,30.0
0.36,0.8999999761581421,0.0,0.0367976576089859,-69.93470764160156,0.21683871746063232,0.5830442905426025,0.538603663444519,0.8511314392089844,-1.1851578950881958,-1.0317333936691284,1.7197843790054321,0.647048830986023,1.2833245992660522,-1.0001871585845947,-0.06261694431304932,1.298171043395996,0.8062847256660461,-0.12602545320987701,-0.5004247426986694,0.6694162487983704,0.4594404399394989,-1.066125750541687,4.593306541442871,0.12846648693084717,4.820652008056641,-0.3435218930244446,2.7614803314208984,-0.5695973634719849,-0.025535527616739273,5.064080715179443,-14.606666564941406,11.586202621459961,-26.091697692871094,-38.68138122558594,-0.3106114864349365,12.841087341308594,-109.48422241210938,2.8693552017211914,-49.00895690917969,-148.15924072265625,30.0,30.0
0.37,0.8999999761581421,0.0,0.03512832894921303,-69.92794799804688,0.2258843183517456,0.5754058957099915,0.7756878137588501,1.0615962743759155,-0.7997272610664368,-1.62424898147583,2.278827428817749,0.19146764278411865,1.3184634447097778,-1.000148057937622,-0.026783686131238937,1.2961567640304565,0.8075026869773865,-0.14267107844352722,-0.5011876225471497,0.6938539743423462,0.3794281482696533,-1.107013463973999,2.5357604026794434,0.2020961046218872,2.8496909141540527,-1.3442635536193848,3.053067684173584,-1.3052693605422974,-0.2936612069606781,0.8983817100524902,-5.4920244216918945,10.552351951599121,-23.966903686523438,-35.23969268798828,-14.187705039978027,23.482927322387695,-122.52806854248047,-19.578401565551758,-45.39202117919922,-146.96707153320312,25.396034240722656,30.0
0.38,0.8999999761581421,0.0,0.03441454842686653,-69.91913604736328,0.23510023951530457,0.5720431208610535,1.0311453342437744,1.2352190017700195,-0.37401658296585083,-1.328007698059082,2.5372471809387207,-0.5131725668907166,1.3455393314361572,-1.0002063512802124,0.0033623860217630863,1.2833657264709473,0.8057275414466858,-0.15071894228458405,-0.500224232673645,0.6885966062545776,0.35228797793388367,-1.1116719245910645,2.947582483291626,-0.07932194322347641,3.7781968116760254,-2.651000738143921,1.871225357055664,0.8179121017456055,0.9600495100021362,-0.5399125814437866,-4.384380340576172,10.822318077087402,-29.07707977294922,-44.05175018310547,-24.401531219482422,53.55695343017578,-142.6781005859375,-14.798526763916016,-66.37458038330078,-137.25096130371094,-30.0,30.0
0.39,0.8999999761581421,0.0,0.03381584957242012,-69.90840148925781,0.24470438063144684,0.5722554922103882,1.2272266149520874,1.406775951385498,-0.05610954016447067,-1.6390808820724487,3.1700479984283447,-0.13462001085281372,1.365681529045105,-1.0002217292785645,0.03308117389678955,1.2607741355895996,0.8038336634635925,-0.15955322980880737,-0.50026535987854,0.6719449162483215,0.3356395661830902,-1.0897881984710693,1.6980677843093872,0.006806634366512299,3.500739812850952,-4.171544075012207,5.620833873748779,-0.4661737084388733,0.7630833387374878,-1.242314338684082,-4.7473649978637695,10.719181060791016,-36.54332733154297,-57.110877990722656,-45.62077331542969,75.53337097167969,-147.2482147216797,-13.801095008850098,-63.30298614501953,-102.69694519042969,30.0,30.0
0.4,0.8999999761581421,0.0,0.032490428537130356,-69.89623260498047,0.2546267509460449,0.5751078128814697,1.3906512260437012,1.5410972833633423,0.2333303987979889,-1.8558387756347656,3.483062267303467,0.31653788685798645,1.3734625577926636,-1.000203013420105,0.05831314995884895,1.2310675382614136,0.8056275248527527,-0.18014636635780334,-0.5002565979957581,0.6522876024246216,0.30394113063812256,-1.0466315746307373,-0.09626665711402893,0.15498574078083038,2.6771345138549805,-4.748019218444824,4.7042646408081055,-2.145084857940674,0.33194682002067566,-1.5812880992889404,-6.901769638061523,13.12919807434082,-38.23469161987305,-52.92958068847656,-70.73905944824219,76.15643310546875,-136.6405792236328,-21.602386474609375,-45.66728210449219,-76.18719482421875,18.82891082763672,30.0
0.41000000000000003,0.8999999761581421,0.0,0.030508896335959435,-69.88257598876953,0.2647148072719574,0.5800698399543762,1.538510799407959,1.634088397026062,0.49275946617126465,-2.204033613204956,3.76288104057312,0.6999456882476807,1.3638440370559692,-1.0002199411392212,0.07516194880008698,1.1960577964782715,0.8003939390182495,-0.21279367804527283,-0.5001960396766663,0.629728376865387,0.26321667432785034,-0.9817116260528564,-2.637968063354492,0.16661827266216278,0.6865816712379456,-4.781832218170166,11.414859771728516,-3.7917637825012207,0.26976117491722107,-2.1502177715301514,-7.099911212921143,22.064167022705078,-27.011974334716797,-37.0797233581543,-98.49922943115234,65.91828155517578,-120.75753021240234,-30.926498413085938,-26.695499420166016,-53.16907501220703,-30.0,30.0
0.42,0.8999999761581421,0.0,0.02842908911406994,-69.86753845214844,0.27478742599487305,0.5866298675537109,1.6513117551803589,1.699713110923767,0.7004129886627197,-2.5375611782073975,3.9382405281066895,0.6490350961685181,1.3395442962646484,-1.0002131462097168,0.07786929607391357,1.1578726768493652,0.8032271862030029,-0.25685930252075195,-0.5001711845397949,0.6115200519561768,0.2026548534631729,-0.8908092379570007,-3.2253925800323486,-0.001785200322046876,-0.11276775598526001,-4.805000305175781,5.883251667022705,-4.828927993774414,-0.16194017231464386,-1.3327295780181885,-8.49644947052002,22.75113296508789,-12.256866455078125,-20.70992088317871,-112.84139251708984,55.2874870300293,-99.3062973022461,-36.26478958129883,-34.45935821533203,-44.507896423339844,-30.0,30.0
0.43,0.8999999761581421,0.0,0.026624582707881927,-69.85130310058594,0.2845906615257263,0.5942018628120422,1.71196448802948,1.6920270919799805,0.83725506067276,-2.904623508453369,4.214979648590088,0.6579304337501526,1.3048855066299438,-1.0002127885818481,0.07100153714418411,1.117355465888977,0.8021129369735718,-0.32804322242736816,-0.5004265904426575,0.589674711227417,0.12541714310646057,-0.7770974636077881,-3.925234794616699,0.014735192060470581,-1.2457172870635986,-4.244628429412842,-1.3112304210662842,-9.38237476348877,-0.5111571550369263,-3.9388537406921387,-7.458176612854004,8.62087345123291,6.354270935058594,-14.231424331665039,-143.49224853515625,55.68751525878906,-87.97850036621094,-32.66148376464844,-14.484867095947266,-26.019344329833984,-30.0,30.0
0.44,0.8999999761581421,0.0,0.024560054764151573,-69.83502960205078,0.29395484924316406,0.6014650464057922,1.7325377464294434,1.6457359790802002,0.8885893225669861,-3.243708848953247,4.422055244445801,0.7868068814277649,1.2638393640518188,-0.9931424856185913,0.05027223378419876,1.0873175859451294,0.7998924851417542,-0.43019744753837585,-0.5002017617225647,0.5446013808250427,0.06122293695807457,-0.7018045783042908,-3.968996047973633,1.3934894800186157,-2.399610996246338,-2.039293050765991,0.027881771326065063,-10.739157676696777,0.004632962867617607,-4.941494941711426,-6.1755876541137695,8.539695739746094,21.261428833007812,-4.001678466796875,-203.03216552734375,55.16351318359375,-64.14576721191406,-2.9922733306884766,-22.583694458007812,16.55669403076172,8.299346923828125,30.0
0.45,0.8999999761581421,0.0,0.02288096211850643,-69.81875610351562,0.303280234336853,0.6081036925315857,1.7108663320541382,1.5898034572601318,0.9095165133476257,-2.893613815307617,4.41038179397583,0.45729413628578186,1.2390669584274292,-0.9754393696784973,0.03731013461947441,1.067025065422058,0.799705982208252,-0.5430286526679993,-0.5001387000083923,0.48188018798828125,0.021399598568677902,-0.6228516697883606,-2.0168449878692627,2.0696237087249756,-1.0457324981689453,-1.7710453271865845,-0.007575362920761108,-10.701416015625,0.002910181414335966,-6.672892093658447,-2.8451218605041504,7.728387355804443,41.00642776489258,-2.0519142150878906,-220.98219299316406,34.289302825927734,-53.1497802734375,0.8692803382873535,-7.499910354614258,7.475452423095703,-0.06992340087890625,30.0
0.46,0.8999999761581421,0.0,0.022059231996536255,-69.802490234375,0.31300652027130127,0.6138353943824768,1.6771204471588135,1.5315861701965332,0.8864895105361938,-2.211099863052368,4.198460102081299,-0.07001595944166183,1.228270411491394,-0.9547594785690308,0.032605938613414764,1.0557582378387451,0.8000174760818481,-0.644736111164093,-0.500097393989563,0.404163658618927,0.022489970549941063,-0.5615686178207397,-0.6470519304275513,2.074394702911377,-0.270600825548172,-0.4532133936882019,-0.0006952175754122436,-8.615375518798828,0.0028447862714529037,-7.790066719055176,1.334668755531311,6.0707879066467285,50.01991653442383,-3.784989833831787,-221.2437744140625,14.909567832946777,-44.964202880859375,3.35587739944458,-2.44770884513855,16.11757469177246,0.38551902770996094,30.0
0.47000000000000003,0.8999999761581421,0.0,0.02222887985408306,-69.78627014160156,0.32353317737579346,0.6184927821159363,1.6409966945648193,1.5061715841293335,0.8424517512321472,-1.2995588779449463,4.094884395599365,-0.6010991334915161,1.228019118309021,-0.9374638199806213,0.03843079134821892,1.0459257364273071,0.800016462802887,-0.7180315256118774,-0.5000852942466736,0.30958065390586853,0.08102516084909439,-0.5172772407531738,0.1034214124083519,1.4702779054641724,0.8376798629760742,-1.0297703742980957,-0.0010355793638154864,-5.277568817138672,0.0027654673904180527,-9.577516555786133,7.431594371795654,4.577467441558838,54.633331298828125,-9.212872505187988,-191.62924194335938,7.581852912902832,-50.460166931152344,5.756588935852051,1.1626968383789062,5.547117233276367,0.9659175872802734,30.0
0.48,0.8999999761581421,0.0,0.023135466501116753,-69.77008819580078,0.3349846303462982,0.6219974756240845,1.594189167022705,1.5185884237289429,0.7877604365348816,-0.7005357146263123,3.7863552570343018,-0.8563333749771118,1.2271207571029663,-0.9232826232910156,0.05139513313770294,1.0249661207199097,0.8000125885009766,-0.7513976693153381,-0.5000550746917725,0.20683306455612183,0.18827417492866516,-0.4822496473789215,-0.39867183566093445,1.4051464796066284,1.362391710281372,-2.4864630699157715,-0.0009052364039234817,-1.2027990818023682,0.001386245246976614,-9.848309516906738,11.446553230285645,3.656550884246826,47.097900390625,-17.06682014465332,-152.66241455078125,18.874683380126953,-42.659019470214844,8.345610618591309,-2.11834716796875,-1.3590612411499023,0.43837547302246094,30.0
0.49,0.8999999761581421,0.0,0.02428547851741314,-69.75386810302734,0.34702759981155396,0.6243383884429932,1.5574207305908203,1.5540757179260254,0.7291997075080872,-0.6565914750099182,3.466127634048462,-0.803710401058197,1.2270660400390625,-0.90735924243927,0.07391825318336487,0.9902535676956177,0.8003683090209961,-0.746541440486908,-0.500027596950531,0.1156294047832489,0.30234062671661377,-0.44710445404052734,0.680058479309082,1.3707860708236694,2.9934723377227783,-3.093107223510742,-1.7206834554672241,1.733249545097351,-0.0032342930790036917,-8.299840927124023,10.592013359069824,3.504366159439087,28.490999221801758,-20.734710693359375,-127.416748046875,31.045440673828125,-28.454654693603516,10.08553695678711,-12.038520812988281,-5.729246139526367,-0.9365692138671875,30.0
0.5,0.8999999761581421,0.0,0.025140242651104927,-69.73746490478516,0.3590565323829651,0.6255446672439575,1.5574259757995605,1.5736520290374756,0.7075645327568054,-1.0656452178955078,2.981278657913208,-0.4252892732620239,1.2190066576004028,-0.8892524242401123,0.09242478758096695,0.9592717885971069,0.7999207377433777,-0.7246239185333252,-0.5000110268592834,0.050069235265254974,0.375995397567749,-0.4081616699695587,-1.74824857711792,2.219233512878418,1.1524872779846191,-2.88885235786438,-0.014606751501560211,2.382990837097168,-0.0003651358128990978,-5.431577205657959,5.2687668800354,3.670288324356079,6.911918640136719,-22.34087371826172,-138.45736694335938,33.814613342285156,-9.877124786376953,4.756502151489258,-20.99907112121582,0.2502460479736328,-2.126811981201172,30.0
0.51,0.8999999761581421,0.0,0.025617489591240883,-69.7207260131836,0.37066465616226196,0.6256968379020691,1.5928375720977783,1.5533958673477173,0.6821484565734863,-1.3246269226074219,2.763864040374756,-0.23566797375679016,1.1971017122268677,-0.862991452217102,0.0979984924197197,0.9355772137641907,0.7999944090843201,-0.7063955068588257,-0.5000047087669373,0.007450496312230825,0.39429599046707153,-0.36580678820610046,-2.3262767791748047,2.9567372798919678,0.2985416650772095,-1.8433729410171509,-6.367918103933334e-08,1.3851901292800903,0.0006151293055154383,-3.6315720081329346,-0.09776484221220016,3.9447011947631836,-4.386990547180176,-5.736804008483887,-167.50534057617188,11.115605354309082,-1.49713134765625,4.90509033203125,-19.759912490844727,9.207956314086914,-2.082660675048828,30.0
0.52,0.8999999761581421,0.0,0.026034139096736908,-69.70381927490234,0.3818911612033844,0.6247185468673706,1.6408421993255615,1.5212171077728271,0.6388049721717834,-1.3365665674209595,2.805426836013794,-0.23353144526481628,1.175330638885498,-0.8330350518226624,0.10045818239450455,0.9189889430999756,0.7999931573867798,-0.6987521648406982,-0.5000014901161194,-0.023259704932570457,0.3691604733467102,-0.3235578238964081,-1.999470829963684,2.937741279602051,0.23807090520858765,-1.2664958238601685,-3.682216629385948e-07,0.3939517140388489,0.0005646708304993808,-2.855888843536377,-3.664398670196533,3.9325668811798096,-6.265024185180664,1.6040802001953125,-186.75526428222656,-9.92151165008545,3.3631486892700195,3.40969181060791,-12.158092498779297,7.274015426635742,-1.370351791381836,30.0
0.53,0.8999999761581421,0.0,0.026613308116793633,-69.68700408935547,0.3928786814212799,0.6225067377090454,1.687513828277588,1.4875764846801758,0.579096794128418,-1.245896339416504,2.9410953521728516,-0.3155326247215271,1.1565029621124268,-0.8060404658317566,0.10109145194292068,0.9109623432159424,0.7999910712242126,-0.697193443775177,-0.500001072883606,-0.04928628355264664,0.3222266733646393,-0.28507137298583984,-1.684044361114502,2.431516647338867,0.010879671201109886,-0.2782689332962036,-1.019798219203949e-07,0.10946548730134964,0.000229963319725357,-2.5611743927001953,-4.936529636383057,3.6088685989379883,-8.019047737121582,6.213620185852051,-205.58348083496094,-23.772510528564453,12.897163391113281,2.126588821411133,-0.14458465576171875,9.30449104309082,-0.24283218383789062,30.0
0.54,0.8999999761581421,0.0,0.02744927629828453,-69.6704330444336,0.4037276804447174,0.6190252304077148,1.729988932609558,1.4621189832687378,0.5159121751785278,-1.1289827823638916,3.1156582832336426,-0.4118576645851135,1.1417287588119507,-0.7849815487861633,0.10037072747945786,0.9124196767807007,0.7999891042709351,-0.6964625716209412,-0.5000067353248596,-0.07582186162471771,0.2757524847984314,-0.25117021799087524,-1.2334891557693481,1.7837778329849243,-0.07089801132678986,0.5837095975875854,1.6787089407444e-07,0.21224191784858704,-0.00020989876065868884,-2.739680290222168,-4.178958415985107,3.242267608642578,-10.300558090209961,8.812967300415039,-216.78684997558594,-29.52386474609375,20.38079833984375,1.5752270221710205,9.918500900268555,8.11446762084961,0.7511806488037109,30.0
0.55,0.8999999761581421,0.0,0.028545372188091278,-69.65413665771484,0.41449853777885437,0.614315390586853,1.7687891721725464,1.4496079683303833,0.46227145195007324,-1.0606023073196411,3.237433910369873,-0.4800925850868225,1.1315525770187378,-0.7696816325187683,0.09998717904090881,0.9193459749221802,0.7999863624572754,-0.6941976547241211,-0.5000169277191162,-0.10487473011016846,0.24173831939697266,-0.22061112523078918,-0.8021942973136902,1.2751450538635254,0.016690267249941826,0.879507839679718,-1.748558133840561e-07,0.3929036557674408,-0.00048385822447016835,-2.958003044128418,-2.764477252960205,2.9686074256896973,-12.962644577026367,9.045614242553711,-220.45257568359375,-28.50247573852539,25.95783042907715,0.9464334845542908,14.089868545532227,4.112990379333496,1.147256851196289,30.0
0.56,0.8999999761581421,0.0,0.029838908463716507,-69.63803100585938,0.4251915216445923,0.6084421277046204,1.8038036823272705,1.4503185749053955,0.4245358407497406,-1.0933847427368164,3.2151026725769043,-0.4967219829559326,1.1247329711914062,-0.7576624751091003,0.1010776162147522,0.9253584146499634,0.7999973297119141,-0.6902273297309875,-0.5000295639038086,-0.1336686760187149,0.2189367562532425,-0.1914438009262085,-0.5657628178596497,1.090308427810669,0.17970207333564758,0.5175403952598572,-4.497123882174492e-07,0.4979875385761261,-0.00043626237311400473,-2.7605855464935303,-1.8649723529815674,2.8364005088806152,-15.95758056640625,7.593772888183594,-220.35877990722656,-23.532672882080078,31.203237533569336,0.15355604887008667,14.118487358093262,-0.6269817352294922,1.073185920715332,30.0
0.5700000000000001,0.8999999761581421,0.0,0.031231971457600594,-69.62196350097656,0.4357595145702362,0.6014493703842163,1.8360028266906738,1.4600387811660767,0.40148064494132996,-1.229614496231079,3.017296314239502,-0.4659174978733063,1.1190005540847778,-0.7455454468727112,0.10372280329465866,0.9252268075942993,0.7999970316886902,-0.6855210661888123,-0.5000429749488831,-0.1565529853105545,0.19841980934143066,-0.1617608219385147,-0.5686179995536804,1.2437562942504883,0.3127267360687256,-0.25502026081085205,2.7875871637661476e-06,0.46720224618911743,-5.6036551541183144e-05,-1.9687414169311523,-1.9725062847137451,2.854635238647461,-19.278783798217773,6.003400802612305,-220.6207275390625,-18.74590301513672,36.76185607910156,-0.6958339214324951,12.709760665893555,-3.8916308879852295,0.8125457763671875,30.0
0.58,0.8999999761581421,0.0,0.03264091908931732,-69.6058120727539,0.4461462199687958,0.5933451056480408,1.8684965372085571,1.4720346927642822,0.38537365198135376,-1.4150358438491821,2.7068123817443848,-0.41721832752227783,1.112452745437622,-0.7309561371803284,0.10729284584522247,0.9169684052467346,0.7999969720840454,-0.6816826462745667,-0.5000543594360352,-0.1689017415046692,0.1718374788761139,-0.13039247691631317,-0.7167182564735413,1.5519163608551025,0.3657222390174866,-1.0697963237762451,2.393999784544576e-05,0.27910301089286804,0.00040231909952126443,-0.8197047710418701,-2.7621910572052,2.9849021434783936,-22.262470245361328,5.686298370361328,-223.532958984375,-17.597232818603516,41.38047790527344,-1.4966100454330444,12.119759559631348,-4.672460079193115,0.6515617370605469,30.0
0.59,0.8999999761581421,0.0,0.03404145687818527,-69.58956909179688,0.4563179314136505,0.5841138362884521,1.9046869277954102,1.4819257259368896,0.36864230036735535,-1.5938161611557007,2.3778038024902344,-0.3859688639640808,1.1044059991836548,-0.7135074734687805,0.11108148843050003,0.9014036655426025,0.7999973297119141,-0.6799078583717346,-0.5000618696212769,-0.16886326670646667,0.1352817565202713,-0.09686317294836044,-0.875349223613739,1.808287501335144,0.35447564721107483,-1.7161097526550293,4.589273521560244e-05,0.014812905341386795,0.0007554939365945756,0.40286707878112793,-3.7667548656463623,3.1724414825439453,-24.154964447021484,6.713228225708008,-227.495849609375,-19.964797973632812,44.04996109008789,-2.17030930519104,12.421372413635254,-3.8889975547790527,0.6232719421386719,30.0
0.6,0.8999999761581421,0.0,0.03546809032559395,-69.57325744628906,0.4662727117538452,0.5737393498420715,1.946195125579834,1.4886727333068848,0.34692126512527466,-1.7284564971923828,2.106635808944702,-0.3877442479133606,1.0954188108444214,-0.694439172744751,0.11480647325515747,0.8805583119392395,0.7999905347824097,-0.6811299920082092,-0.5000638961791992,-0.15773016214370728,0.08993639796972275,-0.0611182302236557,-0.9329677224159241,1.8885691165924072,0.3361132740974426,-2.142394781112671,1.3830140233039856e-07,-0.31598106026649475,0.0008867001160979271,1.397621512413025,-4.49896764755249,3.3867745399475098,-24.6657657623291,8.335403442382812,-231.8247833251953,-23.736614227294922,44.05503463745117,-2.5126585960388184,13.386494636535645,-2.580227851867676,0.7226333618164062,30.0
0.61,0.8999999761581421,0.0,0.036987680941820145,-69.55695343017578,0.4760259687900543,0.5622181296348572,1.9928367137908936,1.4935622215270996,0.3203437328338623,-1.8175320625305176,1.9168202877044678,-0.4219784140586853,1.0865933895111084,-0.6755468249320984,0.11833585053682327,0.856942892074585,0.7999924421310425,-0.6859768629074097,-0.5000613927841187,-0.1383967101573944,0.0395805723965168,-0.023407544940710068,-0.8680897355079651,1.7921053171157837,0.3081545829772949,-2.312504768371582,1.2491364032030106e-07,-0.6847689151763916,0.0008877003565430641,2.0914387702941895,-4.838077068328857,3.587228536605835,-24.048337936401367,9.707681655883789,-235.85562133789062,-26.677227020263672,42.22051239013672,-2.5978007316589355,14.034570693969727,-1.0662879943847656,0.823822021484375,30.0
0.62,0.8999999761581421,0.0,0.03863053023815155,-69.54076385498047,0.48563486337661743,0.5495795011520386,2.0349340438842773,1.5077906847000122,0.28734833002090454,-1.8177274465560913,1.8890527486801147,-0.3751590847969055,1.078925371170044,-0.6586825847625732,0.12158999592065811,0.833244264125824,0.7999995350837708,-0.6949219107627869,-0.5000633001327515,-0.11807026714086533,-0.00023081967083271593,0.011907451786100864,-0.7598608732223511,1.4227242469787598,0.31941524147987366,-2.2555794715881348,-2.2817403078079224e-07,-0.9798890948295593,-0.01913032867014408,0.7474271655082703,0.2575201392173767,3.3104162216186523,-22.300010681152344,10.293781280517578,-239.67405700683594,-27.575958251953125,38.63920211791992,-2.266634225845337,14.222946166992188,0.5860118865966797,0.9089527130126953,30.0
0.63,0.8999999761581421,0.0,0.04016309976577759,-69.52470397949219,0.49517446756362915,0.535894513130188,2.079618215560913,1.524702787399292,0.2731996774673462,-2.0340325832366943,1.5801289081573486,-0.33409422636032104,1.0726958513259888,-0.6416167616844177,0.12534774839878082,0.809695303440094,0.7999971508979797,-0.704741895198822,-0.500054121017456,-0.10451903939247131,-3.618667324190028e-05,0.052927903831005096,-0.5784217119216919,1.8542975187301636,0.34706589579582214,-2.2393696308135986,-1.912703737616539e-07,-1.0398460626602173,0.0010255679953843355,1.7540315389633179,0.000842208624817431,4.02590799331665,-20.892833709716797,6.232231140136719,-230.13375854492188,-14.40544319152832,39.88149642944336,-1.294982671737671,-19.925474166870117,0.07763957977294922,0.8881473541259766,30.0
0.64,0.8999999761581421,0.0,0.04151526466012001,-69.50858306884766,0.5044922828674316,0.5211127400398254,2.1279382705688477,1.5448983907699585,0.25916439294815063,-2.240541934967041,1.2941614389419556,-0.2549809217453003,1.0675915479660034,-0.6203847527503967,0.13013049960136414,0.783258318901062,0.7999993562698364,-0.7163835167884827,-0.5000439882278442,-0.08252488076686859,-3.139159525744617e-05,0.09561522305011749,-0.5335666537284851,2.254690170288086,0.4711565673351288,-2.7058966159820557,1.5446858014911413e-07,-1.2925795316696167,0.0010586859425529838,2.5247833728790283,0.0009259490761905909,4.191486358642578,-19.61737060546875,4.549575328826904,-227.78553771972656,-12.341893196105957,36.3952522277832,-0.8259626626968384,-34.32223892211914,-2.346316337585449,0.7967090606689453,30.0
0.65,0.8999999761581421,0.0,0.04267255589365959,-69.49243927001953,0.513593316078186,0.5052456259727478,2.182955503463745,1.5642348527908325,0.24206164479255676,-2.45261812210083,1.0831485986709595,-0.19782061874866486,1.061714768409729,-0.5960639715194702,0.1345139741897583,0.7532172799110413,0.8000003099441528,-0.7300119400024414,-0.5000343322753906,-0.05305884778499603,-2.7830377803184092e-05,0.14016400277614594,-0.655898928642273,2.5030252933502197,0.3453938066959381,-2.9888720512390137,1.8564460333436728e-05,-1.4670910835266113,0.0010097011690959334,3.2371315956115723,0.0010252153733745217,4.378811359405518,-18.416784286499023,5.052427291870117,-229.0264434814453,-13.001206398010254,34.19658660888672,-2.4783411026000977,-49.535667419433594,-1.892075538635254,0.7339611053466797,30.0
0.66,0.8999999761581421,0.0,0.04372907802462578,-69.47631072998047,0.5224608182907104,0.4883085787296295,2.2439630031585693,1.5814440250396729,0.22213542461395264,-2.656247138977051,0.9619120359420776,-0.18098527193069458,1.054876446723938,-0.5699948072433472,0.13649879395961761,0.722766101360321,0.8000009059906006,-0.7454143166542053,-0.500023603439331,-0.017215264961123466,-2.3406515538226813e-05,0.18665125966072083,-0.7036845684051514,2.627370595932007,0.053814977407455444,-2.881730079650879,6.546928489115089e-06,-1.6467039585113525,0.0008231087122112513,3.8097591400146484,0.0010719747515395284,4.572864532470703,-16.903682708740234,6.355678558349609,-231.5126953125,-13.84219741821289,30.910009384155273,-3.754838466644287,-64.77062225341797,-0.26840782165527344,0.6452503204345703,30.0
0.67,0.8999999761581421,0.0,0.04481566324830055,-69.46028137207031,0.5310953855514526,0.47032833099365234,2.310652494430542,1.5984644889831543,0.20231732726097107,-2.830611228942871,0.9435839056968689,-0.19592437148094177,1.0486663579940796,-0.5432900190353394,0.13546660542488098,0.6946233510971069,0.8000010251998901,-0.7629875540733337,-0.5000128149986267,0.023139124736189842,-1.7338197721983306e-05,0.2348383069038391,-0.5593945384025574,2.644366979598999,-0.23820525407791138,-2.592435836791992,-4.963053470419254e-06,-1.8732335567474365,0.0005404436378739774,4.170578479766846,0.0010427248198539019,4.74144172668457,-14.32841682434082,6.980120658874512,-233.61944580078125,-13.956235885620117,25.57835578918457,-3.689800262451172,-78.30144500732422,0.646479606628418,0.5083827972412109,30.0
0.68,0.8999999761581421,0.0,0.046064939349889755,-69.44440460205078,0.5395323634147644,0.4513382911682129,2.3828885555267334,1.617302417755127,0.1860811412334442,-2.954680919647217,1.0320212841033936,-0.226140558719635,1.0448704957962036,-0.5171125531196594,0.13189946115016937,0.6693947315216064,0.8000009059906006,-0.782751202583313,-0.5000042915344238,0.06587488949298859,-9.985550605051685e-06,0.28410255908966064,-0.2606618106365204,2.539849042892456,-0.45177581906318665,-2.3224172592163086,-2.7608311938820407e-06,-2.0787770748138428,0.00022773585806135088,4.313714027404785,0.0009536081342957914,4.846809387207031,-10.525896072387695,6.326292514801025,-234.81785583496094,-13.112380981445312,18.35393714904785,-2.301039934158325,-88.52452850341797,0.9622182846069336,0.3310413360595703,30.0
0.6900000000000001,0.8999999761581421,0.0,0.04758145660161972,-69.42872619628906,0.5478373765945435,0.4313674867153168,2.459348678588867,1.6393959522247314,0.1770608127117157,-3.015489101409912,1.200563669204712,-0.2490803599357605,1.0445724725723267,-0.4925653636455536,0.1269662082195282,0.6458218693733215,0.8000004291534424,-0.8038552403450012,-0.5000002980232239,0.10913382470607758,-2.2043732315069064e-06,0.3338755965232849,0.10199756920337677,2.3371732234954834,-0.530841052532196,-2.2330667972564697,1.350525053567253e-06,-2.179584264755249,-4.9477239372208714e-05,4.283003807067871,0.0008324671653099358,4.896160125732422,-5.857301712036133,4.2338690757751465,-235.010498046875,-10.55952262878418,9.869501113891602,0.1850283145904541,-95.05553436279297,0.9032011032104492,0.13344573974609375,30.0
0.7000000000000001,0.8999999761581421,0.0,0.04940943047404289,-69.41322326660156,0.5560836791992188,0.41042962670326233,2.5374443531036377,1.6646114587783813,0.1772231012582779,-3.0173325538635254,1.3953251838684082,-0.2462063729763031,1.0475081205368042,-0.47035762667655945,0.12175358086824417,0.6223992705345154,0.7999998927116394,-0.8245624303817749,-0.5000013113021851,0.1518566608428955,3.272172307333676e-06,0.3834190368652344,0.3799426853656769,2.089937210083008,-0.5213046669960022,-2.2632055282592773,2.6895213522948325e-07,-2.088390350341797,-0.0002671872789505869,4.181209087371826,-3.9774749893695116e-07,4.873118877410889,-1.1487951278686523,1.0524016618728638,-233.27426147460938,-6.291359901428223,1.7083396911621094,3.009634256362915,-98.26811218261719,1.3098888397216797,-0.0510711669921875,30.0
0.71,0.8999999761581421,0.0,0.05150055140256882,-69.39787292480469,0.5643345713615417,0.3885194659233093,2.614372968673706,1.6925771236419678,0.18769216537475586,-2.9762396812438965,1.5534751415252686,-0.19630345702171326,1.0525524616241455,-0.45027998089790344,0.11742567270994186,0.5976204872131348,0.7999972105026245,-0.8429944515228271,-0.500006914138794,0.19377242028713226,6.816710083512589e-06,0.4322182238101959,0.520613968372345,1.9103134870529175,-0.39150679111480713,-2.446272373199463,-1.5157274901866913e-07,-1.8170500993728638,-0.0004516992485150695,4.083521842956543,-5.887704901397228e-08,4.800130367279053,2.9992170333862305,-2.738025426864624,-229.4230499267578,-0.0019693374633789062,-5.507967948913574,5.970095157623291,-99.06291198730469,1.6915454864501953,-0.18529891967773438,30.0
0.72,0.8999999761581421,0.0,0.05373970419168472,-69.38267517089844,0.5726296305656433,0.36562004685401917,2.6895389556884766,1.7206251621246338,0.20696111023426056,-2.905932903289795,1.6520570516586304,-0.10236158221960068,1.0580308437347412,-0.43144088983535767,0.1146719679236412,0.5710485577583313,0.799994707107544,-0.858013927936554,-0.5000154972076416,0.23485641181468964,9.273852811020333e-06,0.47954684495925903,0.4869106709957123,1.8343281745910645,-0.22521379590034485,-2.6012778282165527,-2.2642780095338821e-07,-1.4533202648162842,-0.0006106615182943642,3.99130916595459,-4.289031494408846e-07,4.654720783233643,6.279428958892822,-6.046192169189453,-223.2786102294922,6.41140079498291,-11.498958587646484,8.117233276367188,-98.59625244140625,2.6721343994140625,-0.2893505096435547,30.0
0.73,0.8999999761581421,0.0,0.055854108184576035,-69.36756134033203,0.5809172987937927,0.3416370451450348,2.773317575454712,1.7400290966033936,0.22244751453399658,-2.8011157512664795,1.627834439277649,0.10645020008087158,1.0582969188690186,-0.41080600023269653,0.11253099888563156,0.5534115433692932,0.7984815835952759,-0.8686013221740723,-0.5000261664390564,0.27599164843559265,1.1445200470916461e-05,0.5248626470565796,-0.20668336749076843,2.2647838592529297,0.0646604374051094,-1.134344220161438,-0.39257168769836426,-0.9313610792160034,0.0057229287922382355,4.047935485839844,-2.4863402359187603e-07,4.473388195037842,8.605489730834961,-7.53745174407959,-214.81942749023438,12.483845710754395,-15.765231132507324,8.916786193847656,-98.11329650878906,4.790492057800293,-0.3355751037597656,30.0
0.74,0.8999999761581421,0.0,0.05782848596572876,-69.35252380371094,0.5892101526260376,0.3165474832057953,2.8494131565093994,1.7609572410583496,0.24949894845485687,-2.7439441680908203,1.6324175596237183,0.19856229424476624,1.0568996667861938,-0.38668349385261536,0.11440631002187729,0.5406860709190369,0.7999940514564514,-0.8754643797874451,-0.5000292062759399,0.31676119565963745,9.324526217824314e-06,0.56606125831604,-0.1561104655265808,2.4691977500915527,0.23038657009601593,-1.1613476276397705,1.027469988912344e-05,-0.6768244504928589,-0.0009353587520308793,3.9548380374908447,4.4269836507737637e-07,4.046472549438477,7.548556327819824,-5.98061466217041,-202.2139129638672,12.993301391601562,-14.783781051635742,6.2549519538879395,-103.58013916015625,3.135871410369873,-0.31260108947753906,30.0
0.75,0.8999999761581421,0.0,0.05976128950715065,-69.3375244140625,0.59754878282547,0.2904144823551178,2.929232120513916,1.783778429031372,0.2823862135410309,-2.674609661102295,1.6200392246246338,0.2965257167816162,1.054450511932373,-0.3603835105895996,0.11946392059326172,0.5232107043266296,0.7993564009666443,-0.8796225786209106,-0.5000395774841309,0.3564247488975525,9.951948413799983e-06,0.6036376953125,-0.3455078899860382,2.693307876586914,0.6548064947128296,-2.0106561183929443,-0.07598188519477844,-0.39759084582328796,0.0002923576394096017,3.826904296875,3.6417623050510883e-07,3.695246696472168,9.227982521057129,-6.300571441650391,-188.0049285888672,15.375824928283691,-17.907306671142578,3.6073505878448486,-101.32840728759766,-2.7769041061401367,-0.3543834686279297,30.0
0.76,0.8999999761581421,0.0,0.06177477911114693,-69.32257843017578,0.6058942675590515,0.2632526457309723,3.009075403213501,1.7977644205093384,0.31373682618141174,-2.6257717609405518,1.637155532836914,0.31383016705513,1.0501676797866821,-0.33250653743743896,0.12497228384017944,0.5050675272941589,0.7999980449676514,-0.8814345598220825,-0.5000417232513428,0.3945625424385071,8.643829460197594e-06,0.6380332112312317,-0.5040745735168457,2.8079519271850586,0.436414510011673,-1.5132505893707275,4.274013917893171e-06,-0.16079363226890564,-0.0011136127868667245,3.676115036010742,6.082118488848209e-07,3.3833749294281006,9.186838150024414,-4.807048797607422,-177.5736541748047,13.067626953125,-16.55385971069336,0.9348905086517334,-103.5323257446289,3.8853535652160645,-0.3146018981933594,30.0
0.77,0.8999999761581421,0.0,0.06393076479434967,-69.30769348144531,0.6142712831497192,0.23505911231040955,3.090087413787842,1.8169447183609009,0.35250720381736755,-2.5485122203826904,1.6295326948165894,0.3348107933998108,1.0449120998382568,-0.3031595051288605,0.13197554647922516,0.48261743783950806,0.8004372715950012,-0.8804820775985718,-0.5000532865524292,0.43098336458206177,9.255336408386938e-06,0.669008195400238,-0.6201254725456238,2.960541009902954,0.7403085231781006,-2.2182416915893555,-0.41922879219055176,0.13693192601203918,-0.0011082262499257922,3.4870805740356445,-2.2935273591428995e-07,3.0466527938842773,10.955463409423828,-5.1371684074401855,-162.870849609375,15.450361251831055,-19.78972816467285,-0.3214869499206543,-98.04216003417969,-2.7728185653686523,-0.3548145294189453,30.0
0.78,0.8999999761581421,0.0,0.06632548570632935,-69.29290008544922,0.6226608157157898,0.2058374136686325,3.1719136238098145,1.8301470279693604,0.39173024892807007,-2.4687583446502686,1.662967562675476,0.30057838559150696,1.0386362075805664,-0.27285295724868774,0.13943859934806824,0.4602416753768921,0.7997463345527649,-0.8771927952766418,-0.5000576972961426,0.4648994207382202,8.718219760339707e-06,0.6969636082649231,-0.667198896408081,3.0332112312316895,0.6570436358451843,-2.073801040649414,0.00011196707055205479,0.3539428412914276,-0.001027396647259593,3.208750009536743,1.5055411495268345e-07,2.7500035762786865,11.306584358215332,-4.186992168426514,-152.9265594482422,13.622373580932617,-20.037574768066406,-1.3309519290924072,-95.6885757446289,2.320352554321289,-0.34689807891845703,30.0
0.79,0.8999999761581421,0.0,0.06896945089101791,-69.2781753540039,0.6310951709747314,0.17556515336036682,3.2537033557891846,1.849916696548462,0.4350697100162506,-2.3605802059173584,1.6510975360870361,0.28567633032798767,1.0315557718276978,-0.24174852669239044,0.1495555341243744,0.43330851197242737,0.7997699975967407,-0.8710214495658875,-0.5000664591789246,0.4961942136287689,8.742411409912165e-06,0.7213863134384155,-0.7896407246589661,3.1167232990264893,1.1529968976974487,-2.960817337036133,-0.03121502324938774,0.6832282543182373,-0.0007505478570237756,2.956686019897461,2.2372114472091198e-07,2.400383710861206,12.666769027709961,-4.887028694152832,-140.42160034179688,15.755865097045898,-21.87206268310547,-2.2879786491394043,-86.6968765258789,-6.467435836791992,-0.3640327453613281,30.0
0.8,0.707553505897522,0.0,0.016413431614637375,-90.0,0.0,1.1251649856567383,0.3229290544986725,-0.4499310851097107,-0.07642003893852234,-0.46559441089630127,-0.17832154035568237,-0.01692337915301323,-0.02093759924173355,-0.09659843891859055,-0.33459824323654175,0.6461274027824402,-0.17932048439979553,0.010200180113315582,-0.12467353790998459,-0.35870981216430664,0.41308847069740295,-0.15577957034111023,0.0915006473660469,0.07097224146127701,-0.06748148053884506,-0.08701235800981522,0.08921504765748978,-0.05221264436841011,0.09985468536615372,-0.030434846878051758,-0.004237070679664612,0.05033334344625473,0.0,0.0,0.0,0.0,0.0,0.0,0.0,0.0,0.0,0.0
0.81,1.3808066844940186,0.0,-0.043391112238168716,-90.0,0.0,1.1251649856567383,0.003218640573322773,0.24593056738376617,0.39574089646339417,-0.0260772705078125,0.13286826014518738,0.4182998239994049,-0.02631457895040512,-0.042917490005493164,-0.37044304609298706,0.6765779256820679,0.0870104432106018,0.0266529843211174,0.02400830388069153,-0.32000115513801575,0.5752320289611816,0.08252045512199402,-0.008607253432273865,0.04583799093961716,0.011413350701332092,0.07004322856664658,-0.013955861330032349,-0.058872025460004807,-0.028331004083156586,-0.0485481321811676,0.09553296118974686,0.04430390149354935,0.0,0.0,0.0,0.0,0.0,0.0,0.0,0.0,0.0,0.0
0.8200000000000001,0.8999999761581421,0.0,-0.04268068075180054,-89.99788665771484,0.0030777473002672195,1.1290706396102905,-0.23647812008857727,0.22293752431869507,0.3900855481624603,1.6538580656051636,-4.593174457550049,-0.3163643479347229,0.08313401788473129,-0.07509389519691467,-0.29597756266593933,0.5674535632133484,0.5861132144927979,-0.020590730011463165,0.013928724452853203,-0.2679733633995056,0.5750853419303894,0.12471853941679001,16.947940826416016,-5.398314476013184,11.339620590209961,-12.82829475402832,49.32419204711914,-7.31958532333374,-2.1224403381347656,8.510077476501465,1.0641539096832275,4.269118785858154,-32.43519592285156,53.596702575683594,-51.54038619995117,-91.31298828125,156.2491455078125,48.94805145263672,75.63370513916016,-10.748573303222656,5.578828811645508,30.0
0.8300000000000001,0.8999999761581421,0.0,-0.039962247014045715,-89.99501037597656,0.007713845930993557,1.1318858861923218,-0.27000007033348083,0.171440988779068,0.22598007321357727,2.8784830570220947,-5.516106605529785,-0.9487168192863464,0.2613014578819275,-0.1257733851671219,-0.1763964295387268,0.49154728651046753,0.8000243306159973,-0.0963520035147667,-0.02846367470920086,-0.17206382751464844,0.588505208492279,0.1805780977010727,16.65111541748047,-5.3384199142456055,11.754156112670898,-4.30034065246582,-0.0012543410994112492,-7.5138139724731445,-5.36212158203125,10.28150749206543,1.93607759475708,5.52916955947876,-3.628314971923828,-14.327407836914062,-14.742101669311523,-80.13333129882812,99.79312133789062,-29.698402404785156,42.97550582885742,-11.885553359985352,2.9886207580566406,30.0
0.84,0.8999999761581421,0.0,-0.03651687130331993,-89.99227905273438,0.012824201956391335,1.133325219154358,-0.24628177285194397,0.18356235325336456,0.04512652009725571,2.536254405975342,-5.398022174835205,-1.0949180126190186,0.3913807272911072,-0.16190561652183533,-0.04488065838813782,0.41020599007606506,0.7999979257583618,-0.14609137177467346,-0.08792103826999664,-0.08303923159837723,0.6529199481010437,0.22027388215065002,9.53034782409668,-3.4117915630340576,12.778035163879395,-9.639139175415039,7.864073268137872e-07,-3.1880831718444824,-5.664287567138672,8.31867790222168,8.998526573181152,4.228030204772949,11.719416618347168,-25.715885162353516,52.28356170654297,-67.2022933959961,77.47113037109375,-45.966697692871094,58.50526809692383,-37.106319427490234,5.167156219482422,30.0
0.85,0.8999999761581421,0.0,-0.03305289149284363,-89.99027252197266,0.017735963687300682,1.1331425905227661,-0.17061802744865417,0.18590711057186127,-0.15302176773548126,1.970374584197998,-3.9351203441619873,-1.306390643119812,0.4574463665485382,-0.19695736467838287,0.075584277510643,0.2822074294090271,0.7999832630157471,-0.1591380536556244,-0.13747258484363556,-0.020133687183260918,0.790916383266449,0.24575328826904297,4.065059661865234,-4.236371994018555,10.459568977355957,-13.548409461975098,5.826950291520916e-05,-0.09493071585893631,-3.9239001274108887,5.208142280578613,16.21479606628418,3.073620080947876,-8.606230735778809,1.1642837524414062,91.43338012695312,-103.39703369140625,62.891021728515625,-66.57054138183594,54.50666046142578,-38.578590393066406,5.023897171020508,30.0
0.86,0.8999999761581421,0.0,-0.029742104932665825,-89.98919677734375,0.022097870707511902,1.1312804222106934,-0.08743801712989807,0.16317078471183777,-0.32206544280052185,1.3219513893127441,-2.308915376663208,-1.6270111799240112,0.4754703938961029,-0.24916666746139526,0.16319844126701355,0.1309705376625061,0.7999719977378845,-0.14752629399299622,-0.16115199029445648,0.025686560198664665,0.9640413522720337,0.2718648910522461,0.28577694296836853,-6.125675201416016,6.770825386047363,-14.80859661102295,1.0011099220719188e-06,1.8803761005401611,-0.9375641942024231,4.0340576171875,17.888708114624023,3.1318445205688477,-25.823034286499023,20.356460571289062,110.55296325683594,-106.16912841796875,50.921142578125,-61.54001998901367,30.072265625,-26.71990203857422,2.5549373626708984,30.0
0.87,0.8999999761581421,0.0,-0.026448633521795273,-89.98892974853516,0.0256404560059309,1.12782621383667,-0.0381232388317585,0.0980324000120163,-0.4595564603805542,0.7294201254844666,-0.743040144443512,-2.2534830570220947,0.46985238790512085,-0.3185982406139374,0.20604202151298523,-0.0010449097026139498,0.7998120188713074,-0.12484129518270493,-0.1532910317182541,0.0686587244272232,1.1308646202087402,0.30455538630485535,-0.8395518660545349,-7.6355791091918945,-1.5390220880508423,-1.322924256324768,4.3958425521850586e-07,2.721113681793213,2.3648128509521484,3.7454659938812256,16.44710350036621,3.6750283241271973,-34.682064056396484,29.784881591796875,103.2888412475586,-91.54878234863281,37.43701934814453,-42.32017517089844,11.645858764648438,-8.566230773925781,0.8158664703369141,30.0
0.88,0.8999999761581421,0.0,-0.022835828363895416,-89.9896011352539,0.028473814949393272,1.1229110956192017,-5.451776087284088e-05,0.02947103977203369,-0.6072993278503418,0.9736212491989136,-0.07491914182901382,-2.445341110229492,0.480056494474411,-0.40029364824295044,0.18349957466125488,-2.2746975503196154e-07,0.7999899983406067,-0.11280037462711334,-0.12825867533683777,0.11085066199302673,1.2781065702438354,0.33370441198349,2.2047383785247803,-8.718717575073242,-2.2051215171813965,-0.0005100329290144145,-7.014605216681957e-07,0.34322071075439453,2.5772602558135986,4.262148857116699,13.992828369140625,3.2604196071624756,-39.59657287597656,30.844600677490234,53.197532653808594,-86.7701416015625,26.491817474365234,-11.92014217376709,5.5576324462890625,-77.02394104003906,0.2566661834716797,30.0
0.89,0.8999999761581421,0.0,-0.01941230148077011,-89.99066925048828,0.03147288039326668,1.1164836883544922,0.05493476986885071,-0.0621776357293129,-0.7640061974525452,1.5231572389602661,0.7104024291038513,-2.48310923576355,0.5164234042167664,-0.4960586130619049,0.16313301026821136,1.7420957192371134e-06,0.7999979853630066,-0.1279466450214386,-0.11059482395648956,0.15571647882461548,1.4004640579223633,0.355450838804245,4.418743133544922,-10.32718563079834,-1.9739056825637817,-0.00015872536459937692,-9.706709533929825e-07,-2.526050567626953,1.2560685873031616,4.23918342590332,11.467534065246582,2.450167417526245,-30.802722930908203,22.001068115234375,18.429481506347656,-67.74472045898438,3.283405303955078,-9.501204490661621,-4.779914855957031,-74.47894287109375,-0.4360179901123047,30.0
0.9,0.8999999761581421,0.0,-0.016432112082839012,-89.99214935302734,0.03455836698412895,1.10853910446167,0.1393175721168518,-0.16797176003456116,-0.9102633595466614,1.8932290077209473,1.6137254238128662,-2.4227519035339355,0.5701682567596436,-0.6065222024917603,0.1467697024345398,9.781704648048617e-06,0.7999939322471619,-0.16619296371936798,-0.10501046478748322,0.19836150109767914,1.496617078781128,0.37277400493621826,5.767948627471924,-11.60192584991455,-1.627556324005127,-1.556886127218604e-05,7.521302904933691e-07,-4.4763503074646,0.26164349913597107,3.8322417736053467,8.728357315063477,1.9334464073181152,-18.203689575195312,11.718223571777344,11.23735237121582,-35.678794860839844,-21.643674850463867,-4.622714996337891,-17.84780502319336,-68.21526336669922,-1.2836494445800781,30.0
0.91,0.8999999761581421,0.0,-0.014057796448469162,-89.99385833740234,0.037423934787511826,1.0991507768630981,0.2404284030199051,-0.268899142742157,-1.0303624868392944,1.929410457611084,2.304720640182495,-2.2489495277404785,0.6303052306175232,-0.725746214389801,0.13413213193416595,1.3148473044566344e-05,0.7999857068061829,-0.21974670886993408,-0.10607577115297318,0.23777379095554352,1.5610672235488892,0.3898618519306183,5.997666835784912,-12.094400405883789,-1.3228527307510376,-1.4572287909686565e-07,0.00019884345238097012,-5.7129106521606445,-0.1145969107747078,3.5850021839141846,5.262470722198486,1.7543224096298218,-6.824958801269531,1.789215087890625,6.575466156005859,1.6020889282226562,-36.91769027709961,-0.6347036361694336,-29.782997131347656,-56.13654327392578,-2.126640796661377,30.0
0.92,0.8999999761581421,0.0,-0.012327472679316998,-89.99552917480469,0.03986445069313049,1.0884673595428467,0.33646830916404724,-0.35068559646606445,-1.1230225563049316,1.7272248268127441,2.651242256164551,-1.9821820259094238,0.6878525018692017,-0.8456094264984131,0.12382299453020096,1.3460664376907516e-05,0.7999275326728821,-0.2822975218296051,-0.10938563942909241,0.2756003737449646,1.5906544923782349,0.4053220748901367,5.529753684997559,-11.796831130981445,-1.1030008792877197,-0.004102284088730812,-6.780028343200684e-07,-6.387662887573242,-0.24484610557556152,3.5398738384246826,1.811874270439148,1.4891009330749512,4.174112319946289,-5.186470031738281,-1.522762417793274,33.30695343017578,-44.05147933959961,2.486966848373413,-31.153560638427734,-41.64877700805664,-2.1707253456115723,30.0
0.93,0.8999999761581421,0.0,-0.011219934560358524,-89.9970932006836,0.041890744119882584,1.0766644477844238,0.42062440514564514,-0.40753862261772156,-1.198198676109314,1.4653651714324951,2.8305838108062744,-1.6840758323669434,0.738513708114624,-0.960438072681427,0.11418361961841583,1.1659823940135539e-05,0.7998765110969543,-0.34842827916145325,-0.11424662172794342,0.31070539355278015,1.5939886569976807,0.4159574806690216,4.810275554656982,-11.127692222595215,-1.0277352333068848,-0.007684879936277866,-4.76837158203125e-07,-6.549980163574219,-0.4508361220359802,3.171983003616333,-0.2164497673511505,0.9970735907554626,14.717081069946289,-8.073278427124023,-10.687477111816406,52.39662551879883,-48.78849411010742,3.5419631004333496,-19.426715850830078,-30.676218032836914,-1.1575937271118164,30.0
0.9400000000000001,0.8999999761581421,0.0,-0.009874342009425163,-89.99767303466797,0.042412448674440384,1.0647563934326172,0.19089053571224213,-0.17826542258262634,-1.0451666116714478,-2.1541361808776855,-0.4283999800682068,-0.8121016621589661,0.7928962707519531,-1.0001296997070312,0.11690740287303925,1.6508076441823505e-05,0.7998966574668884,-0.4196312725543976,-0.10841881483793259,0.3802580237388611,1.57465398311615,0.420879602432251,4.041975498199463,0.0022946493700146675,-0.7010900974273682,-0.0029630770441144705,4.842877388000488e-07,-7.454619884490967,1.039160966873169,8.17084789276123,-1.9238107204437256,0.3781273066997528,27.532075881958008,-28.405502319335938,-32.2098274230957,9.247770309448242,-84.33921813964844,-17.688196182250977,2.5590028762817383,-22.170562744140625,0.6770098209381104,30.0
0.9500000000000001,0.8999999761581421,0.0,-0.008489108644425869,-89.99783325195312,0.0424874871969223,1.0529491901397705,0.244501531124115,-0.1726229339838028,-1.0842231512069702,-1.6394374370574951,-0.05374379828572273,-0.9397658705711365,0.8395885825157166,-1.0001364946365356,0.11594845354557037,1.0070200460177148e-06,0.7995052337646484,-0.4899798333644867,-0.1171475350856781,0.45106130838394165,1.548467755317688,0.4159374237060547,4.551139831542969,0.0011380038922652602,-0.15035782754421234,-0.0016427540685981512,-1.9371509552001953e-07,-6.604697227478027,-1.9048388004302979,5.773989677429199,-2.5639848709106445,-0.5449087023735046,47.85863494873047,-13.91188907623291,-47.6231575012207,-32.4659538269043,-102.07904052734375,6.397326469421387,-21.508609771728516,-15.153258323669434,-0.8706262111663818,30.0
0.96,0.8999999761581421,0.0,-0.007124271709471941,-89.9979248046875,0.04302821680903435,1.0409480333328247,0.28968629240989685,-0.16417139768600464,-1.1235253810882568,-1.1765707731246948,0.1609697937965393,-1.0144835710525513,0.8764078617095947,-1.0001119375228882,0.10844093561172485,-3.528697106958134e-06,0.7995586395263672,-0.5504015684127808,-0.14963118731975555,0.49566441774368286,1.5273971557617188,0.4051625728607178,3.275174617767334,0.001889886800199747,-0.992294192314148,-0.011208856478333473,7.450580596923828e-08,-5.546378135681152,-3.9488160610198975,3.193068027496338,-1.5006983280181885,-1.0229908227920532,45.74789810180664,-15.481914520263672,-35.415443420410156,-38.710289001464844,-88.85824584960938,6.919209003448486,-8.122451782226562,-9.629995346069336,0.14276456832885742,30.0
0.97,0.8999999761581421,0.0,-0.005648212507367134,-89.99789428710938,0.044027507305145264,1.0286298990249634,0.3264560103416443,-0.16357649862766266,-1.1740508079528809,-0.7469384670257568,0.2077324092388153,-1.1506887674331665,0.8989599347114563,-1.0000814199447632,0.09128383547067642,-7.293617272807751e-06,0.7996505498886108,-0.6010050177574158,-0.19877448678016663,0.5157096982002258,1.5191489458084106,0.3936658203601837,1.9516615867614746,0.0018422756111249328,-1.8636016845703125,-0.008343130350112915,3.5762786865234375e-07,-4.590457916259766,-5.409596920013428,1.0024449825286865,-0.27014851570129395,-1.051674485206604,40.10893249511719,-13.7737398147583,-26.21734046936035,-39.06983184814453,-69.82853698730469,7.050965309143066,-4.815388202667236,-5.307839393615723,0.23794889450073242,30.0
0.98,0.8999999761581421,0.0,-0.003935596905648708,-89.99772644042969,0.0454300232231617,1.0158231258392334,0.36101192235946655,-0.17199458181858063,-1.235113263130188,-0.3736457824707031,0.19285358488559723,-1.3199527263641357,0.9110654592514038,-1.0000572204589844,0.06765691936016083,-7.599736818519887e-06,0.7997303009033203,-0.6428583860397339,-0.2582441568374634,0.5154716968536377,1.5216984748840332,0.3828478455543518,1.0836436748504639,0.0015459232963621616,-2.3666841983795166,-0.006085596513003111,1.1175870895385742e-07,-3.734524965286255,-6.184012413024902,-0.7654708623886108,0.5604152679443359,-0.9843477606773376,34.34775924682617,-12.728315353393555,-16.97334861755371,-36.95086669921875,-54.56797790527344,8.369468688964844,-6.277773857116699,1.871466875076294,-0.035666465759277344,30.0
0.99,0.8999999761581421,0.0,-0.0019252403872087598,-89.99742889404297,0.04712918400764465,1.0023738145828247,0.3931141197681427,-0.1901380568742752,-1.305527925491333,-0.0705610141158104,0.15690116584300995,-1.5085922479629517,0.9177635908126831,-1.000038981437683,0.03873297944664955,0.008349589072167873,0.7997753024101257,-0.6767002940177917,-0.32157036662101746,0.4996180534362793,1.5298534631729126,0.37236177921295166,0.7703874111175537,0.0011856850469484925,-2.800175189971924,1.1451438665390015,6.332993507385254e-08,-2.93223237991333,-6.352082252502441,-2.077291965484619,0.8608545064926147,-0.9712156653404236,29.851362228393555,-13.179216384887695,-10.051101684570312,-33.83233642578125,-41.463809967041016,11.585268020629883,-8.351612091064453,7.995455741882324,-0.3419623374938965,30.0
1.0,0.8999999761581421,0.0,0.0003770726325456053,-89.99702453613281,0.0490390881896019,0.9881678223609924,0.4236242175102234,-0.2141951024532318,-1.3818224668502808,0.18060240149497986,0.11071082949638367,-1.6678184270858765,0.924089252948761,-1.0000301599502563,0.006369365379214287,0.03292376920580864,0.7998287081718445,-0.7028948068618774,-0.38373318314552307,0.472443163394928,1.5389496088027954,0.3608018457889557,0.8607100248336792,0.000904026732314378,-3.0507564544677734,2.9067327976226807,-1.4901161193847656e-08,-2.1607320308685303,-6.076020240783691,-3.0189411640167236,0.7903674840927124,-1.0998238325119019,26.706308364868164,-14.901822090148926,-4.989112854003906,-32.04988098144531,-32.41273498535156,15.089103698730469,-9.494654655456543,11.045071601867676,-0.5283355712890625,30.0
1.01,0.8999999761581421,0.0,0.002899336162954569,-89.99656677246094,0.051128797233104706,0.973139762878418,0.4516064524650574,-0.24022626876831055,-1.4618815183639526,0.4114762544631958,0.05125869810581207,-1.7619383335113525,0.9333832859992981,-1.0000284910202026,-0.026426231488585472,0.07572302967309952,0.7998577952384949,-0.7217586636543274,-0.44173821806907654,0.4369305372238159,1.5471489429473877,0.3461780250072479,1.1790083646774292,0.0008294383296743035,-3.0003390312194824,4.654228210449219,5.587935447692871e-08,-1.4304499626159668,-5.584205150604248,-3.7458395957946777,0.6939626932144165,-1.4131922721862793,25.038108825683594,-17.222248077392578,-2.1942577362060547,-32.31572341918945,-27.311264038085938,18.231536865234375,-8.238452911376953,12.092754364013672,-0.47259092330932617,30.0
1.02,0.8999999761581421,0.0,0.005532103590667248,-89.99598693847656,0.053417157381772995,0.9572573304176331,0.4762915372848511,-0.26607298851013184,-1.5449086427688599,0.6359875202178955,-0.01691937819123268,-1.7776530981063843,0.9465284943580627,-1.0000295639038086,-0.05679764598608017,0.13385319709777832,0.7998754382133484,-0.7334890961647034,-0.4942197799682617,0.39482972025871277,1.55549156665802,0.32717156410217285,1.5036389827728271,0.0009385485318489373,-2.6983084678649902,5.997455596923828,2.60770320892334e-08,-0.7139046788215637,-4.998868942260742,-4.347032070159912,0.8058539032936096,-1.8417997360229492,24.359210968017578,-19.31765365600586,-0.6506996154785156,-33.770362854003906,-24.38912010192871,20.430374145507812,-5.144703388214111,11.62884521484375,-0.24022960662841797,30.0
1.03,0.8999999761581421,0.0,0.00738774286583066,-89.99563598632812,0.055442869663238525,0.9408990144729614,0.5461172461509705,-0.2853594422340393,-1.571677565574646,0.39853373169898987,0.668352484703064,-1.2486728429794312,0.9628465175628662,-1.0000391006469727,-0.08580528199672699,0.20229828357696533,0.7999200224876404,-0.7213053703308105,-0.5000172853469849,0.3549075424671173,1.5685334205627441,0.30381643772125244,1.8067829608917236,0.001943530747666955,-2.3633010387420654,6.641334056854248,0.008429971523582935,1.4577867984771729,0.0007282581645995378,-4.22054386138916,1.430871605873108,-2.234198808670044,12.971006393432617,-21.015033721923828,-25.610610961914062,-35.139442443847656,-26.34449005126953,23.40104103088379,-3.591771125793457,8.814094543457031,-0.05678081512451172,30.0
1.04,0.8999999761581421,0.0,0.008913587778806686,-89.9952621459961,0.05769810825586319,0.9237793684005737,0.5771673321723938,-0.30264732241630554,-1.6538012027740479,0.6228007078170776,0.5892566442489624,-1.1646056175231934,0.982077956199646,-1.000025749206543,-0.10377022624015808,0.2633151113986969,0.7999910712242126,-0.703086256980896,-0.5000109672546387,0.3105056583881378,1.5853201150894165,0.28242793679237366,1.8212820291519165,0.0015806038863956928,-1.4215363264083862,5.448493480682373,0.0006468429928645492,2.1475610733032227,0.0005297090974636376,-4.568610668182373,1.8273135423660278,-2.040504217147827,19.812376022338867,-16.84912109375,-42.61452865600586,-34.93889617919922,-19.592166900634766,16.14822769165039,0.7921714782714844,2.0021591186523438,0.20836162567138672,30.0
1.05,0.8999999761581421,0.0,0.01040357630699873,-89.99482727050781,0.06027214229106903,0.9057509303092957,0.6062555909156799,-0.3221679925918579,-1.7438867092132568,0.7775787711143494,0.4508048892021179,-1.123288631439209,0.9986416697502136,-1.0000066757202148,-0.11455216258764267,0.31015703082084656,0.7999982237815857,-0.675277590751648,-0.5000020265579224,0.26692450046539307,1.6028245687484741,0.2624169588088989,1.4329149723052979,0.0008783222292549908,-0.8358707427978516,3.9901134967803955,0.0003776554949581623,3.247805118560791,0.0003303957055322826,-4.187263011932373,1.7026070356369019,-1.9302701950073242,16.134857177734375,-15.756683349609375,-47.931182861328125,-23.715442657470703,-5.555318832397461,14.13055419921875,0.3601503372192383,-0.10904502868652344,0.05098915100097656,30.0
1.06,0.8999999761581421,0.0,0.0119052454829216,-89.99420928955078,0.06306484341621399,0.886727511882782,0.6424143314361572,-0.35129305720329285,-1.8334083557128906,0.8706248998641968,0.2763364315032959,-1.072009563446045,1.0094833374023438,-0.9999868273735046,-0.12102239578962326,0.3415336310863495,0.8000062704086304,-0.6357842683792114,-0.49999749660491943,0.2319086194038391,1.610996961593628,0.24701349437236786,0.7998219728469849,-0.019798995926976204,-0.4761190712451935,2.47463059425354,0.00012144406355218962,4.356801986694336,-1.2718373909592628e-07,-3.0582633018493652,0.27799564599990845,-1.5291622877120972,6.576723098754883,-15.592187881469727,-44.33808517456055,-11.158123970031738,8.335201263427734,13.737131118774414,-8.055925369262695,-1.0891590118408203,-0.7506446838378906,30.0
1.07,0.8999999761581421,0.0,0.013393924571573734,-89.99336242675781,0.06586772948503494,0.8667016625404358,0.6655629873275757,-0.381235808134079,-1.9082963466644287,0.781793475151062,-0.11112430691719055,-0.9199175238609314,1.0136590003967285,-0.9971350431442261,-0.1251646727323532,0.3613734245300293,0.8000086545944214,-0.5869126319885254,-0.4999961256980896,0.21242785453796387,1.599236011505127,0.23644642531871796,0.17246384918689728,0.4904717803001404,-0.2651667892932892,1.5789968967437744,-0.00026473909383639693,5.055670738220215,3.7031713873147964e-07,-1.2937142848968506,-2.0234248638153076,-1.1082744598388672,-4.317752838134766,-14.27199935913086,-36.589393615722656,-1.1259708404541016,15.526193618774414,13.736047744750977,-13.87000846862793,0.5199289321899414,-1.2981419563293457,30.0
1.08,0.8999999761581421,0.0,0.01558450423181057,-89.99286651611328,0.06881669163703918,0.8464936017990112,0.3769254684448242,-0.21028167009353638,-1.8033257722854614,-0.11965883523225784,-1.0196963548660278,-2.250654458999634,1.0277553796768188,-1.0003201961517334,-0.13911016285419464,0.4393331706523895,0.6651989221572876,-0.5311752557754517,-0.4999964237213135,0.20720237493515015,1.5646007061004639,0.2293694168329239,3.1607909202575684,-0.5385547876358032,-3.141763925552368,15.770063400268555,-28.291757583618164,6.5251688957214355,-0.005665913224220276,0.8961856961250305,-4.58768892288208,-0.876511812210083,-12.108502388000488,-11.399919509887695,-26.264997482299805,1.5692238807678223,15.891416549682617,11.328079223632812,-14.79298210144043,0.7072877883911133,-1.3524372577667236,30.0
1.09,0.8999999761581421,0.0,0.01943570002913475,-89.99363708496094,0.07236920297145844,0.8287985324859619,0.22938619554042816,-0.06925375014543533,-1.7065085172653198,-0.40802398324012756,-0.9857401251792908,-2.046962261199951,1.061750888824463,-0.9994969367980957,-0.15401963889598846,0.5347510576248169,0.5065407752990723,-0.48012927174568176,-0.5000129342079163,0.21398332715034485,1.5092277526855469,0.21214577555656433,2.8958325386047363,-0.7474831342697144,-1.0895036458969116,7.897800922393799,-8.044012069702148,3.6359305381774902,-0.02955958992242813,-0.8014243841171265,-5.667356967926025,-1.8278473615646362,-29.833419799804688,-35.237144470214844,-51.415367126464844,8.455744743347168,-16.992782592773438,31.14151382446289,-18.415569305419922,-56.980613708496094,-1.382359504699707,30.0
1.1,0.8999999761581421,0.0,0.022968608886003494,-89.99518585205078,0.07653030008077621,0.812339186668396,0.11057813465595245,0.029109464958310127,-1.6601132154464722,-0.6821572780609131,-1.1668882369995117,-1.80665922164917,1.084335446357727,-0.999886155128479,-0.17023281753063202,0.6051114797592163,0.381486713886261,-0.45220884680747986,-0.4999959170818329,0.20695525407791138,1.444430947303772,0.19783970713615417,1.7390503883361816,-0.24176423251628876,-1.298951506614685,5.877562999725342,-9.38338565826416,1.9650872945785522,-0.006441816687583923,-1.1449670791625977,-6.6007280349731445,-1.4614208936691284,-23.579959869384766,-34.49467468261719,-73.31684112548828,1.6918985843658447,5.117010116577148,32.127418518066406,-7.881105422973633,-37.75924301147461,-0.6097612380981445,30.0
1.11,0.8999999761581421,0.0,0.026016738265752792,-89.997314453125,0.08115708827972412,0.7963869571685791,0.018932756036520004,0.0989173948764801,-1.6611086130142212,-0.8328580856323242,-1.138845443725586,-1.455461025238037,1.0968266725540161,-0.9999011754989624,-0.18818606436252594,0.6608127951622009,0.27670159935951233,-0.442145437002182,-0.4999903738498688,0.19247126579284668,1.3796416521072388,0.18543951213359833,0.8356996774673462,-0.19016192853450775,-1.5239133834838867,4.836710453033447,-8.716020584106445,0.21461516618728638,-0.01538771390914917,-2.028153657913208,-5.981861114501953,-1.2276005744934082,-21.163795471191406,-30.93576431274414,-79.15015411376953,-3.596792221069336,7.835450172424316,30.573877334594727,6.241889953613281,-26.659984588623047,0.4841771125793457,30.0
1.12,0.8999999761581421,0.0,0.028605086728930473,-90.0,0.08620212972164154,0.7805413603782654,-0.05917170271277428,0.14937885105609894,-1.6896456480026245,-0.9102134108543396,-1.1502922773361206,-1.2183021306991577,1.1025588512420654,-0.9997979402542114,-0.20792335271835327,0.7087376117706299,0.18587180972099304,-0.44580602645874023,-0.4999859035015106,0.17254115641117096,1.3200455904006958,0.1748238354921341,0.3259221613407135,-0.22536969184875488,-1.7448309659957886,4.374777317047119,-7.621471405029297,-0.8542943000793457,-0.005405356641858816,-2.4031481742858887,-5.500509738922119,-1.0699628591537476,-16.337955474853516,-26.583232879638672,-77.7099609375,-5.496744632720947,14.90374755859375,27.729934692382812,7.941921234130859,-18.10264015197754,0.6057705879211426,30.0
1.1300000000000001,0.8999999761581421,0.0,0.030945831909775734,-90.00318145751953,0.0916391909122467,0.7645834684371948,-0.14576810598373413,0.19865213334560394,-1.7228176593780518,-1.0099338293075562,-1.3136838674545288,-1.0820088386535645,1.1084949970245361,-0.9997794032096863,-0.22667300701141357,0.7547483444213867,0.10698984563350677,-0.45732352137565613,-0.4999847710132599,0.15191234648227692,1.2635750770568848,0.16618859767913818,0.4425056576728821,-0.06331146508455276,-1.6381809711456299,4.2003302574157715,-8.001788139343262,-1.4285427331924438,-1.1641532182693481e-10,-2.2680492401123047,-5.295745849609375,-0.8763771057128906,-12.341093063354492,-24.437814712524414,-72.93649291992188,-7.099382400512695,17.22258186340332,25.785825729370117,7.749294281005859,-15.233470916748047,0.4915182590484619,30.0
1.1400000000000001,0.8999999761581421,0.0,0.03311358392238617,-90.00675964355469,0.09748291224241257,0.748400092124939,-0.22278451919555664,0.2406441569328308,-1.7660871744155884,-1.0131365060806274,-1.3897114992141724,-0.9973862767219543,1.1156047582626343,-0.9996673464775085,-0.2437727451324463,0.7980097532272339,0.037917789071798325,-0.4733690619468689,-0.4999845623970032,0.13205234706401825,1.2089446783065796,0.15979355573654175,0.5869736075401306,-0.12542575597763062,-1.4563530683517456,3.9815220832824707,-6.5481343269348145,-1.7363389730453491,-0.00037101906491443515,-2.135530710220337,-5.151133060455322,-0.6654499769210815,-9.470754623413086,-24.23534393310547,-68.2114486694336,-7.1571125984191895,18.22592544555664,25.33804702758789,7.391979217529297,-15.661992073059082,0.4720463752746582,30.0
1.1500000000000001,0.8999999761581421,0.0,0.035186704248189926,-90.01077270507812,0.10374323278665543,0.7319318652153015,-0.3013469874858856,0.2794719338417053,-1.8108865022659302,-0.9778825640678406,-1.480239748954773,-0.9675581455230713,1.124027967453003,-0.9994609355926514,-0.2593171000480652,0.8395631909370422,-0.026007337495684624,-0.49102333188056946,-0.49998587369918823,0.11482325196266174,1.1539292335510254,0.15631312131881714,0.839911162853241,-0.24230235815048218,-1.1479108333587646,3.3890769481658936,-5.040841579437256,-1.7990132570266724,-0.009584334678947926,-1.853411316871643,-5.270427227020264,-0.40295079350471497,-6.986042022705078,-23.410070419311523,-61.46928024291992,-6.650998592376709,17.916828155517578,25.220458984375,5.326908111572266,-16.43239402770996,0.3387709856033325,30.0
1.16,0.8999999761581421,0.0,0.03720935806632042,-90.01512908935547,0.11040963232517242,0.7151356339454651,-0.3826873302459717,0.3165702521800995,-1.8514372110366821,-0.9667348265647888,-1.6313194036483765,-0.925266683101654,1.1349116563796997,-0.9996150732040405,-0.2722475230693817,0.8792330026626587,-0.07923106104135513,-0.5085781216621399,-0.49998781085014343,0.10193811357021332,1.0954428911209106,0.15707089006900787,0.9892050623893738,-0.1328393667936325,-0.9877528548240662,3.199070692062378,-6.321245193481445,-1.7683600187301636,-0.0009388461476191878,-1.366883397102356,-5.730937957763672,0.006296553649008274,-5.905422210693359,-23.695636749267578,-53.21371078491211,-6.559713363647461,15.451194763183594,24.8487491607666,3.1444644927978516,-14.154170989990234,0.0917438268661499,30.0
1.17,0.8999999761581421,0.0,0.03914330154657364,-90.01980590820312,0.11746414005756378,0.6980019807815552,-0.4622325003147125,0.35117408633232117,-1.8941988945007324,-0.9225016236305237,-1.713072419166565,-0.8517202138900757,1.1478227376937866,-0.9995900392532349,-0.2827628254890442,0.9173839688301086,-0.12535059452056885,-0.5263791084289551,-0.49998927116394043,0.09354192763566971,1.0320507287979126,0.1623741090297699,1.260878562927246,-0.19881555438041687,-0.6884278059005737,3.6092326641082764,-4.399885177612305,-1.865136742591858,-0.0032770209945738316,-1.0635017156600952,-6.18946647644043,0.4466926157474518,-5.315768241882324,-24.80390167236328,-49.26688766479492,-5.36804723739624,13.161469459533691,25.835031509399414,2.121164321899414,-15.725723266601562,0.06079602241516113,30.0
1.18,0.8999999761581421,0.0,0.040966201573610306,-90.02484130859375,0.12490270286798477,0.6805120706558228,-0.5518385171890259,0.3892110586166382,-1.9299125671386719,-0.9451518654823303,-1.8889062404632568,-0.7742096781730652,1.1625465154647827,-0.999420166015625,-0.2914324700832367,0.9554895758628845,-0.16851657629013062,-0.5446728467941284,-0.4999906122684479,0.08957743644714355,0.9624877572059631,0.17275628447532654,1.125258207321167,0.012773729860782623,-0.8955259323120117,4.025158882141113,-4.774631500244141,-1.9080430269241333,8.897914085537195e-07,-0.5415860414505005,-6.852006912231445,0.9280573725700378,-4.411092758178711,-24.050090789794922,-44.46314239501953,-4.777694225311279,12.42359733581543,24.749746322631836,0.9024925231933594,-18.542667388916016,-0.05944013595581055,30.0
1.19,0.8999999761581421,0.0,0.042668960988521576,-90.03019714355469,0.13273288309574127,0.662649393081665,-0.6386517286300659,0.42525896430015564,-1.969937801361084,-0.9076375365257263,-1.9248952865600586,-0.7231516242027283,1.1789517402648926,-0.9994233846664429,-0.2988355755805969,0.9938188791275024,-0.20525887608528137,-0.564073383808136,-0.4999917447566986,0.08901253342628479,0.8868505954742432,0.18850189447402954,1.3779222965240479,-0.1401311159133911,-0.6203383207321167,3.4583048820495605,-3.842191696166992,-2.048492670059204,-0.001674482598900795,-0.3408510982990265,-7.372831344604492,1.4436957836151123,-3.3911657333374023,-22.66777801513672,-44.52461242675781,-6.880161285400391,10.027536392211914,25.400062561035156,0.793701171875,-19.017824172973633,-0.04176139831542969,30.0
1.2,0.8999999761581421,0.0,0.044106557965278625,-90.03572845458984,0.14105981588363647,0.6445159316062927,-0.6451775431632996,0.548403263092041,-1.9442421197891235,-1.3894661664962769,-1.7482036352157593,-0.5317519307136536,1.1957677602767944,-0.9995965361595154,-0.3074163794517517,1.0322340726852417,-0.23171541094779968,-0.5442909598350525,-0.5001175403594971,0.10147834569215775,0.8978055119514465,0.1867578625679016,1.5340509414672852,-0.06166011840105057,-0.7208549976348877,3.3335509300231934,-2.581550121307373,5.03080415725708,-0.19014760851860046,2.0438735485076904,8.3968505859375,-11.524432182312012,-29.534061431884766,-24.483001708984375,-33.31110763549805,-4.989189624786377,5.186000347137451,23.142986297607422,-65.9932861328125,-17.398468017578125,-16.274883270263672,30.0
1.21,0.8999999761581421,0.0,0.04553627222776413,-90.04041290283203,0.14928534626960754,0.6273629069328308,-0.5689483284950256,0.5839866399765015,-1.7800142765045166,-1.3221627473831177,-1.539880633354187,-0.7756946682929993,1.2156219482421875,-0.9993286728858948,-0.31197404861450195,1.0636099576950073,-0.2527926564216614,-0.4968123435974121,-0.5001237392425537,0.1378425508737564,0.9567840695381165,0.07335377484560013,1.5608088970184326,-0.02548258751630783,-0.22918251156806946,2.4190874099731445,-3.4258644580841064,4.440886497497559,-0.13165457546710968,4.241110324859619,4.446639060974121,-14.737507820129395,-40.81993103027344,-26.137130737304688,-1.8833677768707275,4.770463943481445,-7.260335445404053,23.0168399810791,-146.46588134765625,-45.9051399230957,30.0,30.0
1.22,0.8999999761581421,0.0,0.04724428802728653,-90.04380798339844,0.15713414549827576,0.6117644309997559,-0.4466359317302704,0.6201122403144836,-1.5814687013626099,-1.2678077220916748,-1.2646647691726685,-0.9702427983283997,1.237532138824463,-0.9995120763778687,-0.3076862692832947,1.0828735828399658,-0.28246504068374634,-0.4532238841056824,-0.5001704096794128,0.2019442319869995,0.9676799774169922,-0.06866168975830078,1.8349944353103638,-0.188347727060318,0.8946478962898254,0.8182765245437622,-3.7895355224609375,4.013216018676758,-0.07176201045513153,7.491272926330566,-1.4926215410232544,-14.288288116455078,-56.97334289550781,-36.079750061035156,-14.056328773498535,14.907327651977539,-24.064586639404297,30.850576400756836,-186.45433044433594,-46.34709167480469,30.0,30.0
1.23,0.8999999761581421,0.0,0.04883674904704094,-90.04571533203125,0.1644311398267746,0.5977773666381836,-0.31795620918273926,0.6634160876274109,-1.4026892185211182,-1.4854531288146973,-1.1496241092681885,-0.727056086063385,1.25355863571167,-0.9987608790397644,-0.29904264211654663,1.0896484851837158,-0.3250357508659363,-0.41777655482292175,-0.5001746416091919,0.3025881350040436,0.9099846482276917,-0.24082675576210022,0.9072026014328003,0.1698475331068039,1.0662537813186646,-0.2583969831466675,-5.8676981925964355,2.963392734527588,-0.08588321506977081,11.594018936157227,-9.259061813354492,-15.434622764587402,-76.36042022705078,-43.734642028808594,-60.71511459350586,24.12763786315918,-22.166278839111328,38.010498046875,-182.3160400390625,-39.27762985229492,30.0,30.0
1.24,0.8999999761581421,0.0,0.049642790108919144,-90.04649353027344,0.17103701829910278,0.5848681330680847,-0.17450301349163055,0.6984072923660278,-1.3045893907546997,-1.9528173208236694,-0.5304436683654785,-0.05085165053606033,1.2614248991012573,-0.9991902709007263,-0.29100698232650757,1.0899354219436646,-0.3751097023487091,-0.40232327580451965,-0.5001834034919739,0.4364234209060669,0.7663116455078125,-0.43796980381011963,0.21500281989574432,0.08145606517791748,0.8727627992630005,-0.6669827699661255,-5.257105827331543,0.26875028014183044,-0.1641373485326767,14.499207496643066,-19.990047454833984,0.37581634521484375,-84.60369873046875,-37.72803497314453,-118.95587158203125,15.583699226379395,-25.973922729492188,37.455970764160156,-137.994140625,-20.66012191772461,30.0,30.0
1.25,0.8999999761581421,0.0,0.04886939004063606,-90.04715728759766,0.17712073028087616,0.572576105594635,-0.10996323078870773,0.7805764079093933,-1.2398301362991333,-2.7539727687835693,0.4341074228286743,1.0684165954589844,1.2768754959106445,-1.0001739263534546,-0.2721731960773468,1.081952691078186,-0.42585253715515137,-0.4204499423503876,-0.5008099675178528,0.5806348323822021,0.5490521192550659,-0.6007921099662781,1.4874361753463745,-0.4864562451839447,2.4188356399536133,-1.5563715696334839,-4.769320011138916,-4.067432880401611,-0.4406101703643799,13.141061782836914,-24.52501678466797,9.203300476074219,-65.93312072753906,-28.21187973022461,-176.36021423339844,-11.764129638671875,-46.06083297729492,28.420114517211914,-51.664329528808594,-22.666030883789062,10.37845230102539,30.0
