DanielTruong99/RLHumanoidRobot/analysis/data/state_log.csv
time_step,c_x,c_y,c_z,base_x,base_y,base_z,base_vx,base_vy,base_vz,base_wx,base_wy,base_wz,pos_R_hip_joint,pos_R_hip2_joint,pos_R_thigh_joint,pos_R_calf_joint,pos_R_toe_joint,pos_L_hip_joint,pos_L_hip2_joint,pos_L_thigh_joint,pos_L_calf_joint,pos_L_toe_joint,vel_R_hip_joint,vel_R_hip2_joint,vel_R_thigh_joint,vel_R_calf_joint,vel_R_toe_joint,vel_L_hip_joint,vel_L_hip2_joint,vel_L_thigh_joint,vel_L_calf_joint,vel_L_toe_joint,torque_R_hip_joint,torque_R_hip2_joint,torque_R_thigh_joint,torque_R_calf_joint,torque_R_toe_joint,torque_L_hip_joint,torque_L_hip2_joint,torque_L_thigh_joint,torque_L_calf_joint,torque_L_toe_joint
0.02,0.0,0.0,0.0,-0.004107835702598095,0.0009049412328749895,0.9176608920097351,0.1233644112944603,-0.02372717671096325,-0.6015318632125854,0.8523485064506531,3.399418830871582,0.13262693583965302,0.0020029100123792887,-0.012244416400790215,-0.1617298275232315,0.2924432158470154,-0.6495257616043091,0.031034309417009354,-0.0291754100471735,-0.19328562915325165,0.36684542894363403,-0.28502562642097473,0.3018345534801483,-1.0231388807296753,-10.41289234161377,16.742965698242188,-30.9769344329834,1.9172101020812988,-2.665952205657959,-12.509753227233887,22.55255889892578,-12.99138069152832,1.5447132587432861,12.469579696655273,-19.133934020996094,-6.072135925292969,0.105438232421875,-2.357541561126709,-47.07828140258789,-8.134902954101562,4.136238098144531,0.78375244140625
0.04,0.0,0.0,0.0,-0.00826644990593195,0.0024298327043652534,0.9036737084388733,0.14613792300224304,-0.05305039510130882,-0.807016909122467,0.9842404127120972,2.2745416164398193,0.07928077131509781,0.013817232102155685,-0.04052819684147835,-0.33533158898353577,0.5401366949081421,-0.39439502358436584,0.03474965691566467,-0.07876215130090714,-0.3677164614200592,0.6463558077812195,-0.3384521007537842,0.6840503215789795,-1.7961649894714355,-7.981884479522705,12.450263023376465,12.724150657653809,-0.4967203140258789,-2.2933316230773926,-7.2811079025268555,11.198153495788574,-2.666445732116699,-3.0577352046966553,-19.95928955078125,13.95765495300293,6.9361724853515625,0.339263916015625,1.1960653066635132,18.912691116333008,-1.4593162536621094,-7.183673858642578,-0.6915006637573242
0.06,0.0,0.0,0.0,-0.010659100487828255,0.003375072032213211,0.8857182264328003,0.11874361336231232,-0.07991223782300949,-0.9719541668891907,0.5400289297103882,0.7300443053245544,-0.06054220348596573,0.024977346882224083,-0.07102291285991669,-0.46845683455467224,0.8188806176185608,-0.36621615290641785,0.012994847260415554,-0.10526508837938309,-0.45041924715042114,0.7632210850715637,-0.33757829666137695,0.5045372843742371,-1.1868231296539307,-5.653220176696777,14.104352951049805,1.2073841094970703,-1.353551983833313,-0.43069201707839966,-2.550218343734741,3.8053317070007324,-0.1045893207192421,-2.1451210975646973,-2.9903297424316406,12.923919677734375,8.806297302246094,0.5676007270812988,4.676377296447754,32.98123550415039,10.570944786071777,-3.8275184631347656,-0.36621102690696716
0.08,0.0,0.0,0.0,-0.011156566441059113,0.0030301115475594997,0.865191638469696,0.10046200454235077,-0.05412033572793007,-1.0614490509033203,-0.3225402235984802,-0.34145042300224304,-0.14191190898418427,0.029479574412107468,-0.07709764689207077,-0.5285953283309937,1.0215463638305664,-0.4048876166343689,-0.012523523531854153,-0.09112437814474106,-0.4494651257991791,0.7399535179138184,-0.20674319565296173,0.07611063122749329,0.3908765912055969,-1.829317569732666,8.335519790649414,-2.039656639099121,-1.242432713508606,1.160007119178772,0.7978395223617554,-0.22564586997032166,-12.474706649780273,-0.8119458556175232,6.417539596557617,6.607624053955078,-3.0275917053222656,-0.4320802688598633,6.905819892883301,29.292499542236328,2.454277515411377,-6.757846832275391,-0.6632347106933594
0.1,0.0,0.0,0.0,-0.011030389927327633,0.0020977635867893696,0.8437046408653259,0.05867913365364075,-0.02734433487057686,-1.0515682697296143,-0.6545828580856323,-0.695134699344635,0.02454243414103985,0.018739450722932816,-0.05859339237213135,-0.5267735123634338,1.0755318403244019,-0.382167249917984,-0.01982746087014675,-0.07794516533613205,-0.4462266266345978,0.799816370010376,-0.4025052487850189,-0.8004831671714783,1.3242493867874146,1.0097194910049438,-0.042966458946466446,0.8693535327911377,-0.06593770533800125,0.6932827234268188,-0.040001172572374344,3.717933416366577,-9.083609580993652,0.985579252243042,9.602560043334961,-10.264938354492188,-15.512542724609375,-1.324526309967041,1.5224392414093018,17.69467544555664,17.73213768005371,-3.2278919219970703,30.0
0.12,0.0,0.0,0.0,-0.011127238161861897,0.0009667458944022655,0.8224618434906006,0.012891370803117752,-0.0261655542999506,-0.9843144416809082,-0.5266358256340027,-0.7086237072944641,0.08250001072883606,0.011407415382564068,-0.04249274358153343,-0.500649631023407,1.072393774986267,-0.41645321249961853,-0.022432325407862663,-0.06535312533378601,-0.4731387794017792,0.9049899578094482,-0.5386655926704407,0.04177622124552727,0.6692716479301453,1.2447580099105835,1.3281389474868774,-7.827520847320557,-0.19530390202999115,0.6376723051071167,-2.5272276401519775,6.600871562957764,-1.9040623903274536,-1.5579872131347656,-18.717472076416016,-10.04703426361084,-37.50200653076172,30.0,3.8444488048553467,26.377574920654297,22.609466552734375,-16.0368709564209,30.0
0.14,0.0,0.0,0.0,-0.011086303740739822,-1.6110599972307682e-05,0.8054339289665222,0.007038408890366554,-0.03168806806206703,-0.7122867107391357,-0.21902494132518768,-0.7179142832756042,0.0011450311867520213,0.00893489085137844,-0.032761525362730026,-0.46171751618385315,1.073898434638977,-0.5826232433319092,-0.02227206714451313,-0.05717732012271881,-0.5082626342773438,1.0151680707931519,-0.5972908139228821,-0.08267027884721756,0.327920138835907,2.777454137802124,-1.3972582817077637,-8.659509658813477,0.02154138684272766,0.24833904206752777,-1.0854061841964722,4.2932257652282715,-2.7689473628997803,-2.899015426635742,-20.502500534057617,-16.823638916015625,-60.31754684448242,30.0,3.852287530899048,12.539318084716797,5.7272820472717285,-48.40174865722656,30.0
0.16,0.0,0.0,0.0,-0.01079972181469202,-0.0009960278403013945,0.7931025624275208,-0.023154936730861664,-0.018036792054772377,-0.46494266390800476,-0.4353702962398529,-0.6111988425254822,-0.1776149421930313,0.008135021664202213,-0.02567157708108425,-0.42440304160118103,1.063130497932434,-0.7211499214172363,-0.020452382043004036,-0.05123371258378029,-0.5264900922775269,1.0881177186965942,-0.6383600234985352,-0.06710152328014374,0.5915477275848389,-0.9474955201148987,1.0375027656555176,7.985804557800293,0.16560134291648865,0.5431846976280212,-0.4674599766731262,2.801081895828247,-2.224181890487671,-5.034727573394775,-3.9955148696899414,-11.657791137695312,-37.978782653808594,30.0,3.379342555999756,14.690321922302246,5.435598373413086,-48.55179214477539,30.0
0.18,0.0,0.0,0.0,-0.010279708541929722,-0.0022501619532704353,0.7865368127822876,0.000622498628217727,-0.02670406550168991,-0.17303667962551117,-0.3707226514816284,-0.4693925976753235,0.02096264436841011,0.00903145782649517,-0.01483381912112236,-0.42291635274887085,1.0915205478668213,-0.7354007959365845,-0.019023368135094643,-0.04116695001721382,-0.5298861861228943,1.1277740001678467,-0.6641936898231506,-0.0024715401232242584,0.5273372530937195,0.34493520855903625,0.4942464828491211,0.19980138540267944,-0.026717551052570343,0.4914596676826477,0.14874111115932465,1.1161224842071533,-0.9678332209587097,-4.050142765045166,-5.453295707702637,-15.947629928588867,-59.1141471862793,30.0,1.6260093450546265,10.270965576171875,-2.2343311309814453,-68.21658325195312,30.0
0.2,0.0,0.0,0.0,-0.009294964373111725,-0.003601109841838479,0.7851101756095886,-0.0007969681173563004,-0.03557486832141876,0.04636078327894211,-0.3129110038280487,-0.5746673941612244,0.006289200857281685,0.009001699276268482,-0.00476790452376008,-0.4092532992362976,1.0925787687301636,-0.736829936504364,-0.01884443871676922,-0.031565845012664795,-0.5206260681152344,1.138787865638733,-0.6728700399398804,-0.018380869179964066,0.4970332682132721,1.2397466897964478,-0.8269904851913452,-0.33390378952026367,0.09130392968654633,0.42859339714050293,0.9192111492156982,-0.11790625751018524,-0.6213799715042114,-3.2911789417266846,-9.481590270996094,-14.001520156860352,-51.74858093261719,30.0,3.5981528759002686,9.059080123901367,6.618456840515137,-48.240657806396484,30.0
0.22,0.0,0.0,0.0,-0.007950127124786377,-0.004989985376596451,0.7875955104827881,0.0027247341349720955,-0.038456112146377563,0.22389809787273407,-0.30882954597473145,-0.59974604845047,0.029570717364549637,0.008818077854812145,0.004911578726023436,-0.3836246132850647,1.0716781616210938,-0.730099618434906,-0.01867302879691124,-0.02226252295076847,-0.4996771812438965,1.128868818283081,-0.6712896823883057,-0.02225635200738907,0.47842657566070557,1.721747636795044,-1.8175666332244873,0.1950206756591797,-0.052042461931705475,0.45512130856513977,1.3915282487869263,-1.115055799484253,0.3568769097328186,-4.902611255645752,-13.180864334106445,-14.771688461303711,-50.66038513183594,30.0,3.236572265625,8.47392749786377,6.870065212249756,-35.534149169921875,30.0
0.24,0.0,0.0,0.0,-0.006348760798573494,-0.006319425534456968,0.7928200960159302,0.013697347603738308,-0.03379283845424652,0.32977649569511414,-0.3246304392814636,-0.5752749443054199,0.020825862884521484,0.008522285148501396,0.014708164148032665,-0.35016515851020813,1.034389853477478,-0.7154631018638611,-0.018705347552895546,-0.012657814659178257,-0.46980151534080505,1.1019624471664429,-0.665185272693634,0.024572104215621948,0.49979403614997864,1.9373269081115723,-2.4222748279571533,0.9801367521286011,-0.0543908067047596,0.4683857560157776,1.6109707355499268,-1.6774590015411377,0.7736241817474365,-4.003613471984863,-19.64055633544922,-15.480253219604492,-47.287513732910156,30.0,2.2281715869903564,5.974993705749512,7.987125396728516,-20.471050262451172,30.0
0.26,0.0,0.0,0.0,-0.004628824070096016,-0.007409371435642242,0.798932671546936,0.02759011648595333,-0.0166021678596735,0.32175102829933167,-0.3483131229877472,-0.5073250532150269,-0.019135938957333565,0.008597352541983128,0.02425985410809517,-0.3160979449748993,0.9923389554023743,-0.6945691108703613,-0.018499724566936493,-0.003251808462664485,-0.43974193930625916,1.0713615417480469,-0.6526530385017395,0.12137190252542496,0.4806833565235138,1.6849898099899292,-2.175042152404785,1.2543230056762695,0.014827460050582886,0.46950259804725647,1.5386595726013184,-1.6702467203140259,0.7477997541427612,-3.775306463241577,-26.099802017211914,-14.18826961517334,-38.402549743652344,30.0,-0.2515091001987457,1.515362024307251,8.274499893188477,-0.14405250549316406,10.348466873168945
0.28,0.0,0.0,0.0,-0.0030447132885456085,-0.008058208040893078,0.8038432002067566,0.0328608937561512,-0.0035724579356610775,0.22348637878894806,-0.21526223421096802,-0.38182297348976135,-0.046591613441705704,0.009069835767149925,0.031564027070999146,-0.2978256642818451,0.9723433256149292,-0.6614517569541931,-0.021040456369519234,0.0034664475824683905,-0.4151012897491455,1.0577287673950195,-0.656104326248169,0.15866650640964508,0.2949979901313782,0.5265439748764038,-0.4098246693611145,2.210101366043091,-0.2329232543706894,0.22433143854141235,1.17726731300354,-0.18825946748256683,-0.1485467553138733,-4.214761734008789,-27.776269912719727,-8.290717124938965,-24.070175170898438,30.0,-0.7431808710098267,-1.7858662605285645,6.89615535736084,7.034300804138184,0.43464136123657227
0.3,0.0,0.0,0.0,-0.0018599607283249497,-0.00820058025419712,0.8060382008552551,0.030040917918086052,-0.001320379669778049,0.05326748266816139,0.045238886028528214,-0.20855866372585297,-0.055309634655714035,0.007892587222158909,0.03298657760024071,-0.3071014881134033,0.9952993392944336,-0.6155620217323303,-0.023178240284323692,0.0038295616395771503,-0.4017525315284729,1.0674794912338257,-0.5986390709877014,-0.1043822169303894,-0.12336863577365875,-0.8971042037010193,1.953940510749817,3.019533157348633,-0.06812582910060883,-0.13715970516204834,0.49027273058891296,0.9633808135986328,2.076284885406494,-2.3712844848632812,-21.07320785522461,1.617164134979248,-4.760429382324219,30.0,0.3675355017185211,1.6003981828689575,-0.02280902862548828,3.297222852706909,0.1497325897216797
0.32,0.0,0.0,0.0,-0.0010689249029383063,-0.007988077588379383,0.8055230379104614,0.02470364421606064,-0.01815212331712246,-0.05557135492563248,0.3245519995689392,-0.09067685902118683,-0.03136604279279709,0.0033353432081639767,0.027069715782999992,-0.33289921283721924,1.0438990592956543,-0.5686181783676147,-0.022532258182764053,-0.0013906114036217332,-0.40458351373672485,1.0803025960922241,-0.5820122361183167,-0.21347756683826447,-0.4054507911205292,-1.4379981756210327,2.5778260231018066,2.2005701065063477,0.03527027368545532,-0.40238022804260254,-0.4492073655128479,0.9846431612968445,2.2930843830108643,-0.10630965232849121,-17.706199645996094,-0.9366774559020996,-6.505937576293945,21.33344078063965,0.29666978120803833,10.598140716552734,1.9316341876983643,-8.379945755004883,30.0
0.34,0.0,0.0,0.0,-0.00026780529879033566,-0.007742316462099552,0.8038390874862671,0.026054585352540016,-0.02326570823788643,-0.0698268935084343,0.3182104527950287,-0.165784552693367,0.006762777455151081,0.0013833933044224977,0.019344793632626534,-0.35327276587486267,1.085178256034851,-0.5399413108825684,-0.021746862679719925,-0.009315647184848785,-0.41244277358055115,1.0998157262802124,-0.564129650592804,0.058030806481838226,-0.378680944442749,-0.7819108366966248,1.7081351280212402,1.24429190158844,-0.16012854874134064,-0.37598106265068054,-0.341962605714798,0.8451293110847473,1.371916651725769,-0.6427752375602722,-14.534394264221191,-3.957578659057617,-18.012086868286133,30.0,1.1146360635757446,21.121395111083984,0.9977661371231079,-22.57147216796875,30.0
0.36,0.0,0.0,0.0,0.0006418126286007464,-0.007638799957931042,0.8024565577507019,0.02417846955358982,-0.02224404364824295,-0.028512176126241684,0.21884804964065552,-0.2098168283700943,0.010409829206764698,-0.0006074648117646575,0.013067290186882019,-0.36455801129341125,1.113553524017334,-0.520736038684845,-0.021417751908302307,-0.015786880627274513,-0.41996482014656067,1.1213270425796509,-0.5487121343612671,-0.09271213412284851,-0.25133049488067627,-0.42402100563049316,1.1451021432876587,1.074485421180725,0.034264713525772095,-0.2653748393058777,-0.3857933580875397,0.955363392829895,1.4734184741973877,-0.6996011137962341,-11.635564804077148,-5.919628143310547,-25.063365936279297,30.0,1.41829514503479,21.693077087402344,2.6722464561462402,-28.23065948486328,30.0
0.38,0.0,0.0,0.0,0.0016909162513911724,-0.00769341504201293,0.8020913600921631,0.028276612982153893,-0.015494774095714092,0.03037860617041588,0.0831981897354126,-0.2479662001132965,-0.0023066624999046326,-0.0024292171001434326,0.00972615648061037,-0.36862608790397644,1.1310923099517822,-0.5033987760543823,-0.022513238713145256,-0.019211621955037117,-0.4228559732437134,1.1355732679367065,-0.528206467628479,-0.12735819816589355,-0.08658704161643982,-0.10332068800926208,0.6018363237380981,1.144918441772461,-0.025875868275761604,-0.09725747257471085,-0.03025081194937229,0.48420849442481995,1.1597727537155151,-1.0123504400253296,-11.615175247192383,-6.649466037750244,-29.91084861755371,30.0,1.3798164129257202,20.00865936279297,0.9930557012557983,-31.214120864868164,30.0
0.4,0.0,0.0,0.0,0.002821083180606365,-0.00782843679189682,0.8026044368743896,0.032192014157772064,-0.010914038866758347,0.06130911037325859,0.024844635277986526,-0.2404625415802002,0.014996145851910114,-0.00442353542894125,0.008609024807810783,-0.37026160955429077,1.142918586730957,-0.4820823669433594,-0.022343287244439125,-0.02038213238120079,-0.4216277301311493,1.14291512966156,-0.510258674621582,0.01220020279288292,-0.014902820810675621,-0.07624704390764236,0.42726874351501465,1.5151166915893555,0.03026118502020836,-0.025442687794566154,0.10673993080854416,0.20427502691745758,1.1014913320541382,-1.5220959186553955,-12.479875564575195,-5.622499942779541,-27.816761016845703,30.0,0.28116118907928467,15.423707962036133,0.3763115704059601,-26.825197219848633,30.0
0.42,0.0,0.0,0.0,0.00396876223385334,-0.007955693639814854,0.8032523989677429,0.03828008845448494,-0.010550913400948048,0.04642496630549431,0.04216323420405388,-0.18174855411052704,0.0051081483252346516,-0.005771023686975241,0.007897819392383099,-0.3727691173553467,1.1540234088897705,-0.45879796147346497,-0.022013969719409943,-0.02113213948905468,-0.4193560779094696,1.1472505331039429,-0.49549007415771484,-0.1351584792137146,-0.04221193864941597,-0.16397184133529663,0.4946591258049011,1.3569368124008179,-0.002050408162176609,-0.04595615714788437,0.11315467953681946,0.10416378080844879,0.9163413047790527,-0.6959106922149658,-12.43542194366455,-6.82922887802124,-23.806482315063477,30.0,0.40424644947052,13.232756614685059,1.4309831857681274,-21.64781379699707,30.0
0.44,0.0,0.0,0.0,0.0050751157104969025,-0.00805513933300972,0.8032188415527344,0.04088135436177254,-0.014228730462491512,-0.004572859033942223,0.0885108932852745,-0.12636786699295044,0.02299024909734726,-0.007205840665847063,0.006426048930734396,-0.37688159942626953,1.1664950847625732,-0.4408435821533203,-0.022023705765604973,-0.022622985765337944,-0.42060941457748413,1.1553446054458618,-0.4815308451652527,0.0256650373339653,-0.10351578891277313,-0.21530720591545105,0.6148134469985962,1.132371425628662,-0.0034399833530187607,-0.1008027195930481,-0.15896622836589813,0.4360128939151764,1.0477440357208252,-1.1154338121414185,-12.193018913269043,-5.571996212005615,-18.243736267089844,30.0,0.18930082023143768,13.358007431030273,1.7487566471099854,-17.904329299926758,30.0
0.46,0.0,0.0,0.0,0.006106026470661163,-0.008185951970517635,0.8020244836807251,0.04129411652684212,-0.017326511442661285,-0.06869978457689285,0.08555232733488083,-0.0715578943490982,0.007193850353360176,-0.008552473969757557,0.004544863477349281,-0.3836943209171295,1.182909607887268,-0.42921438813209534,-0.02161404862999916,-0.024553919211030006,-0.42710787057876587,1.1707239151000977,-0.46902036666870117,-0.03894337639212608,-0.08796937018632889,-0.3951341211795807,0.8317340016365051,0.6566654443740845,0.006244029849767685,-0.09371262788772583,-0.3862571716308594,0.7540721893310547,0.940637469291687,-0.5899341702461243,-9.905343055725098,-5.244789123535156,-15.088921546936035,28.29415512084961,0.49342283606529236,14.757031440734863,2.174294948577881,-17.665992736816406,30.0
0.48,0.0,0.0,0.0,0.007071351632475853,-0.008412710390985012,0.7996851801872253,0.04002218693494797,-0.022131770849227905,-0.11969710886478424,0.07546437531709671,-0.04617555812001228,0.01403866522014141,-0.009915503673255444,0.0029545200522989035,-0.39228320121765137,1.202652096748352,-0.42385023832321167,-0.021397052332758904,-0.026219060644507408,-0.4385354220867157,1.1934876441955566,-0.45651060342788696,-0.020812371745705605,-0.06586859375238419,-0.4257928431034088,0.9260201454162598,0.36106741428375244,0.03971961885690689,-0.07482321560382843,-0.6402966976165771,1.1231709718704224,1.0628386735916138,-0.584740400314331,-9.414238929748535,-4.513199806213379,-15.517822265625,27.884981155395508,0.4612647294998169,16.199562072753906,1.7022249698638916,-20.61034393310547,30.0
0.5,0.0,0.0,0.0,0.008001144044101238,-0.008767778053879738,0.7966373562812805,0.03801279515028,-0.023502854630351067,-0.14114563167095184,0.026697179302573204,-0.04913489520549774,0.007111963350325823,-0.011254371143877506,0.002258139895275235,-0.4021964371204376,1.2249810695648193,-0.4203287959098816,-0.02064615860581398,-0.027007725089788437,-0.4528373181819916,1.2208707332611084,-0.4432830512523651,-0.03360956162214279,0.0009684623219072819,-0.518131673336029,1.0410382747650146,0.5732541084289551,0.014658082276582718,-0.011019554920494556,-0.7370588183403015,1.3149652481079102,1.0238840579986572,-0.43903788924217224,-8.85559368133545,-4.520548343658447,-19.572616577148438,30.0,0.5132763385772705,16.531600952148438,1.5475940704345703,-24.91452407836914,30.0
0.52,0.0,0.0,0.0,0.008921787142753601,-0.009250625967979431,0.7934145927429199,0.03680088371038437,-0.024576736614108086,-0.1386071741580963,-0.022925332188606262,-0.058163098990917206,0.008486718870699406,-0.011742564849555492,0.002906494541093707,-0.4145696759223938,1.2503387928009033,-0.410516619682312,-0.020498882979154587,-0.026510711759328842,-0.46787378191947937,1.2495524883270264,-0.428968608379364,-0.00137346051633358,0.06579772382974625,-0.6555402278900146,1.1885613203048706,1.0221210718154907,0.03908539190888405,0.056127551943063736,-0.7433659434318542,1.322778582572937,1.0833922624588013,-0.7952693700790405,-9.255146026611328,-4.514526844024658,-23.89397621154785,30.0,0.2744132876396179,15.571557998657227,0.9327723979949951,-28.461139678955078,30.0
0.54,0.0,0.0,0.0,0.00986397359520197,-0.009876459836959839,0.7902706265449524,0.038826897740364075,-0.028747914358973503,-0.13400498032569885,-0.05337075516581535,-0.05205000564455986,0.0038880330976098776,-0.012077384628355503,0.00469203619286418,-0.4283459782600403,1.277023196220398,-0.3956383168697357,-0.01976265385746956,-0.02487344481050968,-0.4820343255996704,1.2769147157669067,-0.41509345173835754,-0.07295865565538406,0.10914868116378784,-0.6984256505966187,1.2282928228378296,1.0873595476150513,0.036603137850761414,0.10155676305294037,-0.6808163523674011,1.2095069885253906,0.9967160224914551,-0.4761403799057007,-9.88541316986084,-6.087670803070068,-26.128223419189453,30.0,-0.05917169153690338,14.744823455810547,1.2925715446472168,-29.571502685546875,30.0
0.56,0.0,0.0,0.0,0.01085454411804676,-0.010631551034748554,0.7870923280715942,0.04223657771945,-0.03414025902748108,-0.14205241203308105,-0.05108817294239998,-0.04511493071913719,0.0010920142522081733,-0.013453935272991657,0.006941743195056915,-0.440903902053833,1.3019901514053345,-0.3833642303943634,-0.019614819437265396,-0.022704074159264565,-0.49562737345695496,1.3032705783843994,-0.4019986689090729,-0.03339407593011856,0.11683562397956848,-0.5837631225585938,1.1184051036834717,0.7191839814186096,0.004674909170717001,0.10856502503156662,-0.6789202094078064,1.1722967624664307,1.0466012954711914,-0.36364564299583435,-10.70911693572998,-7.214745998382568,-26.503334045410156,30.0,-0.20129917562007904,14.033767700195312,2.1253719329833984,-27.81862449645996,30.0
0.58,0.0,0.0,0.0,0.011907179839909077,-0.011472702026367188,0.7836258411407471,0.045584969222545624,-0.03613913804292679,-0.16250203549861908,-0.05750934034585953,-0.037159793078899384,-0.0028730477206408978,-0.014538387767970562,0.009416702203452587,-0.4517020881175995,1.3251638412475586,-0.3764593005180359,-0.019610285758972168,-0.02033260464668274,-0.5088335871696472,1.3293017148971558,-0.39117905497550964,-0.09800360351800919,0.1255328208208084,-0.5143173336982727,1.0560579299926758,0.4573684632778168,0.012863783165812492,0.11972327530384064,-0.6476441025733948,1.1526179313659668,0.8618475794792175,-0.43073713779449463,-10.694427490234375,-7.376282691955566,-26.80736541748047,30.0,-0.28276556730270386,12.857321739196777,2.4479899406433105,-25.365127563476562,30.0
0.6,0.0,0.0,0.0,0.013013096526265144,-0.012355745770037174,0.7796950936317444,0.04864506050944328,-0.03607580065727234,-0.18803049623966217,-0.06724545359611511,-0.026729436591267586,-0.0067622242495417595,-0.016179943457245827,0.01210528053343296,-0.4625204801559448,1.3489021062850952,-0.3725101947784424,-0.01986040361225605,-0.017719004303216934,-0.5214819312095642,1.3553587198257446,-0.3850801885128021,-0.03557233512401581,0.14275403320789337,-0.5528383851051331,1.1071966886520386,0.46488040685653687,-0.016217540949583054,0.13374130427837372,-0.6123522520065308,1.1576958894729614,0.5805388689041138,-0.6507775783538818,-10.29971694946289,-6.860611915588379,-26.947561264038086,30.0,-0.3861091732978821,11.578516960144043,2.141770839691162,-24.65723991394043,30.0
0.62,0.0,0.0,0.0,0.014154603704810143,-0.013251206837594509,0.7752678990364075,0.05146385729312897,-0.036642760038375854,-0.2120717316865921,-0.05587554723024368,-0.006591862067580223,0.0024152169935405254,-0.016865108162164688,0.014872374944388866,-0.4743317663669586,1.3742599487304688,-0.36973175406455994,-0.019996756687760353,-0.015116866677999496,-0.5348844528198242,1.3828802108764648,-0.38166654109954834,-0.016147378832101822,0.13188469409942627,-0.6044712662696838,1.1949217319488525,0.39056408405303955,0.010223114863038063,0.11835674196481705,-0.6748798489570618,1.1900219917297363,0.6578290462493896,-0.900346577167511,-9.876093864440918,-7.30085563659668,-27.657255172729492,30.0,-0.4110517203807831,10.977922439575195,2.6085684299468994,-24.986995697021484,30.0
0.64,0.0,0.0,0.0,0.015336655080318451,-0.014141775667667389,0.7704512476921082,0.05462921783328056,-0.03752296417951584,-0.22768889367580414,-0.04368134215474129,0.005490653682500124,-0.003004729514941573,-0.018236976116895676,0.01734171248972416,-0.48631516098976135,1.4002811908721924,-0.3691619634628296,-0.01983225718140602,-0.012780077755451202,-0.5491108894348145,1.4114906787872314,-0.37857887148857117,-0.11339253932237625,0.1152188628911972,-0.5921539068222046,1.2134299278259277,0.1780003011226654,0.017875170335173607,0.10187849402427673,-0.7022116780281067,1.1963366270065308,0.6942771673202515,-0.36955660581588745,-9.691372871398926,-8.444140434265137,-29.696022033691406,30.0,-0.39868515729904175,11.4634428024292,3.4761061668395996,-26.54619598388672,30.0
0.66,0.0,0.0,0.0,0.01657601073384285,-0.015028152614831924,0.7654672861099243,0.05681624636054039,-0.03797333315014839,-0.22968129813671112,-0.03866342082619667,-0.005350746680051088,0.001928569981828332,-0.0199708454310894,0.01958273909986019,-0.4982050955295563,1.426523208618164,-0.36915627121925354,-0.020456448197364807,-0.010652651078999043,-0.5636096596717834,1.4404464960098267,-0.3745175898075104,-0.0419016107916832,0.11368508636951447,-0.5881381034851074,1.1994231939315796,0.31249356269836426,-0.0380563884973526,0.10184335708618164,-0.7252474427223206,1.266363263130188,0.7350956201553345,-0.7417667508125305,-9.909759521484375,-8.265671730041504,-32.62407302856445,30.0,-0.4768674075603485,10.941685676574707,3.5230698585510254,-28.680675506591797,30.0
0.68,0.0,0.0,0.0,0.017883118242025375,-0.015911297872662544,0.7605438828468323,0.05920357257127762,-0.03631418198347092,-0.22226932644844055,-0.05046951770782471,-0.017622126266360283,-0.0007447212119586766,-0.020898303017020226,0.021939223632216454,-0.512052595615387,1.4546452760696411,-0.3620462417602539,-0.02105531468987465,-0.008464743383228779,-0.5770537257194519,1.468209147453308,-0.37082892656326294,-0.02966078370809555,0.12679897248744965,-0.7503217458724976,1.3077137470245361,0.963616132736206,-0.006315379403531551,0.11447223275899887,-0.6286397576332092,1.1637849807739258,0.6073296070098877,-0.9927978515625,-9.853556632995605,-8.269889831542969,-35.39020538330078,30.0,-0.6358498930931091,10.288291931152344,3.388798236846924,-30.12995719909668,30.0
0.7000000000000001,0.0,0.0,0.0,0.019292093813419342,-0.016807308420538902,0.755679726600647,0.06676965951919556,-0.038033973425626755,-0.22441880404949188,-0.04604927450418472,0.001323841162957251,0.0026110950857400894,-0.023073099553585052,0.024382533505558968,-0.5250902771949768,1.4814791679382324,-0.35449835658073425,-0.021698296070098877,-0.006122265942394733,-0.5892808437347412,1.4945753812789917,-0.36849722266197205,-0.12591515481472015,0.12076050043106079,-0.6064397692680359,1.2580796480178833,0.3114650249481201,-0.0417054146528244,0.11014349013566971,-0.6092172861099243,1.0957071781158447,0.5948969125747681,-0.4385468363761902,-9.638331413269043,-10.655845642089844,-34.95545196533203,30.0,-0.9413672089576721,11.991800308227539,4.225001335144043,-31.353458404541016,30.0
0.72,0.0,0.0,0.0,0.02082187309861183,-0.017730053514242172,0.7507258653640747,0.07322262227535248,-0.043160706758499146,-0.23163309693336487,-0.004352916497737169,0.002688073320314288,0.029004665091633797,-0.025218114256858826,0.026410594582557678,-0.5329515337944031,1.5035183429718018,-0.36044803261756897,-0.02377631701529026,-0.004244000650942326,-0.6031709909439087,1.5222221612930298,-0.36165985465049744,-0.0024446696043014526,0.039798855781555176,-0.2603405714035034,1.032193899154663,0.06145352125167847,-0.09441113471984863,0.06957973539829254,-0.7592551708221436,1.1735296249389648,1.1696058511734009,-0.9310786724090576,-9.922123908996582,-11.7886323928833,-34.7685546875,30.0,-1.017953634262085,11.199944496154785,5.770544528961182,-30.38585662841797,30.0
0.74,0.0,0.0,0.0,0.022448105737566948,-0.01863696612417698,0.7457298636436462,0.07515381276607513,-0.0397341325879097,-0.22855260968208313,-0.019962608814239502,-0.0195766668766737,-0.016515126451849937,-0.028251731768250465,0.02795022539794445,-0.543125331401825,1.5281537771224976,-0.36026474833488464,-0.02484503574669361,-0.0027476309332996607,-0.6147566437721252,1.547613501548767,-0.35887986421585083,-0.17757345736026764,0.09516878426074982,-0.6524161100387573,1.1850770711898804,0.8323357105255127,-0.0038561131805181503,0.08125851303339005,-0.4528767764568329,0.9796035885810852,0.34896233677864075,-0.6235888004302979,-9.103548049926758,-9.572933197021484,-38.45066833496094,30.0,-1.3480467796325684,7.426628589630127,4.901360988616943,-28.82632827758789,30.0
0.76,0.0,0.0,0.0,0.024190032854676247,-0.01955755241215229,0.7406873106956482,0.08516617864370346,-0.038161374628543854,-0.2365134358406067,-0.05263981223106384,0.01609945110976696,0.026982106268405914,-0.030881552025675774,0.030236419290304184,-0.5553568601608276,1.5544484853744507,-0.3533867597579956,-0.026829112321138382,-0.0005615197587758303,-0.6231120824813843,1.5703535079956055,-0.36448386311531067,-0.009200043976306915,0.09651051461696625,-0.5860270261764526,1.321755051612854,1.205843448638916,-0.19505755603313446,0.1285545825958252,-0.4040715992450714,0.9116217494010925,0.1008843183517456,-1.3824996948242188,-8.239954948425293,-10.758960723876953,-36.83332061767578,30.0,-1.636064052581787,10.069433212280273,3.712800979614258,-31.091724395751953,30.0
0.78,0.0,0.0,0.0,0.0260294321924448,-0.02052846923470497,0.7354251146316528,0.09086000919342041,-0.04900357872247696,-0.2502431571483612,0.015862949192523956,0.03763149678707123,0.04186994582414627,-0.03396722301840782,0.03216267749667168,-0.5624880194664001,1.5761483907699585,-0.3616984188556671,-0.03152330592274666,0.001255036797374487,-0.6365598440170288,1.597209095954895,-0.35950565338134766,-0.20368024706840515,0.06886664032936096,-0.20717653632164001,0.9336792230606079,-0.6759237051010132,-0.19386327266693115,0.06668449193239212,-0.8505983352661133,1.0979803800582886,1.6275298595428467,-1.3515701293945312,-7.288264274597168,-15.268054008483887,-33.81297302246094,23.178985595703125,-1.1152517795562744,9.830893516540527,9.626158714294434,-31.194866180419922,30.0
0.8,0.0,0.0,0.0,0.02801927551627159,-0.021502502262592316,0.7301088571548462,0.09594488143920898,-0.04897773265838623,-0.24357329308986664,0.04044535756111145,-0.012564926408231258,0.030977535992860794,-0.03879760578274727,0.03286979719996452,-0.5647485256195068,1.5946917533874512,-0.3810625672340393,-0.03481488674879074,0.0020060637034475803,-0.6516445875167847,1.62534499168396,-0.34613555669784546,-0.2129717767238617,0.022761207073926926,-0.057938698679208755,0.8336765766143799,-0.8979690074920654,-0.22897686064243317,0.02450469881296158,-0.7028266191482544,1.0707411766052246,1.3448233604431152,-1.0565972328186035,-10.453459739685059,-13.51078987121582,-43.377037048339844,30.0,-1.5394434928894043,7.6615729331970215,7.78495979309082,-29.389801025390625,30.0
0.8200000000000001,0.0,0.0,0.0,0.030133714899420738,-0.022384589537978172,0.7250183820724487,0.09637808054685593,-0.03351514786481857,-0.22640766203403473,-0.05457037314772606,-0.05400194600224495,-0.03022547997534275,-0.04213506355881691,0.034064702689647675,-0.5828794240951538,1.627465844154358,-0.3565744459629059,-0.03826872631907463,0.003198200836777687,-0.6552956104278564,1.6442360877990723,-0.3588009476661682,-0.1082143485546112,0.1326483190059662,-1.461229681968689,1.5424354076385498,4.007049560546875,-0.14398367702960968,0.10900132358074188,0.18475812673568726,0.6331044435501099,-1.3544847965240479,-1.7642741203308105,-7.129909992218018,-5.579610824584961,-45.53732681274414,30.0,-1.730147361755371,1.100804090499878,1.6059722900390625,-28.613847732543945,24.731117248535156
0.84,0.0,0.0,0.0,0.03234458342194557,-0.02338288724422455,0.7197061777114868,0.11675113439559937,-0.04440063610672951,-0.2680611312389374,-0.08965159207582474,0.08820975571870804,0.07546533644199371,-0.04762881621718407,0.03728132322430611,-0.6012154221534729,1.647362232208252,-0.36331477761268616,-0.04328671470284462,0.006544589065015316,-0.6617199778556824,1.6662191152572632,-0.36999887228012085,-0.40534818172454834,0.20087747275829315,-0.36168885231018066,1.7142894268035889,-0.32459819316864014,-0.26351720094680786,0.20277556777000427,-0.6633968949317932,0.9269047379493713,1.0237901210784912,-1.2530118227005005,-4.97075891494751,-17.367759704589844,-26.504053115844727,7.924272537231445,-1.7446683645248413,16.33147621154785,7.902332305908203,-34.7425537109375,30.0
0.86,0.0,0.0,0.0,0.03476962074637413,-0.024414611980319023,0.7140262126922607,0.1196499690413475,-0.07070750743150711,-0.2651103138923645,0.24489770829677582,0.010468359105288982,0.10268803685903549,-0.05775494873523712,0.03635798394680023,-0.5910193920135498,1.6560572385787964,-0.4194565415382385,-0.05051775276660919,0.006221268326044083,-0.6871080994606018,1.7028069496154785,-0.3317074179649353,-0.5635484457015991,-0.22708967328071594,1.0917226076126099,0.01929662749171257,-4.153060436248779,-0.2740733027458191,-0.2680072784423828,-1.6335917711257935,1.2007217407226562,8.238243103027344,-0.28043198585510254,-13.292675018310547,-23.484912872314453,-41.490238189697266,3.784334182739258,-2.603576421737671,6.254426956176758,17.996158599853516,-29.858489990234375,30.0
0.88,0.0,0.0,0.0,0.03743288666009903,-0.025063395500183105,0.7085210680961609,0.11810164898633957,-0.0408913753926754,-0.25953543186187744,0.1769685596227646,-0.18214985728263855,-0.003191425697878003,-0.06495227664709091,0.031298454850912094,-0.5827496647834778,1.6688848733901978,-0.459928959608078,-0.05067459121346474,-0.003973970655351877,-0.7027286291122437,1.7043884992599487,-0.38790926337242126,-0.16826504468917847,-0.23426266014575958,0.3354737162590027,0.5453908443450928,-0.49514782428741455,-0.04726983606815338,-0.4554479122161865,-0.11553771048784256,0.48214611411094666,-0.11850839853286743,-1.5318537950515747,-10.156000137329102,-5.0706987380981445,-59.20243835449219,30.0,-0.4012242555618286,-7.437361717224121,-0.36806273460388184,-8.797952651977539,-0.6069889068603516
0.9,0.0,0.0,0.0,0.04018693417310715,-0.025609422475099564,0.7028456330299377,0.1342935413122177,-0.009826167486608028,-0.2807776927947998,-0.18605734407901764,0.01162470132112503,0.010034661740064621,-0.07029381394386292,0.031524572521448135,-0.605490505695343,1.7076432704925537,-0.42003270983695984,-0.051306869834661484,-0.009196930564939976,-0.69289630651474,1.6730724573135376,-0.5526092052459717,-0.20766910910606384,0.23764733970165253,-1.6932848691940308,2.103928565979004,4.238711357116699,-0.05113500356674194,-0.08678451180458069,1.0857516527175903,-1.3702733516693115,-8.009111404418945,-2.1380867958068848,7.956335544586182,-0.5040421485900879,-38.12117004394531,30.0,-0.947209358215332,-2.0222043991088867,-8.810303688049316,-26.108572006225586,-5.137958526611328
0.92,0.0,0.0,0.0,0.04263794422149658,-0.026514967903494835,0.6969305276870728,0.10903923213481903,-0.01254778727889061,-0.26582062244415283,-0.3645424544811249,0.0021928115747869015,0.008263079449534416,-0.07885301858186722,0.03910023719072342,-0.6755871176719666,1.7759766578674316,-0.25738096237182617,-0.05712733045220375,-0.0010783326579257846,-0.6886317729949951,1.6870590448379517,-0.6019328832626343,-0.5423484444618225,0.47500288486480713,-4.6865410804748535,2.9953866004943848,13.87682819366455,-0.2660236358642578,0.5172553658485413,0.05306030437350273,0.7297484874725342,-1.0495216846466064,-2.8908474445343018,8.359623908996582,-4.219959259033203,-24.286487579345703,30.0,-2.255380630493164,7.826408863067627,10.791162490844727,-42.453651428222656,30.0
0.9400000000000001,0.0,0.0,0.0,0.04522081837058067,-0.02709842473268509,0.6918644309043884,0.10721097886562347,-0.0255687665194273,-0.22349436581134796,0.18793243169784546,-0.1740313172340393,0.035439617931842804,-0.07022113353013992,0.011631452478468418,-0.7394053339958191,1.786877989768982,-0.7429165244102478,-0.050619132816791534,0.0006795595400035381,-0.7006863355636597,1.7168742418289185,-0.5832613706588745,1.0682413578033447,-2.865532875061035,-2.4016287326812744,-3.1053717136383057,-24.20722198486328,0.4474802315235138,-0.32972967624664307,-0.7529926896095276,1.5013432502746582,5.296584606170654,-3.6679000854492188,-38.21540832519531,-10.004056930541992,-33.368072509765625,-2.2805404663085938,5.352469444274902,32.867496490478516,2.749619960784912,-45.850738525390625,30.0
0.96,0.0,0.0,0.0,0.04804438352584839,-0.027649199590086937,0.6889135837554932,0.09731531888246536,-0.04146776348352432,-0.03526069223880768,-0.060197167098522186,-0.4849608540534973,-0.045380834490060806,-0.07142040878534317,-0.014330421574413776,-0.7374109625816345,1.6849833726882935,-0.6258741021156311,-0.03645949065685272,-0.0006050974479876459,-0.7244716286659241,1.7566959857940674,-0.5054605007171631,-0.4990997910499573,0.2510882616043091,1.9613960981369019,-1.0478301048278809,-2.6223106384277344,0.8756687641143799,0.1582634150981903,-1.123339056968689,1.5713932514190674,5.711730480194092,9.306385040283203,-14.286394119262695,-12.506060600280762,-123.44622039794922,30.0,6.355777740478516,-7.77126932144165,0.5995960235595703,-53.65867614746094,30.0
0.98,0.0,0.0,0.0,0.05088450014591217,-0.028325319290161133,0.6899119019508362,0.10073547065258026,-0.040677085518836975,0.15186472237110138,0.07187824696302414,-0.3999592661857605,0.05294490233063698,-0.07810403406620026,-0.014295710250735283,-0.7033724784851074,1.6648762226104736,-0.6680642366409302,-0.03231581673026085,-0.00033345381962135434,-0.7428380250930786,1.7811951637268066,-0.4090118110179901,-0.2957652509212494,0.06343837827444077,2.011868476867676,-1.6859188079833984,-4.2460479736328125,-0.21223735809326172,-0.048932332545518875,-0.8182998299598694,0.7049490809440613,5.2468695640563965,-3.0765624046325684,-18.119787216186523,-12.475685119628906,-82.44771575927734,30.0,-2.9235122203826904,3.4685850143432617,-1.1180458068847656,-63.66570281982422,30.0
1.0,0.0,0.0,0.0,0.053550660610198975,-0.02889602817595005,0.6936519742012024,0.11970187723636627,-0.02320171892642975,0.2392498105764389,-0.08958777785301208,-0.231058731675148,-0.015350108034908772,-0.08359935134649277,-0.013693328946828842,-0.6781582236289978,1.6449182033538818,-0.6771403551101685,-0.03584529459476471,0.0017366028623655438,-0.7306926250457764,1.7650845050811768,-0.4048535227775574,-0.304398775100708,0.08360256999731064,1.1339138746261597,-1.1906301975250244,0.4573615789413452,-0.038734059780836105,0.04797796905040741,1.6475987434387207,-1.3833906650543213,-1.5300086736679077,-4.158144950866699,-15.59669303894043,-6.901910305023193,-60.033714294433594,30.0,-0.4514783024787903,13.045391082763672,-10.844415664672852,-52.637264251708984,-0.5077009201049805
1.02,0.0,0.0,0.0,0.05585877597332001,-0.02939457818865776,0.6982064843177795,0.11942984163761139,-0.021374396979808807,0.24690568447113037,-0.03754032030701637,-0.007041324395686388,-0.01567813754081726,-0.08656392991542816,-0.011563234031200409,-0.6820912957191467,1.6460413932800293,-0.6234444975852966,-0.03695150092244148,0.003917539492249489,-0.6986969709396362,1.734900951385498,-0.4476897120475769,-0.13808876276016235,0.06161739304661751,-0.6237173080444336,0.24768342077732086,4.24626350402832,-0.029115665704011917,0.07901141047477722,1.6353042125701904,-1.7196904420852661,-2.2200875282287598,-1.5130587816238403,-8.529844284057617,2.1794118881225586,-42.00307083129883,30.0,-0.5320223569869995,-3.9748153686523438,-10.456817626953125,-35.02006912231445,25.242897033691406
1.04,0.0,0.0,0.0,0.05767807364463806,-0.029834499582648277,0.7032788991928101,0.09641548246145248,-0.016465598717331886,0.2953788936138153,-0.10833775997161865,0.006051763892173767,-0.06092417612671852,-0.08772557228803635,-0.008936788886785507,-0.7098619341850281,1.663981556892395,-0.5119184255599976,-0.035131100565195084,0.0065040597692132,-0.6780756711959839,1.708626627922058,-0.46541789174079895,-0.032039824873209,0.1763124167919159,-1.8015741109848022,0.9937966465950012,7.456210136413574,0.1092352420091629,0.16881248354911804,0.728114128112793,-1.38912034034729,0.7994599342346191,-0.7454237341880798,-4.600164413452148,2.28231143951416,-47.22409439086914,30.0,0.6963313817977905,-1.2111510038375854,-1.9612393379211426,-37.446495056152344,30.0
1.06,0.0,0.0,0.0,0.05950994789600372,-0.0302096176892519,0.709887683391571,0.10134480148553848,-0.03378119692206383,0.38593554496765137,0.10050630569458008,-0.12589611113071442,-0.004977760836482048,-0.08843425661325455,-0.008322604931890965,-0.7094383835792542,1.6516975164413452,-0.45521581172943115,-0.034619253128767014,0.007283634040504694,-0.6622599363327026,1.6847729682922363,-0.4479195475578308,-0.003973492421209812,-0.09943302720785141,1.0932964086532593,-1.5116273164749146,0.5683069229125977,-0.0028031114488840103,-0.10877977311611176,0.6814805269241333,-1.4072319269180298,1.8496438264846802,-0.5074729919433594,-12.760578155517578,-9.44179916381836,-55.81132507324219,18.592214584350586,2.1521480083465576,5.215368747711182,-2.2745001316070557,-54.04978942871094,30.0
1.08,0.0,0.0,0.0,0.06142883747816086,-0.030495278537273407,0.7175760865211487,0.10031752288341522,-0.025457818061113358,0.40842920541763306,0.038040291517972946,-0.161159947514534,-0.05333617702126503,-0.0888141468167305,-0.009812810458242893,-0.6842043995857239,1.6190913915634155,-0.4527791142463684,-0.035893604159355164,0.005947032943367958,-0.6365953087806702,1.6501109600067139,-0.4440692067146301,-0.0001611141487956047,-0.01619936339557171,1.304153323173523,-1.77979576587677,0.2691625654697418,-0.05501579865813255,-0.02752506546676159,1.5869801044464111,-2.072875738143921,-0.47157153487205505,-1.4994043111801147,-6.358920574188232,-5.53985595703125,-49.11489486694336,30.0,-0.5023407936096191,0.7501204013824463,-2.1409754753112793,-33.29487609863281,29.527273178100586
1.1,0.0,0.0,0.0,0.063189297914505,-0.030737148597836494,0.7248346209526062,0.09773090481758118,-0.021315796300768852,0.35122108459472656,0.04165855050086975,-0.05534549802541733,-0.029807105660438538,-0.08899528533220291,-0.010552139021456242,-0.6617859601974487,1.5874133110046387,-0.449390172958374,-0.0360269770026207,0.005254068411886692,-0.6074346899986267,1.611448049545288,-0.45729905366897583,0.009349614381790161,-0.030277932062745094,0.9828698039054871,-1.5097813606262207,0.35375621914863586,0.049896594136953354,-0.03230071812868118,1.344385027885437,-1.9737980365753174,-0.38327348232269287,-1.3489360809326172,-3.8953654766082764,-2.9855995178222656,-31.63439178466797,30.0,-0.7325165271759033,-2.1177332401275635,-2.3513970375061035,-20.206716537475586,27.57422637939453
1.12,0.0,0.0,0.0,0.06474970281124115,-0.030960477888584137,0.730715274810791,0.09185969084501266,-0.025072434917092323,0.27355819940567017,0.09524212032556534,0.01315274927765131,-0.012747288681566715,-0.08883870393037796,-0.01176335196942091,-0.6413812041282654,1.558262586593628,-0.4562581181526184,-0.03359868749976158,0.004126068204641342,-0.5873655676841736,1.5811444520950317,-0.4617498815059662,-0.0290844663977623,-0.09151632338762283,1.009019136428833,-1.4395843744277954,-0.5767558813095093,0.08675360679626465,-0.09420109540224075,0.7636601328849792,-1.4589897394180298,0.5991032719612122,-0.4127506613731384,-3.9251184463500977,-3.402470588684082,-22.089603424072266,25.797161102294922,0.1438038945198059,1.7863692045211792,-0.45826244354248047,-20.35763931274414,30.0
1.1400000000000001,0.0,0.0,0.0,0.06615909188985825,-0.031225699931383133,0.7352888584136963,0.0815797671675682,-0.024072909727692604,0.2207619696855545,0.05443231761455536,0.01045849360525608,-0.04206272214651108,-0.08933891355991364,-0.012966340407729149,-0.6227718591690063,1.5323842763900757,-0.4699423313140869,-0.03281179443001747,0.0029438950587064028,-0.5746886730194092,1.5597529411315918,-0.45736557245254517,-0.0009781094267964363,-0.03838177025318146,0.8592855334281921,-1.2627296447753906,-0.42016085982322693,0.002057406585663557,-0.06483205407857895,0.5398513674736023,-1.0744394063949585,0.6588255167007446,-0.4716888964176178,-4.230210781097412,-1.1036710739135742,-23.88875961303711,30.0,1.2097752094268799,5.714643478393555,-1.5560343265533447,-24.88983154296875,30.0
1.16,0.0,0.0,0.0,0.06741777062416077,-0.031595379114151,0.7391886711120605,0.07106945663690567,-0.024023570120334625,0.20565378665924072,0.002059555845335126,-0.003594623878598213,-0.03770744428038597,-0.08977044373750687,-0.012962877750396729,-0.6086381077766418,1.511636734008789,-0.47541093826293945,-0.032856687903404236,0.0028879274614155293,-0.5652287006378174,1.543215036392212,-0.4495234787464142,0.004664918407797813,0.02911999262869358,0.6052870154380798,-1.029759407043457,0.31845301389694214,0.04293787479400635,0.011209223419427872,0.43058156967163086,-0.8657246232032776,0.675715982913971,-1.1624116897583008,-5.422090530395508,1.0320520401000977,-28.7398738861084,30.0,0.7507705092430115,5.970397472381592,-4.212693214416504,-31.698829650878906,30.0
1.18,0.0,0.0,0.0,0.06855183094739914,-0.032064907252788544,0.7431208491325378,0.06498222053050995,-0.02561255916953087,0.22200164198875427,-0.023386478424072266,-0.019482431933283806,-0.03746797889471054,-0.09053252637386322,-0.011982112191617489,-0.5970357656478882,1.4932979345321655,-0.47175833582878113,-0.03233879804611206,0.003882108023390174,-0.5556347966194153,1.5268992185592651,-0.4413289725780487,-0.017971046268939972,0.06731293350458145,0.5439862012863159,-0.957808792591095,0.5170019865036011,0.04228536784648895,0.042879171669483185,0.5043560266494751,-0.9420022964477539,0.6368876099586487,-0.8796194791793823,-6.526533126831055,-0.3473994731903076,-35.02595520019531,30.0,0.43970638513565063,5.639652729034424,-4.944761276245117,-36.77233123779297,30.0
1.2,0.0,0.0,0.0,0.06960193067789078,-0.03258725628256798,0.7474404573440552,0.06129056215286255,-0.027674781158566475,0.24357399344444275,-0.021436994895339012,-0.033072952181100845,-0.022586878389120102,-0.08989152312278748,-0.010717486962676048,-0.5847840309143066,1.4736639261245728,-0.4652990400791168,-0.03217829018831253,0.005160479340702295,-0.5437216758728027,1.5076770782470703,-0.43529418110847473,0.07078072428703308,0.06414397060871124,0.6247482299804688,-1.0531952381134033,0.4680574834346771,0.022604798898100853,0.06480688601732254,0.6322711110115051,-1.114995002746582,0.48281344771385193,-1.30600106716156,-7.735424518585205,-1.6194095611572266,-38.3681526184082,30.0,0.23998098075389862,3.6100635528564453,-4.783038139343262,-35.273460388183594,30.0
1.22,0.0,0.0,0.0,0.07056811451911926,-0.03310350701212883,0.752002477645874,0.058980416506528854,-0.027019213885068893,0.2474747896194458,-0.010715209878981113,-0.016868211328983307,-0.026235811412334442,-0.0886029601097107,-0.009619834832847118,-0.5717366337776184,1.4523969888687134,-0.4593909680843353,-0.03151915594935417,0.006311242934316397,-0.5295302271842957,1.4851086139678955,-0.43351128697395325,0.038340192288160324,0.050904083997011185,0.637373685836792,-1.1147019863128662,0.41786080598831177,0.034775055944919586,0.051600899547338486,0.7356758117675781,-1.2752764225006104,0.24269521236419678,-0.9952394962310791,-7.436725616455078,-3.148836612701416,-37.84938049316406,30.0,0.1639321744441986,1.5477685928344727,-3.543537139892578,-29.60134506225586,30.0
1.24,0.0,0.0,0.0,0.07143625617027283,-0.03356214240193367,0.7563835382461548,0.056213732808828354,-0.026470813900232315,0.22767373919487,0.020678458735346794,0.015281086787581444,-0.0284468624740839,-0.08813953399658203,-0.009045456536114216,-0.558371901512146,1.4302186965942383,-0.4577612280845642,-0.030979901552200317,0.0068809050135314465,-0.5151633024215698,1.461644172668457,-0.4346736669540405,0.009443407878279686,0.012427483685314655,0.6652560830116272,-1.162123441696167,0.09339861571788788,0.024277862161397934,0.010014285333454609,0.6888704299926758,-1.2980711460113525,0.27326303720474243,-0.6213128566741943,-7.412851333618164,-3.4012527465820312,-34.09501266479492,30.0,0.16812431812286377,0.6818529963493347,-2.8651838302612305,-24.37771224975586,30.0
1.26,0.0,0.0,0.0,0.07219251990318298,-0.03396264463663101,0.7602241635322571,0.05111505836248398,-0.025412730872631073,0.19560982286930084,0.03646319359540939,0.04020394757390022,-0.028126494958996773,-0.08820720762014389,-0.009021461941301823,-0.545195460319519,1.408276081085205,-0.46201762557029724,-0.03023921698331833,0.006858494598418474,-0.5027826428413391,1.440161943435669,-0.43624937534332275,0.0009354129433631897,-0.0066270832903683186,0.6427941918373108,-1.1175682544708252,-0.17280928790569305,0.030730362981557846,-0.00655122846364975,0.5639724731445312,-1.1774210929870605,0.3749316930770874,-0.4825587868690491,-7.127575874328613,-2.389376163482666,-30.59710121154785,30.0,0.23601457476615906,1.3101571798324585,-2.877563953399658,-22.079280853271484,30.0
1.28,0.0,0.0,0.0,0.07283226400613785,-0.03433823585510254,0.7634738683700562,0.04437994956970215,-0.02418394945561886,0.169615238904953,0.02978687174618244,0.04663529247045517,-0.0258641317486763,-0.08798827975988388,-0.009107580408453941,-0.5330031514167786,1.3878169059753418,-0.4691847860813141,-0.029173966497182846,0.0067317248322069645,-0.49302494525909424,1.4220101833343506,-0.43656212091445923,0.031132038682699203,0.0011476816143840551,0.5858043432235718,-1.029792070388794,-0.24065537750720978,0.044922836124897,-0.002788570476695895,0.4332236349582672,-0.9956692457199097,0.46634137630462646,-0.6537320613861084,-6.902425765991211,-1.373392105102539,-29.494260787963867,30.0,0.36424893140792847,2.4690396785736084,-3.279449224472046,-23.63295555114746,30.0
1.3,0.0,0.0,0.0,0.07336675375699997,-0.03471236303448677,0.766381025314331,0.03772315755486488,-0.022211721166968346,0.1612105518579483,0.017535734921693802,0.03678969666361809,-0.03074854426085949,-0.0880761444568634,-0.008967548608779907,-0.5219171047210693,1.3689395189285278,-0.47568631172180176,-0.027547046542167664,0.006854200270026922,-0.4849242568016052,1.4062741994857788,-0.43536290526390076,-0.040859028697013855,0.014587150886654854,0.5314590930938721,-0.975315272808075,-0.08032354712486267,0.07148344814777374,0.011413407512009144,0.3835054337978363,-0.9000333547592163,0.49499639868736267,-0.43575209379196167,-7.069132328033447,-1.079512357711792,-30.85565757751465,30.0,0.2899940609931946,3.264782667160034,-3.7643356323242188,-26.77552604675293,30.0
1.32,0.0,0.0,0.0,0.07382941991090775,-0.03505586087703705,0.7692908644676208,0.0331159308552742,-0.019291236996650696,0.16906554996967316,0.01184576004743576,0.01696496643126011,-0.036515526473522186,-0.08855123072862625,-0.008716452866792679,-0.5107241868972778,1.350020408630371,-0.480927437543869,-0.02703097090125084,0.007041255943477154,-0.47648707032203674,1.3905422687530518,-0.43379440903663635,0.014259002171456814,0.01609676703810692,0.5689054727554321,-1.0083143711090088,-0.08299151062965393,-0.008392744697630405,0.009090528823435307,0.4330767095088959,-0.9253414273262024,0.4299240708351135,-0.6204120516777039,-7.825491428375244,-1.0664572715759277,-33.06132507324219,30.0,0.45085832476615906,3.690516233444214,-4.68256950378418,-29.43425178527832,30.0
1.34,0.0,0.0,0.0,0.07422947138547897,-0.035331420600414276,0.7723848819732666,0.02976246178150177,-0.015604078769683838,0.17979007959365845,0.01603337936103344,0.011141111142933369,-0.02954947017133236,-0.08797602355480194,-0.008603403344750404,-0.49915745854377747,1.3303430080413818,-0.4848482608795166,-0.02709267847239971,0.007076401729136705,-0.4669325351715088,1.3733417987823486,-0.43298688530921936,0.05750422179698944,0.0049214051105082035,0.5801307559013367,-1.0618525743484497,0.01840681955218315,0.015032289549708366,-0.0008353863377124071,0.49085742235183716,-0.9976029992103577,0.32117903232574463,-1.0383909940719604,-8.251655578613281,-0.9205900430679321,-33.312950134277344,30.0,0.34544482827186584,3.161433219909668,-5.318288803100586,-29.481199264526367,30.0
1.36,0.0,0.0,0.0,0.0745677575469017,-0.03551938757300377,0.7756194472312927,0.027843594551086426,-0.012250952422618866,0.1837175339460373,0.030318502336740494,0.020068064332008362,-0.02410099096596241,-0.08682514727115631,-0.008826390840113163,-0.48719537258148193,1.3096332550048828,-0.48852410912513733,-0.026402276009321213,0.006809290498495102,-0.4560728967189789,1.354070782661438,-0.43448397517204285,0.014926571398973465,-0.01745164580643177,0.6021066308021545,-1.1454687118530273,0.04341825097799301,0.03814779967069626,-0.022071342915296555,0.5583537220954895,-1.105383038520813,0.156031534075737,-0.8544298410415649,-8.042598724365234,-1.540407419204712,-31.751087188720703,30.0,0.18404681980609894,3.081723928451538,-5.091094017028809,-28.393104553222656,30.0
1.3800000000000001,0.0,0.0,0.0,0.07484292984008789,-0.03561082482337952,0.7788199782371521,0.025425657629966736,-0.009640861302614212,0.1775859147310257,0.050485190004110336,0.02990492433309555,-0.033236101269721985,-0.08715373277664185,-0.009590494446456432,-0.4747876822948456,1.287810206413269,-0.49418607354164124,-0.02561720460653305,0.005993389058858156,-0.4445738196372986,1.3335011005401611,-0.43797895312309265,0.013240897096693516,-0.04793548211455345,0.6214732527732849,-1.1936997175216675,-0.043221451342105865,0.03277033194899559,-0.054003048688173294,0.5708491802215576,-1.1455541849136353,0.11199866235256195,-0.3018258213996887,-7.764118194580078,-1.5349156856536865,-29.188194274902344,30.0,0.2221226692199707,3.480983257293701,-4.724148273468018,-26.7725830078125,30.0
1.4000000000000001,0.0,0.0,0.0,0.07505291700363159,-0.03563074395060539,0.7818348407745361,0.022082608193159103,-0.0072618089616298676,0.16616620123386383,0.05737105384469032,0.03710130974650383,-0.023752741515636444,-0.08666491508483887,-0.010717560537159443,-0.4624238908290863,1.2657465934753418,-0.5015822052955627,-0.024803370237350464,0.004781038966029882,-0.4333552420139313,1.313007116317749,-0.44229257106781006,0.03961873799562454,-0.05791779235005379,0.602742075920105,-1.173662543296814,-0.1003875806927681,0.05776539444923401,-0.06293970346450806,0.5426377058029175,-1.1132564544677734,0.07655555009841919,-0.5484987497329712,-7.601848602294922,-0.5872464179992676,-26.90735626220703,30.0,0.1481836438179016,4.338046550750732,-5.165203094482422,-26.273094177246094,30.0
1.42,0.0,0.0,0.0,0.07519727200269699,-0.03560792654752731,0.784638524055481,0.01868334226310253,-0.005328741390258074,0.15698927640914917,0.056571878492832184,0.039745040237903595,-0.024644557386636734,-0.0858413577079773,-0.01195260789245367,-0.4507926106452942,1.2445573806762695,-0.5090999603271484,-0.023626090958714485,0.0034769277554005384,-0.42262959480285645,1.2930365800857544,-0.4471302628517151,0.039100710302591324,-0.05898219719529152,0.554180920124054,-1.092037558555603,-0.13428372144699097,0.03048773854970932,-0.06645804643630981,0.5257377624511719,-1.0904933214187622,0.06060732901096344,-0.38802239298820496,-6.985317707061768,-0.5579354763031006,-25.8049373626709,30.0,0.3555189371109009,5.268842697143555,-5.026284694671631,-26.98891258239746,30.0
1.44,0.0,0.0,0.0,0.07528862357139587,-0.035558752715587616,0.7873128652572632,0.015765327960252762,-0.004268825054168701,0.153042733669281,0.05745391547679901,0.0377633236348629,-0.03221307694911957,-0.08568363636732101,-0.013224977999925613,-0.43938714265823364,1.2237530946731567,-0.5173396468162537,-0.023012317717075348,0.0021139271557331085,-0.41225045919418335,1.2735346555709839,-0.45170000195503235,0.016390297561883926,-0.06223680078983307,0.5722650289535522,-1.1076561212539673,-0.21913741528987885,0.018266044557094574,-0.07117090374231339,0.506929874420166,-1.0669864416122437,0.0967402383685112,-0.12271609157323837,-6.99261474609375,-0.46897292137145996,-25.436677932739258,30.0,0.5227097272872925,6.058741092681885,-5.303033828735352,-27.942415237426758,30.0
1.46,0.0,0.0,0.0,0.07534344494342804,-0.035502344369888306,0.7899584174156189,0.013430442661046982,-0.0030242595821619034,0.1537964642047882,0.04675678908824921,0.03167368099093437,-0.02750171348452568,-0.0851699635386467,-0.014376805163919926,-0.4270631670951843,1.201650857925415,-0.5268969535827637,-0.02270173840224743,0.000851810909807682,-0.40165984630584717,1.2537941932678223,-0.4562765955924988,0.042891792953014374,-0.04961675778031349,0.6311938762664795,-1.19357430934906,-0.290082722902298,0.006773889996111393,-0.05930950865149498,0.5309441089630127,-1.0850963592529297,0.033557139337062836,-0.38686907291412354,-7.382225513458252,-0.005290031433105469,-25.11966896057129,30.0,0.5007092356681824,6.826008319854736,-6.024160861968994,-28.604053497314453,30.0
1.48,0.0,0.0,0.0,0.07535884529352188,-0.03544997796416283,0.7926267385482788,0.01145399734377861,-0.0020480002276599407,0.15539559721946716,0.037091415375471115,0.03336203098297119,-0.022010404616594315,-0.08464687317609787,-0.01528746448457241,-0.41395118832588196,1.1781202554702759,-0.5370121598243713,-0.021531661972403526,-0.00011999959679087624,-0.39044076204299927,1.2330060005187988,-0.4618617296218872,-0.0009536063298583031,-0.03832453861832619,0.6579129695892334,-1.2512918710708618,-0.2996131479740143,0.04124705120921135,-0.04388810321688652,0.5676205158233643,-1.1426502466201782,-0.04254596680402756,-0.23640048503875732,-7.491785049438477,-0.11298298835754395,-24.481971740722656,30.0,0.24634265899658203,7.002351760864258,-6.058004379272461,-28.35902976989746,30.0
1.5,0.0,0.0,0.0,0.07533831894397736,-0.03539728745818138,0.7953171730041504,0.009897005744278431,-0.001624796073883772,0.15606148540973663,0.0338878259062767,0.03497036546468735,-0.027987465262413025,-0.0841943696141243,-0.016054950654506683,-0.3999287784099579,1.1528631448745728,-0.548008143901825,-0.021053962409496307,-0.00098330806940794,-0.37833744287490845,1.2107999324798584,-0.46877607703208923,0.05207256227731705,-0.03361447900533676,0.7110056281089783,-1.3409411907196045,-0.4049196243286133,-0.00017019547522068024,-0.043774235993623734,0.6127141714096069,-1.2167935371398926,-0.1140301302075386,-0.2226979285478592,-7.793438911437988,-0.4465773105621338,-23.78321075439453,30.0,0.4749964475631714,7.326367378234863,-5.865640640258789,-27.658615112304688,30.0
1.52,0.0,0.0,0.0,0.07527023553848267,-0.03534349799156189,0.7979676723480225,0.007679160218685865,-0.0011785924434661865,0.15201090276241302,0.03239818662405014,0.043457623571157455,-0.028756121173501015,-0.08327300101518631,-0.0167482141405344,-0.38529279828071594,1.126106858253479,-0.5600585341453552,-0.020946575328707695,-0.0018096176208928227,-0.3658737540245056,1.1876589059829712,-0.4765767455101013,0.02658703178167343,-0.03109005279839039,0.729299783706665,-1.4005818367004395,-0.4445194602012634,-0.0023309187963604927,-0.04226284474134445,0.6160781383514404,-1.2430411577224731,-0.1491515189409256,-0.35593080520629883,-8.234761238098145,-0.19525599479675293,-22.399871826171875,30.0,0.552487313747406,7.507943630218506,-5.8767876625061035,-26.218460083007812,30.0
1.54,0.0,0.0,0.0,0.0751446783542633,-0.03529239818453789,0.8005039691925049,0.005185430403798819,-0.001028641825541854,0.1454564481973648,0.02717469073832035,0.054427385330200195,-0.023138729855418205,-0.08286396414041519,-0.017355559393763542,-0.3702779710292816,1.0980218648910522,-0.5729820132255554,-0.01961367018520832,-0.0024961812887340784,-0.35323381423950195,1.163819670677185,-0.48552021384239197,0.068253293633461,-0.018727850168943405,0.7065087556838989,-1.478933334350586,-0.1327846348285675,0.06888286024332047,-0.029496438801288605,0.625584602355957,-1.2716004848480225,-0.23720920085906982,-0.24852204322814941,-8.6433687210083,0.013593196868896484,-20.938827514648438,30.0,0.08097535371780396,8.174674987792969,-6.0328521728515625,-25.554912567138672,30.0
1.56,0.0,0.0,0.0,0.07496361434459686,-0.035245731472969055,0.8029167056083679,0.0026567899622023106,-0.0005479793180711567,0.13961488008499146,0.01838947832584381,0.05390075594186783,-0.037510816007852554,-0.08228661864995956,-0.017769653350114822,-0.35653209686279297,1.0707794427871704,-0.5821129083633423,-0.01899474300444126,-0.0030733600724488497,-0.339971661567688,1.1388185024261475,-0.49630317091941833,0.10496611893177032,0.004349038004875183,0.647862434387207,-1.3678877353668213,-0.20426353812217712,-0.030520467087626457,-0.02717778831720352,0.6762847304344177,-1.3443057537078857,-0.33824893832206726,-0.37081098556518555,-8.674072265625,-0.37352776527404785,-20.894168853759766,30.0,0.5346006155014038,8.680477142333984,-5.453731536865234,-24.714752197265625,30.0
1.58,0.0,0.0,0.0,0.07472799718379974,-0.03520055115222931,0.8051815032958984,-0.0004121597739867866,-0.001272736582905054,0.13170623779296875,0.026929311454296112,0.05793624743819237,-0.030380770564079285,-0.08186827600002289,-0.018224233761429787,-0.34387949109077454,1.0454010963439941,-0.5929550528526306,-0.018163468688726425,-0.003655489534139633,-0.327173113822937,1.1141947507858276,-0.5068637728691101,0.07400335371494293,-0.0165985319763422,0.6250758171081543,-1.3224644660949707,-0.2796657085418701,0.10840320587158203,-0.027669696137309074,0.5931953191757202,-1.2128725051879883,-0.31725573539733887,0.019883692264556885,-9.539131164550781,0.05660748481750488,-20.19062042236328,30.0,0.05774563550949097,9.04704475402832,-5.5732622146606445,-23.769912719726562,30.0
1.6,0.0,0.0,0.0,0.07446791231632233,-0.03517116606235504,0.8073234558105469,-0.0017874928889796138,-0.0017953376518562436,0.1267879158258438,0.022798247635364532,0.05245523154735565,-0.0390729196369648,-0.0814768373966217,-0.018657200038433075,-0.3300211727619171,1.0183219909667969,-0.6057660579681396,-0.01670113578438759,-0.004178129136562347,-0.314940482378006,1.0906850099563599,-0.5173370242118835,0.0581088662147522,-0.016267629340291023,0.7125170230865479,-1.4670394659042358,-0.5505088567733765,0.007626451551914215,-0.02795376069843769,0.5869258046150208,-1.1979354619979858,-0.2880570888519287,0.34504634141921997,-9.515338897705078,-0.9591600894927979,-19.750213623046875,30.0,0.22264313697814941,10.122573852539062,-5.095576286315918,-24.08542251586914,30.0
1.62,0.0,0.0,0.0,0.07418723404407501,-0.03516785427927971,0.8093196749687195,-0.0035473040770739317,-0.0022826427593827248,0.11740701645612717,0.012433664873242378,0.055533796548843384,-0.04237222298979759,-0.08103702962398529,-0.018886324018239975,-0.3147859275341034,0.988945722579956,-0.6211132407188416,-0.016463210806250572,-0.004578843712806702,-0.30328428745269775,1.0680276155471802,-0.5270310044288635,0.057492878288030624,-0.0003621000796556473,0.7723608016967773,-1.547463059425354,-0.7961868643760681,0.09779848903417587,-0.00819234549999237,0.5573146343231201,-1.1737359762191772,-0.2226121723651886,0.1710410714149475,-10.530746459960938,-0.2814955711364746,-18.16289520263672,30.0,0.01874852180480957,10.928833961486816,-5.662263870239258,-23.110570907592773,30.0
1.6400000000000001,0.0,0.0,0.0,0.07385791838169098,-0.035218335688114166,0.8113256096839905,-0.011411774903535843,0.004150965251028538,0.12576764822006226,-0.07947158813476562,-0.03642267733812332,-0.0169732216745615,-0.08031713962554932,-0.017770247533917427,-0.30775755643844604,0.9727715253829956,-0.6181958317756653,-0.0146329989656806,-0.0035139506217092276,-0.2908625900745392,1.0449726581573486,-0.5371769666671753,0.0419146791100502,0.10138381272554398,0.39040371775627136,-0.8070055246353149,0.5663955807685852,0.023358631879091263,0.09766317903995514,0.7080492973327637,-1.2375242710113525,-0.2873562276363373,0.4005655348300934,-11.296277046203613,2.3542816638946533,-20.923358917236328,30.0,-0.19126513600349426,11.290870666503906,-6.271882057189941,-22.304401397705078,30.0
1.6600000000000001,0.0,0.0,0.0,0.07355636358261108,-0.03525669500231743,0.8132704496383667,-0.006227269768714905,-0.003314367262646556,0.11354857683181763,0.02533404342830181,0.030010024085640907,-0.037037935107946396,-0.07973870635032654,-0.01706448569893837,-0.30304229259490967,0.9611138105392456,-0.6112101674079895,-0.01411569956690073,-0.0028854452539235353,-0.2796216309070587,1.0240252017974854,-0.5439311861991882,0.037260811775922775,-0.01842556521296501,0.2155875265598297,-0.6494833827018738,0.5418126583099365,0.012020327150821686,-0.029973631724715233,0.4839540421962738,-1.0517046451568604,0.05591884255409241,1.3859783411026,-11.704764366149902,-2.921832323074341,-20.559152603149414,30.0,0.22258076071739197,9.26266098022461,-4.952964782714844,-21.479398727416992,30.0
1.68,0.0,0.0,0.0,0.07325542718172073,-0.035256702452898026,0.8148607611656189,-0.006849105004221201,-0.004104395397007465,0.0911564752459526,0.038222432136535645,0.02340150810778141,-0.03153800591826439,-0.0790606439113617,-0.017619946971535683,-0.30037611722946167,0.9522227644920349,-0.6057054400444031,-0.012790719978511333,-0.003517715260386467,-0.2723766267299652,1.0083087682724,-0.546019434928894,0.025636140257120132,-0.03584730625152588,0.16093818843364716,-0.5157121419906616,0.4869247078895569,0.021275226026773453,-0.04876630753278732,0.30882856249809265,-0.7345736026763916,0.23680232465267181,1.5980197191238403,-12.034330368041992,-1.487655520439148,-20.29366111755371,28.444046020507812,-0.027639925479888916,10.710733413696289,-4.268403053283691,-17.96243667602539,30.0
1.7,0.0,0.0,0.0,0.07297953963279724,-0.035268764942884445,0.8159548044204712,-0.005639634560793638,-0.005394358653575182,0.06406331062316895,0.035057079046964645,0.03759341686964035,-0.039387330412864685,-0.07832897454500198,-0.01827341690659523,-0.2992161512374878,0.9464322328567505,-0.6018134355545044,-0.011954042129218578,-0.004278736654669046,-0.26799634099006653,0.9977445602416992,-0.5466067790985107,0.028517164289951324,-0.029528498649597168,0.0673755556344986,-0.350771427154541,0.40622201561927795,0.03509560972452164,-0.03796761855483055,0.17931272089481354,-0.5076947212219238,0.2053835541009903,1.6315557956695557,-10.93947696685791,-1.5124564170837402,-18.80422019958496,26.36861228942871,0.019679799675941467,11.535843849182129,-4.638183116912842,-18.52444839477539,30.0
1.72,0.0,0.0,0.0,0.07272692769765854,-0.035321805626153946,0.8165963888168335,-0.005766728427261114,-0.00678523862734437,0.04539784789085388,0.025613943114876747,0.03186895698308945,-0.0411769337952137,-0.07753332704305649,-0.018720028921961784,-0.29931455850601196,0.9432598352432251,-0.5994330048561096,-0.011003619991242886,-0.004825802985578775,-0.26628217101097107,0.9920027852058411,-0.54620760679245,0.028785398229956627,-0.016454419121146202,0.027848828583955765,-0.2429005652666092,0.33889240026474,0.029630767181515694,-0.024319536983966827,0.0486966036260128,-0.2596698999404907,0.30063340067863464,1.6127601861953735,-10.53503704071045,-0.8737858533859253,-18.653032302856445,28.047685623168945,0.09735038876533508,12.055482864379883,-4.88129997253418,-19.501399993896484,30.0
1.74,0.0,0.0,0.0,0.07252587378025055,-0.03542901575565338,0.8170349597930908,-0.004913575015962124,-0.0075895641930401325,0.04220021888613701,0.006602167151868343,0.011719850823283195,-0.0411241315305233,-0.07671108841896057,-0.018788911402225494,-0.29929739236831665,0.9409601092338562,-0.5976569056510925,-0.010199910029768944,-0.004969994071871042,-0.2658025920391083,0.9893159866333008,-0.5445712804794312,0.03441417217254639,0.007142290472984314,0.060889922082424164,-0.2373400628566742,0.2961106300354004,0.028864912688732147,0.0011561776045709848,0.021479647606611252,-0.15894974768161774,0.33623450994491577,1.4127378463745117,-10.594995498657227,-0.812476634979248,-19.988603591918945,30.0,0.1474185436964035,12.464359283447266,-5.454040050506592,-21.40987777709961,30.0
1.76,0.0,0.0,0.0,0.07239364832639694,-0.03558524698019028,0.8175132274627686,-0.0031833830289542675,-0.007949057966470718,0.04826267808675766,-0.008290717378258705,-0.007902351208031178,-0.039216503500938416,-0.07590103894472122,-0.018446072936058044,-0.2983231544494629,0.9380439519882202,-0.5958257913589478,-0.009438800625503063,-0.0046642739325761795,-0.2654015123844147,0.9876617193222046,-0.541682243347168,0.03765581548213959,0.02527664415538311,0.11923813819885254,-0.29478123784065247,0.3162815570831299,0.02668747864663601,0.02082376927137375,0.027822421863675117,-0.13356207311153412,0.40821731090545654,1.2688026428222656,-10.959493637084961,-1.1666505336761475,-21.36676788330078,30.0,0.12131687998771667,12.041183471679688,-5.560885906219482,-22.006938934326172,30.0
1.78,0.0,0.0,0.0,0.07232696563005447,-0.035767532885074615,0.8181012272834778,-0.0009128137608058751,-0.007791830226778984,0.05289923772215843,-0.01553589291870594,-0.017260156571865082,-0.03763391450047493,-0.07511571794748306,-0.017856383696198463,-0.2964477241039276,0.9342109560966492,-0.5936905741691589,-0.008779366500675678,-0.004089072812348604,-0.2648438811302185,0.9862498641014099,-0.5376127362251282,0.03981706127524376,0.03380216658115387,0.15509675443172455,-0.33603528141975403,0.33145689964294434,0.025619659572839737,0.029981238767504692,0.03493109717965126,-0.12860704958438873,0.45359426736831665,1.165747880935669,-11.425922393798828,-1.5704113245010376,-21.881471633911133,30.0,0.062392041087150574,11.238481521606445,-5.3899712562561035,-21.264415740966797,30.0
1.8,0.0,0.0,0.0,0.07230567187070847,-0.035949353128671646,0.8186882138252258,0.0011454218765720725,-0.007604436483234167,0.048655275255441666,-0.01141857448965311,-0.012981345877051353,-0.03682929649949074,-0.07435102760791779,-0.017255913466215134,-0.29447299242019653,0.9303357601165771,-0.5915263295173645,-0.008160450495779514,-0.0034985067322850227,-0.26460063457489014,0.9854217171669006,-0.5328910946846008,0.04071754962205887,0.02835715375840664,0.13949793577194214,-0.30841296911239624,0.31467220187187195,0.026139453053474426,0.024444863200187683,0.007428954355418682,-0.08592713624238968,0.4724780321121216,1.1179031133651733,-11.665435791015625,-1.726794719696045,-21.218326568603516,30.0,-0.009316675364971161,10.43373966217041,-5.108734130859375,-19.917654037475586,30.0
1.82,0.0,0.0,0.0,0.07230619341135025,-0.03611333668231964,0.8191031813621521,0.0024353330954909325,-0.007662070915102959,0.03627518191933632,-0.0004911181167699397,-0.0019936778116971254,-0.03722863271832466,-0.07358932495117188,-0.01685306429862976,-0.29327937960624695,0.9276838898658752,-0.5899884104728699,-0.007503358181566,-0.003113306825980544,-0.26531368494033813,0.9860323667526245,-0.5280876755714417,0.0407322533428669,0.014777669683098793,0.08530795574188232,-0.22100040316581726,0.2696545720100403,0.027413154020905495,0.01035342738032341,-0.049326758831739426,0.0009536165744066238,0.46507883071899414,1.1016796827316284,-11.518245697021484,-1.5570400953292847,-19.993942260742188,30.0,-0.05785486847162247,10.073741912841797,-4.940532207489014,-19.089208602905273,30.0
1.84,0.0,0.0,0.0,0.07231602817773819,-0.03625844419002533,0.8192537426948547,0.0029680447187274694,-0.007927251048386097,0.022363990545272827,0.009285845793783665,0.006163042038679123,-0.038566265255212784,-0.07281119376420975,-0.016702555119991302,-0.2931886911392212,0.9268695712089539,-0.5894126892089844,-0.006786387413740158,-0.0029879948124289513,-0.267174631357193,0.9884923100471497,-0.5235852003097534,0.04122813045978546,0.0026979842223227024,0.029545338824391365,-0.12409350275993347,0.2199842929840088,0.028823014348745346,-0.0020347130484879017,-0.10539846867322922,0.09499732404947281,0.4463781714439392,1.0693180561065674,-11.105690002441406,-1.2125341892242432,-19.03026008605957,30.0,-0.07427281141281128,10.227408409118652,-5.0089945793151855,-19.353261947631836,30.0
1.86,0.0,0.0,0.0,0.07233642041683197,-0.036394938826560974,0.8191831111907959,0.003141904715448618,-0.008164397440850735,0.013760664500296116,0.01281790528446436,0.005954268854111433,-0.03978579491376877,-0.0720059722661972,-0.016707856208086014,-0.2938512861728668,0.9275332093238831,-0.5896505117416382,-0.006032148841768503,-0.0030182204209268093,-0.26979753375053406,0.9924100041389465,-0.5194457173347473,0.042904939502477646,-0.0018733871402218938,0.003729894757270813,-0.06727603077888489,0.19001035392284393,0.03026936948299408,-0.006366522051393986,-0.13367468118667603,0.15420177578926086,0.4333985447883606,0.9997134208679199,-10.699050903320312,-0.9180413484573364,-18.789257049560547,30.0,-0.07775802165269852,10.61207103729248,-5.248659133911133,-20.455379486083984,30.0
1.8800000000000001,0.0,0.0,0.0,0.0723758190870285,-0.03653328865766525,0.819024920463562,0.0034186288248747587,-0.008143853396177292,0.012919751927256584,0.010403167456388474,-0.0010708635672926903,-0.04017278179526329,-0.07118025422096252,-0.016726095229387283,-0.2945983409881592,0.9287095665931702,-0.5902242660522461,-0.005277211312204599,-0.003051488194614649,-0.27251651883125305,0.996853232383728,-0.5155016183853149,0.04518492892384529,0.0005473524797707796,0.01365729607641697,-0.06608129292726517,0.1873895227909088,0.03134264424443245,-0.003285514423623681,-0.12701332569122314,0.1602984070777893,0.4312959909439087,0.9000734090805054,-10.486790657043457,-0.8302237391471863,-19.156909942626953,30.0,-0.09066015481948853,10.869755744934082,-5.487194061279297,-21.663436889648438,30.0
1.9000000000000001,0.0,0.0,0.0,0.07243985682725906,-0.03667617216706276,0.8189053535461426,0.004025740548968315,-0.007804974913597107,0.0170876607298851,0.006036445964127779,-0.008759116753935814,-0.039780426770448685,-0.070350781083107,-0.016672495752573013,-0.2949363887310028,0.9295415282249451,-0.5906857848167419,-0.004544578026980162,-0.0029992240015417337,-0.27479320764541626,1.0009105205535889,-0.5116238594055176,0.04792889952659607,0.005201415624469519,0.040653519332408905,-0.09845615923404694,0.2011658251285553,0.03221232071518898,0.0019662457052618265,-0.09822660684585571,0.12429393827915192,0.4340377151966095,0.7968926429748535,-10.4741849899292,-0.9285465478897095,-19.623258590698242,30.0,-0.1257960945367813,10.822603225708008,-5.597483158111572,-22.33791160583496,30.0
1.92,0.0,0.0,0.0,0.07252579182386398,-0.036817777901887894,0.8188685774803162,0.004849613178521395,-0.007282646372914314,0.021103059872984886,0.004102993290871382,-0.011457866989076138,-0.039022039622068405,-0.06952539086341858,-0.016559405252337456,-0.2948351502418518,0.929787814617157,-0.5908740162849426,-0.003825949504971504,-0.002879098057746887,-0.2764540910720825,1.0041166543960571,-0.5079183578491211,0.04898349940776825,0.006832447834312916,0.058964334428310394,-0.12681236863136292,0.21425187587738037,0.03343098610639572,0.0038478542119264603,-0.06979205459356308,0.08218476921319962,0.41516217589378357,0.720934271812439,-10.532115936279297,-1.0745941400527954,-19.718900680541992,30.0,-0.17923647165298462,10.541338920593262,-5.553006172180176,-22.322301864624023,30.0
1.94,0.0,0.0,0.0,0.07262388616800308,-0.03694913163781166,0.8188737034797668,0.0055667804554104805,-0.0067978729493916035,0.02148999460041523,0.006437878590077162,-0.008432290516793728,-0.03845036029815674,-0.06871148943901062,-0.01646915078163147,-0.2946222126483917,0.9297868609428406,-0.5909249782562256,-0.0030964927282184362,-0.002781517803668976,-0.2777007520198822,1.0066070556640625,-0.5046087503433228,0.048890240490436554,0.0033454368822276592,0.056016989052295685,-0.1273488998413086,0.214366152882576,0.03445812314748764,0.0002018155064433813,-0.05582656338810921,0.05678945779800415,0.38247281312942505,0.6856259703636169,-10.519621849060059,-1.1405937671661377,-19.363996505737305,30.0,-0.2338983416557312,10.25265121459961,-5.422181606292725,-21.94729232788086,30.0
1.96,0.0,0.0,0.0,0.07272352278232574,-0.037064727395772934,0.8188460469245911,0.005927897524088621,-0.006481772288680077,0.0181380994617939,0.01142117939889431,-0.0024561823811382055,-0.0383586511015892,-0.06790235638618469,-0.016480473801493645,-0.29467490315437317,0.9300746321678162,-0.5911046266555786,-0.0023397973272949457,-0.0027903541922569275,-0.2788618803024292,1.0088310241699219,-0.5018678903579712,0.04802030324935913,-0.0032048174180090427,0.035781651735305786,-0.10104866325855255,0.20185734331607819,0.035600271075963974,-0.006697928532958031,-0.05857829004526138,0.05720716714859009,0.3435480296611786,0.681132972240448,-10.368720054626465,-1.0935170650482178,-18.791166305541992,30.0,-0.2751927971839905,10.143585205078125,-5.302053451538086,-21.679126739501953,30.0
1.98,0.0,0.0,0.0,0.07281869649887085,-0.037165649235248566,0.818738579750061,0.005910494830459356,-0.006302765104919672,0.013642561621963978,0.01558199618011713,0.0021897812839597464,-0.038626085966825485,-0.0670924112200737,-0.016607141122221947,-0.2951558828353882,0.9309574365615845,-0.5915583968162537,-0.0015560833271592855,-0.0029206948820501566,-0.2801383137702942,1.0111571550369263,-0.4997258186340332,0.04769366979598999,-0.008662328124046326,0.014001710340380669,-0.0682351216673851,0.18635162711143494,0.036369673907756805,-0.012355050072073936,-0.0679890513420105,0.07426398992538452,0.30179914832115173,0.6802331209182739,-10.122326850891113,-0.9843645691871643,-18.349117279052734,30.0,-0.29835987091064453,10.249138832092285,-5.254584312438965,-21.813615798950195,30.0
2.0,0.0,0.0,0.0,0.07290948182344437,-0.03725789114832878,0.8185603618621826,0.005696385633200407,-0.0061371466144919395,0.010987550020217896,0.016538502648472786,0.003168604802340269,-0.03887103125452995,-0.0662761777639389,-0.016797900199890137,-0.29592835903167725,0.9323205351829529,-0.5922727584838867,-0.0007576599018648267,-0.0031171110458672047,-0.2814982831478119,1.0136405229568481,-0.498051255941391,0.04760126769542694,-0.010158953256905079,0.003982611000537872,-0.0502437949180603,0.1776054948568344,0.03688078746199608,-0.013789685443043709,-0.07229692488908768,0.0909324362874031,0.2595493793487549,0.6615884304046631,-9.886530876159668,-0.9045505523681641,-18.24140739440918,30.0,-0.31177741289138794,10.45144271850586,-5.274483680725098,-22.3112735748291,30.0
2.02,0.0,0.0,0.0,0.072999969124794,-0.03734753653407097,0.8183638453483582,0.005524902604520321,-0.005864028353244066,0.01155790314078331,0.014271395280957222,0.0007346200873143971,-0.038807064294815063,-0.0654589831829071,-0.01697561889886856,-0.29670748114585876,0.9337745904922485,-0.59304279088974,3.4568351111374795e-05,-0.0032987126614898443,-0.2827441394329071,1.0160431861877441,-0.4966649115085602,0.048201024532318115,-0.007794026285409927,0.010002557188272476,-0.056030359119176865,0.18054239451885223,0.03677953779697418,-0.011165477335453033,-0.06326691061258316,0.08880268782377243,0.22455330193042755,0.624965488910675,-9.747675895690918,-0.9148439168930054,-18.4378604888916,30.0,-0.3265969157218933,10.600948333740234,-5.309936046600342,-22.88986587524414,30.0
2.04,0.0,0.0,0.0,0.07309367507696152,-0.037437040358781815,0.8182026147842407,0.005562371574342251,-0.005441548768430948,0.014250115491449833,0.010598141700029373,-0.00174818467348814,-0.03831878677010536,-0.06464571505784988,-0.01708986982703209,-0.2972710430622101,0.9349468350410461,-0.5936859250068665,0.0008084899163804948,-0.003412916325032711,-0.2836303412914276,1.01797354221344,-0.49556267261505127,0.04861217737197876,-0.0037254379130899906,0.02326296456158161,-0.07640530169010162,0.19031289219856262,0.036931879818439484,-0.00693358201533556,-0.04032483696937561,0.05410045385360718,0.2099558413028717,0.5808114409446716,-9.715166091918945,-1.0098414421081543,-18.70249366760254,30.0,-0.3513850271701813,10.607246398925781,-5.328140735626221,-23.14811134338379,30.0
2.06,0.0,0.0,0.0,0.07318946719169617,-0.03752422705292702,0.8180947303771973,0.005686149001121521,-0.00505398865789175,0.016888946294784546,0.009156704880297184,-0.002031909069046378,-0.03758850321173668,-0.06384411454200745,-0.01715191639959812,-0.2976222634315491,0.9357479214668274,-0.5941310524940491,0.0015775264473631978,-0.003472954733297229,-0.28409451246261597,1.0192397832870483,-0.4947938919067383,0.048600807785987854,-0.002323143184185028,0.03222430869936943,-0.09420373290777206,0.1994941383600235,0.03741932287812233,-0.00560043565928936,-0.020198460668325424,0.01742631010711193,0.20055608451366425,0.5551306009292603,-9.724538803100586,-1.1366820335388184,-18.793832778930664,30.0,-0.3824954628944397,10.506847381591797,-5.244320392608643,-23.07678985595703,30.0
2.08,0.0,0.0,0.0,0.0732840970158577,-0.03760560601949692,0.8180249333381653,0.005771798547357321,-0.004720028955489397,0.018159853294491768,0.009448152035474777,-0.000739490264095366,-0.03709372133016586,-0.0630539059638977,-0.01720922812819481,-0.2978810667991638,0.9363116025924683,-0.5944367051124573,0.0023429361172020435,-0.003529899986460805,-0.2842426002025604,1.0199376344680786,-0.49435731768608093,0.04816318303346634,-0.003047187114134431,0.03401784226298332,-0.10163328051567078,0.20352667570114136,0.036005280911922455,-0.0063710082322359085,-0.0063452525064349174,-0.008164972066879272,0.19226303696632385,0.5484999418258667,-9.705280303955078,-1.237973690032959,-18.73404884338379,30.0,-0.40193867683410645,10.438119888305664,-5.116153240203857,-22.86840057373047,30.0
2.1,0.0,0.0,0.0,0.07337436079978943,-0.03767949715256691,0.8179634213447571,0.0057256873697042465,-0.004480733070522547,0.017865058034658432,0.01081584207713604,0.0015435434179380536,-0.036664873361587524,-0.062272511422634125,-0.017293240875005722,-0.29819077253341675,0.9368530511856079,-0.5947068333625793,0.0031071840785443783,-0.0036161828320473433,-0.28424736857414246,1.020324468612671,-0.4942188560962677,0.04707140102982521,-0.005032323766499758,0.02909749373793602,-0.09805984050035477,0.20271070301532745,0.03676578029990196,-0.008407010696828365,-0.0023691076785326004,-0.020280752331018448,0.18483276665210724,0.5502067804336548,-9.637215614318848,-1.289748191833496,-18.577329635620117,30.0,-0.42394548654556274,10.431750297546387,-4.996371746063232,-22.66664695739746,30.0
2.12,0.0,0.0,0.0,0.07345883548259735,-0.03774689510464668,0.8178887963294983,0.005568084307014942,-0.004308550152927637,0.01693933643400669,0.011759426444768906,0.0031829634681344032,-0.03644714504480362,-0.06149931252002716,-0.017408356070518494,-0.2986105978488922,0.9375025033950806,-0.5950226783752441,0.0038772583939135075,-0.0037363667506724596,-0.28422802686691284,1.0206139087677002,-0.49432438611984253,0.046214502304792404,-0.006427662912756205,0.023243224248290062,-0.09090515971183777,0.1998729109764099,0.03650728240609169,-0.009880445897579193,-0.0022137351334095,-0.023905355483293533,0.17909826338291168,0.5561928749084473,-9.532188415527344,-1.3242336511611938,-18.469905853271484,30.0,-0.43960627913475037,10.50777530670166,-4.905771732330322,-22.6193904876709,30.0
2.14,0.0,0.0,0.0,0.07353830337524414,-0.0378103069961071,0.8177996873855591,0.005355370230972767,-0.004168700892478228,0.016453851014375687,0.011639602482318878,0.003490718314424157,-0.03619897738099098,-0.06073133274912834,-0.017535820603370667,-0.2991054356098175,0.938247799873352,-0.5953801870346069,0.004642776679247618,-0.0038691365625709295,-0.28421837091445923,1.0209004878997803,-0.4945780634880066,0.046076126396656036,-0.006458254996687174,0.021086255088448524,-0.08765531331300735,0.19858220219612122,0.03643130511045456,-0.009908147156238556,-0.002730526030063629,-0.024529805406928062,0.17938509583473206,0.5534316897392273,-9.435370445251465,-1.362173318862915,-18.473360061645508,30.0,-0.4520877003669739,10.61320686340332,-4.844302177429199,-22.696422576904297,30.0
2.16,0.0,0.0,0.0,0.07361485064029694,-0.03787240386009216,0.8177117705345154,0.005181469023227692,-0.004005747847259045,0.016978168860077858,0.010348603129386902,0.0025950130075216293,-0.03591413423418999,-0.059969786554574966,-0.017646417021751404,-0.2995785176753998,0.938969612121582,-0.5957306623458862,0.005397052504122257,-0.003985748626291752,-0.2841816246509552,1.0211595296859741,-0.49487316608428955,0.04564909636974335,-0.005073345731943846,0.024191977456212044,-0.09195750951766968,0.2007867842912674,0.03611204773187637,-0.008442563004791737,-0.000319676473736763,-0.028569793328642845,0.18322467803955078,0.5412173271179199,-9.37244701385498,-1.4299989938735962,-18.58698272705078,30.0,-0.4640204608440399,10.698719024658203,-4.794086933135986,-22.812950134277344,30.0
2.18,0.0,0.0,0.0,0.07369060814380646,-0.03793446719646454,0.8176423907279968,0.0050924988463521,-0.0038130725733935833,0.018283942714333534,0.008618318475782871,0.0012776509393006563,-0.03542197868227959,-0.05921662226319313,-0.017722953110933304,-0.29995033144950867,0.9395448565483093,-0.5960116386413574,0.006135839503258467,-0.004066196735948324,-0.28406476974487305,1.0213146209716797,-0.49515241384506226,0.045638006180524826,-0.0031338981352746487,0.030537273734807968,-0.10167162120342255,0.20547044277191162,0.035954464226961136,-0.006414394825696945,0.004397999495267868,-0.03670744597911835,0.1903746873140335,0.5248189568519592,-9.35306167602539,-1.5202438831329346,-18.730405807495117,30.0,-0.4819357395172119,10.731160163879395,-4.737822532653809,-22.864835739135742,30.0
2.2,0.0,0.0,0.0,0.07376652210950851,-0.03799636662006378,0.817599892616272,0.005084270145744085,-0.0036381331738084555,0.019645893946290016,0.007200231775641441,0.00041421278729103506,-0.03486867994070053,-0.05847250670194626,-0.01776513271033764,-0.3002018332481384,0.9399275779724121,-0.59619140625,0.00686323968693614,-0.004111181478947401,-0.2838588356971741,1.0213319063186646,-0.49537691473960876,0.04523087292909622,-0.0015669709537178278,0.03641843795776367,-0.11148229241371155,0.21042682230472565,0.03569859638810158,-0.004766535013914108,0.008564338088035583,-0.04470352083444595,0.19722220301628113,0.5096571445465088,-9.353363037109375,-1.6242197751998901,-18.826120376586914,30.0,-0.5032182335853577,10.714463233947754,-4.657212257385254,-22.81509780883789,30.0
2.22,0.0,0.0,0.0,0.07384257018566132,-0.03805772587656975,0.8175780177116394,0.00511169945821166,-0.003500252729281783,0.020414596423506737,0.006384602747857571,0.0003356181550770998,-0.0343659333884716,-0.057739466428756714,-0.017783023416996002,-0.30037277936935425,0.9401634335517883,-0.5962948203086853,0.007577544078230858,-0.004132002592086792,-0.2836042046546936,1.0212516784667969,-0.49553602933883667,0.044599682092666626,-0.0006999416509643197,0.03921782970428467,-0.11696106195449829,0.213283970952034,0.03545910120010376,-0.0038623225409537554,0.010120624676346779,-0.049185611307621,0.2027701437473297,0.4990179240703583,-9.35501766204834,-1.7155886888504028,-18.849443435668945,30.0,-0.5254449844360352,10.678736686706543,-4.564980983734131,-22.687210083007812,30.0
2.24,0.0,0.0,0.0,0.0739179253578186,-0.0381181426346302,0.8175630569458008,0.005127994809299707,-0.0034150457940995693,0.020384103059768677,0.006103669758886099,0.0008935231016948819,-0.0339047834277153,-0.05701718106865883,-0.01779014989733696,-0.30053073167800903,0.9403518438339233,-0.5963714122772217,0.008285090327262878,-0.004141830839216709,-0.2833668887615204,1.021167278289795,-0.4956430196762085,0.0446380190551281,-0.0003972230479121208,0.038553982973098755,-0.11688345670700073,0.21324513852596283,0.03534125164151192,-0.0035875195171684027,0.008164762519299984,-0.04835068807005882,0.20774464309215546,0.4938775897026062,-9.340867042541504,-1.7857915163040161,-18.81937026977539,30.0,-0.5479949116706848,10.650444030761719,-4.474632263183594,-22.549083709716797,30.0
2.2600000000000002,0.0,0.0,0.0,0.07399199903011322,-0.03817778825759888,0.8175415396690369,0.00511109409853816,-0.003380910027772188,0.019835615530610085,0.005984325893223286,0.0016091234283521771,-0.03355953097343445,-0.05630181357264519,-0.017793210223317146,-0.30072444677352905,0.9405774474143982,-0.5964642763137817,0.00898986030369997,-0.004148190375417471,-0.2832027077674866,1.0211743116378784,-0.4957074224948883,0.044028230011463165,-0.00027593260165303946,0.03602690249681473,-0.11337465047836304,0.2115856558084488,0.035306062549352646,-0.003460938110947609,0.0038349563255906105,-0.0433381050825119,0.21265190839767456,0.48547735810279846,-9.307809829711914,-1.8437334299087524,-18.78733253479004,30.0,-0.5674165487289429,10.642062187194824,-4.392893314361572,-22.45882225036621,30.0
2.2800000000000002,0.0,0.0,0.0,0.07406488060951233,-0.03823760896921158,0.817509114742279,0.005067719146609306,-0.0033673071302473545,0.019297797232866287,0.005548547953367233,0.0018670425051823258,-0.033267728984355927,-0.05559474974870682,-0.01778874732553959,-0.3009592890739441,0.9408666491508484,-0.5965925455093384,0.009684208780527115,-0.004147921223193407,-0.2831270098686218,1.0213111639022827,-0.4957329332828522,0.044095203280448914,0.00028720765840262175,0.03430590778589249,-0.1102648675441742,0.20983238518238068,0.03495653346180916,-0.0029125867877155542,-0.00033776741474866867,-0.037602499127388,0.2179572880268097,0.47579604387283325,-9.273197174072266,-1.8943171501159668,-18.798864364624023,30.0,-0.5838060975074768,10.65105152130127,-4.3288373947143555,-22.43620491027832,30.0
2.3000000000000003,0.0,0.0,0.0,0.07413733005523682,-0.03829853981733322,0.8174697160720825,0.005029701162129641,-0.003354518674314022,0.01913329027593136,0.004754405468702316,0.0016569182043895125,-0.03291262686252594,-0.05489376559853554,-0.01776808127760887,-0.3012058734893799,0.9411867260932922,-0.5967394113540649,0.010371088050305843,-0.004131478723138571,-0.2831156253814697,1.0215580463409424,-0.49570849537849426,0.0438515841960907,0.0012769490713253617,0.034509845077991486,-0.10988835990428925,0.2097107172012329,0.03493436425924301,-0.0018655227031558752,-0.002874072641134262,-0.03400536999106407,0.2237825244665146,0.4593433737754822,-9.24904727935791,-1.9534165859222412,-18.859407424926758,30.0,-0.6016889810562134,10.653595924377441,-4.273689270019531,-22.44825553894043,30.0
2.32,0.0,0.0,0.0,0.07421007752418518,-0.03836110979318619,0.8174313902854919,0.005021864082664251,-0.0033292437437921762,0.019388699904084206,0.0037654235493391752,0.0011619932483881712,-0.03252467140555382,-0.05419972911477089,-0.017725272104144096,-0.3014272153377533,0.9414833784103394,-0.5968827605247498,0.011046906001865864,-0.0040917475707829,-0.2831270694732666,1.0218548774719238,-0.49563029408454895,0.04384537786245346,0.0025165879633277655,0.036467645317316055,-0.11236940324306488,0.21071480214595795,0.034787602722644806,-0.0005802444647997618,-0.003129892982542515,-0.03389621153473854,0.2290697991847992,0.4439319372177124,-9.240758895874023,-2.025831937789917,-18.94833755493164,30.0,-0.6199371814727783,10.637192726135254,-4.2162766456604,-22.451082229614258,30.0
2.34,0.0,0.0,0.0,0.07428362220525742,-0.038425199687480927,0.8174000382423401,0.005041940603405237,-0.003285801038146019,0.019812483340501785,0.003091551596298814,0.0008596790139563382,-0.03205125033855438,-0.053513363003730774,-0.017660506069660187,-0.30160513520240784,0.9417191743850708,-0.5969932675361633,0.011711757630109787,-0.004028511233627796,-0.28313136100769043,1.0221501588821411,-0.49550309777259827,0.04352227598428726,0.003328362014144659,0.038614824414253235,-0.11567172408103943,0.21217766404151917,0.03801730275154114,-0.0008463666308671236,-0.0024474598467350006,-0.03967810794711113,0.22877372801303864,0.4266945421695709,-9.243927955627441,-2.1045982837677,-19.028675079345703,30.0,-0.6477556228637695,10.601139068603516,-4.149003028869629,-22.400846481323242,30.0
2.36,0.0,0.0,0.0,0.07435816526412964,-0.03849028795957565,0.8173761963844299,0.005085434764623642,-0.003235442563891411,0.020136132836341858,0.003141572466120124,0.0007072480511851609,-0.0313691720366478,-0.052837833762168884,-0.017582381144165993,-0.3017454147338867,0.9419004917144775,-0.597080409526825,0.012399682775139809,-0.003947261720895767,-0.2831019461154938,1.0223950147628784,-0.49538230895996094,0.04260639101266861,0.0031843306496739388,0.04001570865511894,-0.11780576407909393,0.21295514702796936,0.04298194497823715,-0.004614652134478092,-0.0001969141885638237,-0.04803343117237091,0.22696739435195923,0.4149314761161804,-9.248092651367188,-2.1902763843536377,-19.07630729675293,30.0,-0.7043144106864929,10.586570739746094,-4.069197177886963,-22.3208065032959,30.0
2.38,0.0,0.0,0.0,0.07443350553512573,-0.038555942475795746,0.8173550367355347,0.005128948483616114,-0.0032803048379719257,0.02010742388665676,0.00423818826675415,0.0008664884371683002,-0.031168939545750618,-0.05217113345861435,-0.017511075362563133,-0.30187711119651794,0.9420689344406128,-0.5971606969833374,0.01307238731533289,-0.003872764529660344,-0.28303778171539307,1.0225759744644165,-0.4952967166900635,0.04294850677251816,0.0018417404498904943,0.03941341117024422,-0.11683178693056107,0.21212133765220642,0.04541410133242607,-0.010204626247286797,0.0013568252325057983,-0.04931187257170677,0.22756806015968323,0.408570796251297,-9.245650291442871,-2.277116537094116,-19.05844497680664,30.0,-0.7453513145446777,10.616991996765137,-3.9756813049316406,-22.267738342285156,30.0
2.4,0.0,0.0,0.0,0.07450859993696213,-0.03862255811691284,0.8173300623893738,0.005116697400808334,-0.003441870678216219,0.0197781752794981,0.005175026599317789,0.0011112247593700886,-0.031038179993629456,-0.05150817334651947,-0.017457662150263786,-0.3020337224006653,0.9422727823257446,-0.597257673740387,0.013735949993133545,-0.0038197129033505917,-0.28298866748809814,1.0227704048156738,-0.4952126145362854,0.04284548759460449,0.0008318349719047546,0.03777572512626648,-0.11402968317270279,0.21066279709339142,0.04449804127216339,-0.011742658913135529,-0.0004277229309082031,-0.045194197446107864,0.23202502727508545,0.396222323179245,-9.233989715576172,-2.3314099311828613,-19.01555633544922,30.0,-0.7599217295646667,10.659905433654785,-3.898024559020996,-22.229768753051758,30.0
2.42,0.0,0.0,0.0,0.07458317279815674,-0.038691647350788116,0.8172993659973145,0.005083560943603516,-0.0035391729325056076,0.019530143588781357,0.004569812677800655,0.001102621085010469,-0.030770491808652878,-0.05084913223981857,-0.017402583733201027,-0.30220818519592285,0.9425106644630432,-0.5973777770996094,0.014391264878213406,-0.0037653434555977583,-0.2829832434654236,1.023036003112793,-0.49509909749031067,0.04285937175154686,0.0017525015864521265,0.037381529808044434,-0.11295073479413986,0.2098560780286789,0.044564180076122284,-0.010866226628422737,-0.002655202057212591,-0.04254458472132683,0.23669764399528503,0.38389235734939575,-9.208032608032227,-2.3796908855438232,-19.053630828857422,30.0,-0.7733762264251709,10.681222915649414,-3.8417398929595947,-22.193912506103516,30.0
2.44,0.0,0.0,0.0,0.07465742528438568,-0.038764163851737976,0.8172658681869507,0.005071632564067841,-0.0036094144452363253,0.01952049322426319,0.0036059587728232145,0.0010276291286572814,-0.030464300885796547,-0.050196681171655655,-0.017324252054095268,-0.30238112807273865,0.9427520036697388,-0.5974963307380676,0.015033474192023277,-0.0036876678932458162,-0.2830079197883606,1.023356318473816,-0.49496665596961975,0.042963575571775436,0.0030987379141151905,0.03797592222690582,-0.11368481814861298,0.21055492758750916,0.04483115300536156,-0.009512988850474358,-0.003596145659685135,-0.042219892144203186,0.24066147208213806,0.36767345666885376,-9.201745986938477,-2.4489212036132812,-19.12812614440918,30.0,-0.7922745943069458,10.659090042114258,-3.782493829727173,-22.167490005493164,30.0
2.46,0.0,0.0,0.0,0.0747314840555191,-0.03883993998169899,0.8172345757484436,0.005068748723715544,-0.0036602276377379894,0.019705533981323242,0.002762387739494443,0.0009185125818476081,-0.03006688505411148,-0.049551185220479965,-0.01722048409283161,-0.30253487825393677,0.9429659247398376,-0.5976091027259827,0.015671394765377045,-0.0035847641993314028,-0.28304585814476013,1.0236982107162476,-0.4948104918003082,0.04273577779531479,0.0042691705748438835,0.03913360834121704,-0.11554259806871414,0.21136823296546936,0.044674165546894073,-0.008379103615880013,-0.0038998760282993317,-0.04297346994280815,0.24479979276657104,0.3515058755874634,-9.210755348205566,-2.5249459743499756,-19.214656829833984,30.0,-0.8126282691955566,10.611705780029297,-3.7123045921325684,-22.117080688476562,30.0
2.48,0.0,0.0,0.0,0.07480552047491074,-0.03891811519861221,0.8172072768211365,0.005077326204627752,-0.003696558065712452,0.019930602982640266,0.0021645850501954556,0.0009091320098377764,-0.029665835201740265,-0.04891408607363701,-0.01709791272878647,-0.3026655316352844,0.9431403875350952,-0.5977033376693726,0.01629856787621975,-0.0034620151855051517,-0.28308236598968506,1.024033546447754,-0.4946373999118805,0.042948558926582336,0.005128033459186554,0.040160633623600006,-0.1174434944987297,0.2122432440519333,0.04481177777051926,-0.007501813583076,-0.0034498730674386024,-0.04530613496899605,0.24882587790489197,0.3373136520385742,-9.22565746307373,-2.6024677753448486,-19.292448043823242,30.0,-0.8336844444274902,10.555968284606934,-3.6394269466400146,-22.04646110534668,30.0
2.5,0.0,0.0,0.0,0.0748792514204979,-0.03899794816970825,0.8171829581260681,0.005084481090307236,-0.003725838614627719,0.0200289748609066,0.0019181021489202976,0.0010985150001943111,-0.029270818457007408,-0.048282962292432785,-0.01696270890533924,-0.30278775095939636,0.9432923197746277,-0.5977828502655029,0.01692039892077446,-0.003327392740175128,-0.28311431407928467,1.0243529081344604,-0.49446550011634827,0.04268601909279823,0.005498511716723442,0.04037800431251526,-0.11824306845664978,0.21277140080928802,0.044806383550167084,-0.007131678983569145,-0.0031608128920197487,-0.04732079431414604,0.25175386667251587,0.3261699676513672,-9.235222816467285,-2.6791605949401855,-19.348587036132812,30.0,-0.8540892601013184,10.496703147888184,-3.561223268508911,-21.958114624023438,30.0
2.52,0.0,0.0,0.0,0.07495228201150894,-0.03907855227589607,0.8171585202217102,0.005077092908322811,-0.003758760867640376,0.019938211888074875,0.00198431801982224,0.001451851916499436,-0.02894059754908085,-0.047661442309617996,-0.016824791207909584,-0.30291515588760376,0.943442702293396,-0.5978636741638184,0.017534103244543076,-0.0031902508344501257,-0.28315168619155884,1.0246660709381104,-0.49430403113365173,0.04250813275575638,0.005482317879796028,0.039608631283044815,-0.11755003035068512,0.21252985298633575,0.04473396763205528,-0.007206674665212631,-0.003525298088788986,-0.04858123138546944,0.25437530875205994,0.3139992952346802,-9.239025115966797,-2.7477810382843018,-19.386953353881836,30.0,-0.8735809922218323,10.4458589553833,-3.4841701984405518,-21.870342254638672,30.0
2.54,0.0,0.0,0.0,0.07502435892820358,-0.0391596220433712,0.8171312212944031,0.005050686653703451,-0.003793873591348529,0.01974422112107277,0.0021616658195853233,0.0017468776786699891,-0.028568198904395103,-0.047044821083545685,-0.01668873243033886,-0.30306175351142883,0.9436145424842834,-0.5979523658752441,0.01814397983253002,-0.003055023029446602,-0.2832014262676239,1.0249890089035034,-0.4941607713699341,0.0421973317861557,0.005308947525918484,0.03860069066286087,-0.11614714562892914,0.2116931974887848,0.04467415064573288,-0.007448400370776653,-0.00408957339823246,-0.04906643182039261,0.25641903281211853,0.3023802638053894,-9.23602294921875,-2.8097996711730957,-19.422557830810547,30.0,-0.89339679479599,10.40845775604248,-3.4133808612823486,-21.802642822265625,30.0
