DanielTruong99/RLHumanoidRobot/analysis/data/state_log.csv
time_step,c_x,c_y,c_z,base_x,base_y,base_z,base_vx,base_vy,base_vz,base_wx,base_wy,base_wz,pos_R_hip_joint,pos_R_hip2_joint,pos_R_thigh_joint,pos_R_calf_joint,pos_R_toe_joint,pos_L_hip_joint,pos_L_hip2_joint,pos_L_thigh_joint,pos_L_calf_joint,pos_L_toe_joint,vel_R_hip_joint,vel_R_hip2_joint,vel_R_thigh_joint,vel_R_calf_joint,vel_R_toe_joint,vel_L_hip_joint,vel_L_hip2_joint,vel_L_thigh_joint,vel_L_calf_joint,vel_L_toe_joint,torque_R_hip_joint,torque_R_hip2_joint,torque_R_thigh_joint,torque_R_calf_joint,torque_R_toe_joint,torque_L_hip_joint,torque_L_hip2_joint,torque_L_thigh_joint,torque_L_calf_joint,torque_L_toe_joint
0.01,7.5,0.0,0.0,-90.006103515625,-0.0018147453665733337,1.1361446380615234,0.528022289276123,0.09575043618679047,-0.3592279255390167,-3.976400136947632,11.608365058898926,0.21961387991905212,0.056747183203697205,0.16525883972644806,-0.45230698585510254,0.7652654051780701,-0.4735320210456848,-0.18825596570968628,0.12542305886745453,-0.17173659801483154,0.42339932918548584,0.02059257961809635,4.290476322174072,8.215400695800781,-35.359886169433594,50.00003433227539,-29.973482131958008,-22.933311462402344,11.676321029663086,-7.929747104644775,-21.91322135925293,-2.602344274520874,-128.06005859375,14.846467971801758,300.0,212.9060821533203,-223.16806030273438,-300.0,-209.63064575195312,300.0,-19.363155364990234,0.0195770263671875
0.02,7.5,0.0,0.0,-90.011962890625,-0.003722519613802433,1.130842685699463,0.7422906160354614,-0.1237407997250557,-0.8648175001144409,-1.0300953388214111,10.527473449707031,-7.8601393699646,0.3776967525482178,0.08716680854558945,-0.8589573502540588,1.2600017786026,-0.8000313639640808,-0.1413344144821167,0.2076745629310608,-0.19902119040489197,0.17301443219184875,-0.20921006798744202,41.780967712402344,-17.914173126220703,-43.43038558959961,48.032833099365234,-0.004211729858070612,21.10944366455078,3.868605613708496,-5.507695198059082,-20.88585662841797,-24.536441802978516,157.16256713867188,98.19793701171875,-101.92511749267578,-300.0,300.0,-300.0,74.29608154296875,300.0,8.304237365722656,-30.0
0.03,7.5,0.0,0.0,-90.01605224609375,0.002487078309059143,1.1246732473373413,0.2513541579246521,-0.17828568816184998,-0.9295063614845276,7.119785785675049,4.4223761558532715,-3.3135170936584473,0.5086497664451599,-0.16902698576450348,-1.1166725158691406,1.759566068649292,-0.8000341057777405,0.07147778570652008,0.12620270252227783,-0.19114358723163605,-1.5458148254765547e-06,-0.3670090138912201,6.454774856567383,-31.008638381958008,-20.443809509277344,49.997535705566406,0.08145341277122498,23.492530822753906,-15.042253494262695,-3.1496944427490234,0.3624161183834076,-12.157572746276855,14.080322265625,-193.33428955078125,-300.0,-255.58135986328125,300.0,68.79379272460938,86.22303009033203,300.0,9.821304321289062,-30.0
0.04,7.5,0.0,0.0,-90.01608276367188,0.008826016448438168,1.1204302310943604,-0.7143607139587402,0.1435416340827942,-0.22610478103160858,2.912010431289673,-7.98351526260376,1.2642686367034912,0.3754788637161255,-0.27041587233543396,-1.1707944869995117,1.999981164932251,-0.6147329807281494,0.17391878366470337,0.05066266655921936,-0.06791819632053375,0.013039537705481052,-0.4736150801181793,-23.06981086730957,4.093318462371826,2.8351285457611084,-1.948326826095581e-06,30.22702980041504,8.255393028259277,-3.174255609512329,17.7237548828125,5.435608386993408,-10.950491905212402,33.367733001708984,-280.9600524902344,67.42931365966797,300.0,300.0,241.66427612304688,131.16232299804688,300.0,11.154632568359375,-30.0
0.05,7.5,0.0,0.0,-90.01477813720703,0.009029255248606205,1.117066502571106,-0.603012204170227,0.0030172932893037796,-0.4116590619087219,-3.5221986770629883,-6.620340347290039,4.405651092529297,0.10316228866577148,-0.09490450471639633,-1.147164225578308,1.9984620809555054,-0.7999318838119507,0.06635214388370514,0.09981285035610199,0.09999901056289673,0.06239869073033333,-0.6125118136405945,-31.479494094848633,28.21868133544922,0.08397788554430008,-1.5933066606521606e-05,-0.10899975895881653,-18.712017059326172,8.164410591125488,14.764199256896973,4.398618221282959,-13.754427909851074,-69.8966064453125,-24.9671630859375,85.49787139892578,300.0,-154.42001342773438,-55.448265075683594,-64.70479583740234,300.0,-4.1660919189453125,0.412750244140625
0.06,7.5,0.0,0.0,-90.01541900634766,0.007600831799209118,1.1117753982543945,0.27556300163269043,-0.04129011929035187,-0.6019546389579773,-1.229453444480896,2.9163413047790527,4.081233978271484,-0.0761856734752655,0.04895148426294327,-1.1855725049972534,2.000131607055664,-0.8000746965408325,-0.1656329333782196,0.12629516422748566,0.1862267702817917,0.03163817152380943,-0.7939730882644653,-11.983402252197266,8.068778991699219,-9.653034210205078,-0.00926305539906025,0.008584287017583847,-26.76339340209961,-0.44949206709861755,8.478238105773926,-16.106985092163086,-9.643019676208496,-59.63360595703125,129.841552734375,-66.52244567871094,-94.1395263671875,-300.0,-200.6464080810547,-167.62216186523438,300.0,-18.589988708496094,-30.0
0.07,7.5,0.0,0.0,-90.01972198486328,0.009032984264194965,1.105407476425171,0.7804349660873413,-0.3197270333766937,-0.8827071785926819,3.5834803581237793,10.75447940826416,2.600416421890259,-0.07183188945055008,-0.0291789211332798,-1.376364827156067,2.000002861022949,-0.7993695735931396,-0.2816413342952728,0.11815949529409409,0.05253266915678978,0.18043513596057892,-0.8000004291534424,8.917985916137695,-19.712440490722656,-24.97176170349121,0.009712446480989456,-6.705522537231445e-07,-6.1145806312561035,-1.4912300109863281,-24.166305541992188,27.384668350219727,9.981145558413118e-05,1.3149681091308594,201.28720092773438,-35.65277862548828,-200.85733032226562,-300.0,-88.76223754882812,30.379608154296875,300.0,-30.0,-30.0
0.08,7.5,0.0,0.0,-90.02305603027344,0.010970605537295341,1.09794020652771,0.39257729053497314,-0.2225215584039688,-0.80427485704422,1.3590621948242188,2.915043830871582,-2.957294225692749,0.0005096780369058251,-0.2074993997812271,-1.5233755111694336,1.999937891960144,-0.7999498248100281,-0.09194163233041763,0.11666978150606155,-0.07076752930879593,0.31805136799812317,-0.800000011920929,9.647807121276855,-15.245134353637695,-9.549822807312012,-1.634657382965088e-05,-0.0802798718214035,32.59451675415039,-0.45740580558776855,-6.105051040649414,9.74521255493164,-0.003033860120922327,154.6837158203125,99.9011001586914,-36.72881317138672,88.32941436767578,300.0,72.46106719970703,56.66204833984375,300.0,-4.365643501281738,-30.0
0.09,7.5,0.0,0.0,-90.02212524414062,0.010870895348489285,1.0905466079711914,-0.2852264940738678,0.08816927671432495,-0.5700763463973999,-2.6270952224731445,-6.713663101196289,-2.4866063594818115,0.016298241913318634,-0.13185441493988037,-1.5161349773406982,1.9996821880340576,-0.8000819683074951,0.08765638619661331,0.14376217126846313,0.03279262036085129,0.23088374733924866,-0.8000000715255737,-2.9065873622894287,21.683860778808594,8.077052116394043,6.705522537231445e-07,-0.21591559052467346,14.190596580505371,4.948479652404785,18.995447158813477,-16.303136825561523,-0.0030169959645718336,4.60516357421875,-146.69790649414062,-24.085590362548828,300.0,181.02261352539062,300.0,-11.39102554321289,300.0,-14.269052505493164,-30.0
0.1,7.5,0.0,0.0,-90.02214050292969,0.010099179111421108,1.0831739902496338,0.058473825454711914,-0.10686825215816498,-0.7084934711456299,-0.7726414203643799,-0.4483083188533783,2.7853634357452393,-0.06495672464370728,0.0442705899477005,-1.4654901027679443,1.9996095895767212,-0.8000425696372986,0.039196476340293884,0.168323814868927,0.08835633099079132,0.27566173672676086,-0.8000004291534424,-10.287839889526367,14.9476900100708,3.4706225395202637,0.0550508126616478,-0.00945889949798584,-16.37680435180664,-1.1445854902267456,0.6445792317390442,10.805753707885742,6.307163857854903e-06,-122.0838851928711,-22.64087677001953,-156.42396545410156,-33.580833435058594,-300.0,48.08964538574219,-11.922853469848633,300.0,-30.0,-30.0
0.11,7.5,0.0,0.0,-90.02339935302734,0.00988756027072668,1.0750328302383423,0.2725161910057068,-0.11444121599197388,-0.8484947085380554,-0.6225191950798035,1.5873163938522339,1.9452998638153076,-0.14562655985355377,0.1579381227493286,-1.4479135274887085,1.9999982118606567,-0.799937903881073,-0.054839204996824265,0.16460464894771576,0.07638402283191681,0.3540591895580292,-0.8000000715255737,-5.868987560272217,8.7465238571167,-0.12620660662651062,0.0010978874051943421,-1.4901161193847656e-08,-5.598745346069336,0.4205673635005951,-2.310781955718994,5.393402099609375,0.00044645954039879143,11.058277130126953,42.403385162353516,60.93709945678711,-46.86305618286133,-51.236568450927734,-68.25340270996094,-40.9992790222168,300.0,-30.0,-30.0
0.12,7.5,0.0,0.0,-90.02571868896484,0.009779421612620354,1.0656508207321167,0.44237634539604187,-0.16410762071609497,-0.9925077557563782,-0.23495399951934814,3.7613823413848877,1.8013076782226562,-0.16571693122386932,0.19683317840099335,-1.471054196357727,1.9998278617858887,-0.7999677658081055,-0.07628040015697479,0.1736931949853897,-0.00960839819163084,0.5017459392547607,-0.8000003099441528,0.9467435479164124,0.30639639496803284,-3.7265818119049072,-4.3313950300216675e-05,-0.051586221903562546,-0.6880937218666077,1.1138540506362915,-11.585654258728027,18.229387283325195,-0.0023272065445780754,-9.883658409118652,80.01905059814453,17.602218627929688,-62.60308074951172,-102.45567321777344,11.10782241821289,7.407402038574219,300.0,-30.0,-30.0
0.13,7.5,0.0,0.0,-90.02806854248047,0.00919573288410902,1.0552432537078857,0.4007786512374878,-0.17467914521694183,-1.0290981531143188,-1.0886799097061157,2.1426639556884766,-0.07028917223215103,-0.14143767952919006,0.2161380797624588,-1.4868888854980469,1.9998605251312256,-0.8000020384788513,-0.027953308075666428,0.19411587715148926,-0.10824646800756454,0.6511639952659607,-0.8000001311302185,3.5479586124420166,3.1219396591186523,0.24161885678768158,1.862645149230957e-07,-0.11785008758306503,7.651010513305664,2.4468774795532227,-8.223184585571289,12.486299514770508,-0.001778448699042201,33.562744140625,66.86493682861328,-21.88307762145996,44.35796356201172,13.75384521484375,80.72444152832031,-10.336189270019531,300.0,-30.0,-30.0
0.14,7.5,0.0,0.0,-90.02943420410156,0.007732595317065716,1.0443352460861206,0.42553767561912537,-0.16870522499084473,-1.0153716802597046,-1.8669586181640625,1.4268540143966675,0.15818673372268677,-0.13283385336399078,0.30306509137153625,-1.4581139087677002,1.999842882156372,-0.799984335899353,0.028226453810930252,0.218826562166214,-0.1592765748500824,0.6959457993507385,-0.8000001311302185,-1.02962064743042,12.467525482177734,4.737656593322754,-4.522502422332764e-05,-0.024947727099061012,4.552971363067627,2.5579378604888916,-3.426302909851074,-0.3229081630706787,-0.002732672728598118,-16.609010696411133,-3.095123291015625,-33.364967346191406,84.88803100585938,-48.662132263183594,78.2066879272461,-71.04473114013672,300.0,-30.0,-30.0
0.15,7.5,0.0,0.0,-90.03067016601562,0.006191078573465347,1.0326783657073975,0.5874407887458801,-0.22101113200187683,-1.1276123523712158,-0.8697551488876343,2.665508985519409,1.0272411108016968,-0.1278478056192398,0.3877418339252472,-1.4275912046432495,2.0000193119049072,-0.7999719381332397,-0.0208787489682436,0.23093833029270172,-0.19000066816806793,0.7034173011779785,-0.8000002503395081,2.145263910293579,5.547283172607422,1.3562448024749756,-0.001786189153790474,7.180497050285339e-07,-10.341612815856934,0.37199658155441284,-3.0970544815063477,1.3121509552001953,4.7498883759544697e-07,-74.0103530883789,41.684410095214844,-30.919361114501953,-43.95726013183594,-48.38140869140625,-21.09085464477539,-9.265954971313477,300.0,-30.0,-30.0
0.16,7.5,0.0,0.0,-90.0331802368164,0.005263688508421183,1.0192710161209106,0.8131874203681946,-0.1875845491886139,-1.3961095809936523,-0.8563243746757507,4.936965465545654,1.1838526725769043,-0.07237022370100021,0.3954547941684723,-1.4569554328918457,1.9999840259552002,-0.7999064922332764,-0.03574991226196289,0.24476295709609985,-0.30036187171936035,0.8225536942481995,-0.8000003099441528,7.674328327178955,-2.6948821544647217,-5.516259670257568,0.0011529906187206507,4.2654573917388916e-07,2.986644744873047,1.9343756437301636,-14.9984712600708,16.757797241210938,-1.4483584891422652e-06,41.51639175415039,-6.262580871582031,86.01519012451172,-91.31525421142578,-42.02641296386719,-60.756263732910156,50.252105712890625,300.0,-30.0,-30.0
0.17,7.5,0.0,0.0,-90.03556823730469,0.0047486587427556515,1.0047754049301147,0.7863170504570007,-0.24983863532543182,-1.3612521886825562,-0.15102925896644592,2.9365854263305664,-0.029554419219493866,0.001931682345457375,0.35659804940223694,-1.4939228296279907,2.0000228881835938,-0.8000313639640808,0.034000836312770844,0.24805724620819092,-0.41768863797187805,0.9249674081802368,-0.8000001907348633,7.074403762817383,-4.418862819671631,-2.229264259338379,0.0012419355334714055,-0.0008069436298683286,9.215646743774414,-0.8119949102401733,-9.257894515991211,6.239591121673584,-2.602469749035663e-06,44.699440002441406,-10.86553955078125,-44.48501968383789,-8.923160552978516,66.04426574707031,21.10266876220703,-22.75555992126465,300.0,-30.0,-30.0
0.18,7.5,0.0,0.0,-90.0369873046875,0.004008072894066572,0.9900540113449097,0.635532557964325,-0.15844333171844482,-1.3427510261535645,-1.6118299961090088,0.7640676498413086,1.106730580329895,-0.01041997317224741,0.4207209646701813,-1.4572868347167969,1.999870777130127,-0.8000046610832214,0.14867936074733734,0.23981240391731262,-0.49484071135520935,0.9594384431838989,-0.8000001907348633,-7.052988529205322,13.804338455200195,7.766279697418213,-3.688037395477295e-07,-0.1037692055106163,12.752135276794434,-0.6030012369155884,-6.514634609222412,1.4333914518356323,-0.002059625694528222,33.90174102783203,-117.6907958984375,-2.3029046058654785,121.21189880371094,15.993093490600586,75.97895050048828,-23.062788009643555,300.0,-30.0,-30.0
0.19,7.5,0.0,0.0,-90.03852844238281,0.003454091027379036,0.9743503332138062,0.8394490480422974,-0.17876197397708893,-1.4826823472976685,-0.30712494254112244,2.29333233833313,2.9020133018493652,-0.06078888475894928,0.4999443292617798,-1.4108242988586426,2.0000979900360107,-0.800046980381012,0.1077873706817627,0.2537936866283417,-0.5434392094612122,1.006199836730957,-0.8000002503395081,-1.0650562047958374,0.0001590251922607422,0.5391120314598083,-0.009890180081129074,0.006178822368383408,-14.561720848083496,2.3014509677886963,-3.569568157196045,6.143909931182861,-4.836308107769582e-06,-139.0430145263672,27.148012161254883,19.170907974243164,-55.97922897338867,1.697549819946289,-96.82638549804688,26.463417053222656,300.0,-30.0,-30.0
0.2,7.5,0.0,0.0,-90.04244995117188,0.004173018969595432,0.9560948014259338,1.466052770614624,-0.1694791316986084,-1.9656363725662231,-0.04563683271408081,8.361836433410645,2.9104580879211426,0.012182235717773438,0.4038119316101074,-1.5077269077301025,1.9998782873153687,-0.7996155023574829,0.06519874930381775,0.26038822531700134,-0.7016404271125793,1.1687651872634888,-0.8000003099441528,12.03715991973877,-16.164247512817383,-15.912053108215332,0.022733690217137337,5.960464477539062e-07,1.0426926612854004,-0.050042010843753815,-23.16859245300293,20.944107055664062,-0.00010590897727524862,44.396610260009766,16.397605895996094,93.00777435302734,-154.0056915283203,-194.91233825683594,-108.76213073730469,19.230987548828125,300.0,-30.0,-30.0
0.21,7.5,0.0,0.0,-90.04772186279297,0.005700208246707916,0.9358027577400208,1.5760765075683594,-0.29336100816726685,-2.016867160797119,0.8011849522590637,7.171390533447266,-1.9208904504776,0.11968677490949631,0.18431444466114044,-1.6334933042526245,1.9998332262039185,-0.7999768257141113,0.24597930908203125,0.17144809663295746,-0.9485805630683899,1.3714981079101562,-0.8000001311302185,11.092341423034668,-25.129352569580078,-10.678838729858398,-4.06317412853241e-05,-0.03689545392990112,27.663419723510742,-15.023406028747559,-24.224849700927734,19.924598693847656,-0.0030030219350010157,183.75787353515625,17.701881408691406,-72.9511947631836,-74.6225357055664,58.5887451171875,43.66790771484375,34.36737823486328,300.0,-30.0,-30.0
0.22,7.5,0.0,0.0,-90.05047607421875,0.007586107589304447,0.916897714138031,1.091218113899231,-0.008713319897651672,-1.5330296754837036,-1.845177173614502,0.815718948841095,-1.534538745880127,0.10512296855449677,0.17946882545948029,-1.619570255279541,1.9994516372680664,-0.7999936938285828,0.44160178303718567,0.025153087452054024,-1.0687123537063599,1.4763984680175781,-0.778579831123352,-7.274074554443359,16.020179748535156,8.42076587677002,-0.00018006563186645508,-0.009970318526029587,20.23224639892578,-14.082257270812988,-6.923321723937988,5.586141586303711,1.8566479682922363,60.18345642089844,-96.71864318847656,-29.00731658935547,300.0,60.865055084228516,253.21995544433594,-79.68922424316406,300.0,-3.6143574714660645,-30.0
0.23,7.5,0.0,0.0,-90.05233001708984,0.008464967831969261,0.8963851928710938,1.184435486793518,0.35035240650177,-1.9041961431503296,-5.024438858032227,0.29432108998298645,1.0823665857315063,0.019619228318333626,0.34009307622909546,-1.5262123346328735,2.0000388622283936,-0.8000898957252502,0.4300259053707123,0.05510687083005905,-1.1711382865905762,1.652352213859558,-0.8000002503395081,-8.489283561706543,15.951766014099121,9.1705961227417,-0.0009670306462794542,0.007053539156913757,-12.793145179748535,13.954141616821289,-13.818231582641602,24.80147933959961,5.2107247938693035e-06,-182.33604431152344,14.469532012939453,217.8805694580078,-17.09825897216797,-81.35760498046875,-40.22269821166992,134.9020538330078,300.0,-30.0,-30.0
0.24,7.5,0.0,0.0,-90.05572509765625,0.009799227118492126,0.8728926181793213,1.7248868942260742,0.46251824498176575,-2.1542813777923584,-3.8380236625671387,4.471827983856201,2.504718542098999,-0.010441815480589867,0.3717096745967865,-1.4889733791351318,1.999989628791809,-0.7998525500297546,0.3081824779510498,0.19241094589233398,-1.3430149555206299,1.9037387371063232,-0.8000001907348633,1.6752582788467407,-5.580527305603027,-1.2498655319213867,0.006089254282414913,-1.1473894119262695e-06,-12.781022071838379,13.239501953125,-20.664297103881836,25.199878692626953,-6.87064093654044e-05,-71.52179718017578,58.78461456298828,-0.7639083862304688,-179.09161376953125,-209.07562255859375,-59.8233642578125,-10.497238159179688,300.0,-30.0,-30.0
0.25,7.5,0.0,0.0,-90.05919647216797,0.012225343845784664,0.8494477868080139,2.0251810550689697,0.14833533763885498,-1.9035277366638184,-0.2644777297973633,6.263160228729248,1.5583703517913818,0.058007869869470596,0.16450902819633484,-1.5033994913101196,1.9995636940002441,-0.7998985648155212,0.2872650921344757,0.19973589479923248,-1.5450286865234375,2.0000884532928467,-0.8000001311302185,9.863322257995605,-30.892988204956055,-0.9565264582633972,-0.00012373924255371094,-0.1622942090034485,2.8162331581115723,-8.777966499328613,-21.430572509765625,0.005880424752831459,-0.005373192951083183,67.94925689697266,76.27338409423828,-157.36595153808594,-238.74667358398438,-203.99166870117188,195.9016876220703,79.6926040649414,300.0,-30.0,-30.0
0.26,7.5,0.0,0.0,-90.0604476928711,0.01616576313972473,0.8275484442710876,1.334952712059021,-0.24213282763957977,-1.5634244680404663,4.242169380187988,-1.702357530593872,-3.1115307807922363,0.14481216669082642,-0.11763158440589905,-1.4037694931030273,1.9995312690734863,-0.7999645471572876,0.40987685322761536,-0.09982849657535553,-1.6336930990219116,1.9998736381530762,-0.8000000715255737,10.718391418457031,-29.068668365478516,17.03351593017578,-0.00010697543621063232,-0.0565500408411026,18.543819427490234,-43.732913970947266,0.5480510592460632,0.007359672337770462,-0.0025828490033745766,300.0,34.76075744628906,-300.0,-21.815200805664062,300.0,300.0,300.0,300.0,-13.19177532196045,-30.0
0.27,7.5,0.0,0.0,-90.06083679199219,0.018291885033249855,0.8040019273757935,1.9936399459838867,-0.2630192041397095,-1.8882060050964355,0.18574963510036469,2.546435594558716,-5.236248016357422,0.1849161684513092,-0.1790982186794281,-1.2864638566970825,1.9997297525405884,-0.7998555898666382,0.5678329467773438,-0.45594504475593567,-1.6495829820632935,2.00015926361084,-0.8000001311302185,-1.7891569137573242,7.915436267852783,7.286919116973877,-1.6339123249053955e-05,-0.23090799152851105,17.692852020263672,-36.23191833496094,-6.103203296661377,0.0012997717130929232,-0.0015880772843956947,211.7269744873047,-84.78247833251953,-71.18394470214844,299.9021301269531,-259.4989929199219,-64.89238739013672,300.0,300.0,-30.0,-30.0
0.28,7.5,0.0,0.0,-90.06062316894531,0.01865033060312271,0.7786353826522827,1.7472082376480103,-0.11251378059387207,-1.7001184225082397,-0.131903737783432,-0.6038506627082825,-6.130010604858398,0.14221732318401337,-0.08100499212741852,-1.2220475673675537,2.0001437664031982,-0.8000300526618958,0.6280350089073181,-0.45085445046424866,-1.7000223398208618,1.9999446868896484,-0.8000003695487976,-5.965060234069824,9.584261894226074,5.1476545333862305,0.045802727341651917,0.023862862959504128,6.813031196594238,13.525477409362793,-0.016728950664401054,-1.2665987014770508e-07,-0.16263748705387115,51.000465393066406,-68.52549743652344,300.0,-43.20350646972656,-65.61515808105469,-237.2551727294922,300.0,300.0,-30.0,-30.0
0.29,7.5,0.0,0.0,-90.06049346923828,0.018623175099492073,0.7527997493743896,2.077792167663574,-0.06636650860309601,-1.8970988988876343,0.6446516513824463,2.269239902496338,-8.255728721618652,0.07300343364477158,0.0016209352761507034,-1.222329020500183,2.000109910964966,-0.8000138998031616,0.717082142829895,-0.3054579198360443,-1.7000120878219604,1.999910831451416,-0.8000001311302185,-7.098709583282471,7.371574401855469,-4.694891452789307,-1.0217481758445501e-05,-0.0005678543820977211,10.519645690917969,15.027791023254395,-0.0020378027111291885,2.998858690261841e-07,-0.08149272948503494,94.16764831542969,-39.121551513671875,67.14392852783203,-33.274009704589844,-175.32296752929688,-248.16476440429688,300.0,300.0,-30.0,-30.0
0.3,7.5,0.0,0.0,-90.06199645996094,0.019284304231405258,0.7253349423408508,2.532458782196045,-0.0064944433979690075,-2.0449447631835938,2.644534111022949,5.659829139709473,-8.873658180236816,0.03186389431357384,0.023241177201271057,-1.3152295351028442,2.0000669956207275,-0.799970805644989,0.8356310129165649,-0.2239375114440918,-1.7000054121017456,1.9999715089797974,-0.7999999523162842,-2.2764933109283447,-2.036198139190674,-12.984746932983398,-0.0026788399554789066,-0.00030533596873283386,12.573150634765625,3.258010149002075,-0.000595061806961894,-1.3848766684532166e-06,-0.027853237465023994,29.428325653076172,-1.623208999633789,-60.130470275878906,-101.01006317138672,-300.0,-134.05908203125,300.0,300.0,-30.0,-30.0
0.31,7.5,0.0,0.0,-90.06460571289062,0.020698482170701027,0.6959409713745117,2.933180093765259,0.1033017709851265,-2.1062071323394775,3.1113007068634033,7.365224361419678,-9.28034496307373,0.009219327010214329,0.008218619041144848,-1.4707227945327759,2.00000262260437,-0.7999559640884399,0.981887698173523,-0.2501997649669647,-1.699997067451477,2.000004291534424,-0.7999999523162842,-2.1300437450408936,-1.6852644681930542,-17.057254791259766,-0.002829955657944083,-2.4810433387756348e-06,16.04981231689453,-6.515148162841797,-1.2612435966730118e-06,0.0017750420374795794,0.004964588209986687,52.269798278808594,-10.685226440429688,-60.91679763793945,-13.092607498168945,-300.0,-48.36065673828125,300.0,300.0,-30.0,-30.0
0.32,7.5,0.0,0.0,-90.06785583496094,0.022323187440633774,0.6647369265556335,3.264969825744629,0.3573565185070038,-2.0920767784118652,2.432868480682373,8.493638038635254,-7.155752658843994,-0.03898686170578003,0.0737890973687172,-1.6600911617279053,2.000063419342041,-0.8000274896621704,1.1169906854629517,-0.31408703327178955,-1.700018048286438,1.9998723268508911,-0.8000000715255737,-6.11205530166626,11.556262969970703,-20.100364685058594,-0.002964271232485771,-0.00029029505094513297,11.482519149780273,-6.1263837814331055,-0.0018858339171856642,-4.0978193283081055e-07,-0.11727143824100494,-66.15009307861328,-4.136112213134766,3.380117416381836,109.99744415283203,-300.0,-86.78512573242188,300.0,300.0,-30.0,-30.0
0.33,7.5,0.0,0.0,-90.06877136230469,0.023731760680675507,0.634313702583313,2.751023054122925,0.6639624238014221,-1.623496413230896,0.680019199848175,3.4099886417388916,-2.117171049118042,-0.09403035789728165,0.189976304769516,-1.7001490592956543,2.000001907348633,-0.8000054955482483,1.1674777269363403,-0.31970030069351196,-1.7000274658203125,1.9997228384017944,-0.7999999523162842,-7.431498050689697,10.119318008422852,-0.055080149322748184,-0.021948441863059998,8.128350600600243e-05,-0.6497234106063843,-0.6426827311515808,-0.001451633870601654,-5.21540641784668e-08,-0.16570115089416504,-245.28614807128906,19.80038070678711,-72.73692321777344,-28.275543212890625,-300.0,18.641965866088867,300.0,300.0,-30.0,-30.0
0.34,7.5,0.0,0.0,-90.06929016113281,0.027034886181354523,0.6049153804779053,2.858424186706543,0.692009449005127,-1.5195014476776123,1.8267090320587158,4.895493507385254,3.0924668312072754,-0.17015190422534943,0.21183989942073822,-1.7002400159835815,1.9999980926513672,-0.7999910712242126,1.0802574157714844,-0.37906068563461304,-1.7000333070755005,1.9997212886810303,-0.8000000715255737,-7.57969331741333,-3.641450881958008,0.011435129679739475,0.002620106562972069,-3.009336069226265e-07,-15.06904125213623,-9.720513343811035,-0.005035609006881714,-3.5762786865234375e-07,-0.2082899510860443,-300.0,101.80917358398438,-125.35661315917969,-96.7435531616211,-300.0,-34.69477462768555,300.0,200.48876953125,-30.0,-30.0
0.35000000000000003,7.5,0.0,0.0,-90.06901550292969,0.032936666160821915,0.5767257213592529,2.829180955886841,0.752058744430542,-1.2503447532653809,2.5144591331481934,4.3464250564575195,7.296383857727051,-0.2735001742839813,0.15021540224552155,-1.6734702587127686,1.9166942834854126,-0.800010085105896,0.8602724671363831,-0.4943639039993286,-1.7000373601913452,1.9997621774673462,-0.800000011920929,-12.074614524841309,-7.774153232574463,5.30461311340332,-14.133674621582031,-0.3172341585159302,-27.853500366210938,-9.017845153808594,-0.26213571429252625,0.06478732824325562,-0.015826433897018433,-253.27737426757812,8.384254455566406,-65.03257751464844,-33.19218063354492,-300.0,111.36469268798828,300.0,-137.9993133544922,-30.0,-30.0
0.36,7.5,0.0,0.0,-90.06578063964844,0.040755417197942734,0.5492072105407715,2.5621495246887207,0.7141196727752686,-0.9615698456764221,2.094770669937134,0.37923306226730347,11.173508644104004,-0.43135228753089905,0.09530917555093765,-1.5433220863342285,1.7384111881256104,-1.0368645191192627,0.5400135517120361,-0.5000278949737549,-1.700035810470581,1.9998674392700195,-0.8000000715255737,-16.46637535095215,1.8879908323287964,14.787497520446777,-10.186060905456543,-17.581466674804688,-35.303951263427734,-0.14835292100906372,0.02474081702530384,-3.6582350730895996e-06,-0.4067041277885437,-186.2931671142578,-138.21405029296875,-149.4463653564453,-56.327064514160156,-169.1862030029297,149.1844482421875,300.0,-191.15927124023438,-30.0,-30.0
0.37,7.5,0.0,0.0,-90.05643463134766,0.04938895255327225,0.5264239311218262,1.7147451639175415,0.3071219325065613,-0.045035041868686676,5.072793960571289,-6.071072578430176,16.00765037536621,-0.6605305075645447,0.02353319153189659,-1.4063218832015991,1.7057175636291504,-1.3115602731704712,0.2876668870449066,-0.4694691002368927,-1.5571786165237427,1.8980952501296997,-1.1225720643997192,-29.28968620300293,-9.629546165466309,11.764667510986328,1.0535956621170044,2.0962142944335938,-19.80279541015625,0.9573371410369873,20.13054084777832,-13.774150848388672,3.2889881134033203,-37.569305419921875,-231.3990936279297,-98.97515869140625,-122.83929443359375,300.0,211.0642547607422,-219.9298095703125,-300.0,-30.0,-30.0
0.38,7.5,0.0,0.0,-90.03861236572266,0.05908357352018356,0.5115382671356201,1.203762173652649,0.3754773437976837,0.7516264915466309,3.607004165649414,-10.405149459838867,16.278478622436523,-0.9984574913978577,-0.10231529921293259,-1.2810760736465454,1.6695311069488525,-1.4401649236679077,0.15101376175880432,-0.5006635785102844,-1.3040028810501099,1.788014531135559,-1.319284439086914,-34.96626281738281,-9.569703102111816,11.323556900024414,-9.499828338623047,40.49250411987305,-14.319952011108398,-0.17655852437019348,19.567155838012695,-5.430126190185547,2.756695508956909,-128.62599182128906,-1.77349853515625,-46.99303436279297,89.78934478759766,300.0,234.82447814941406,-300.0,-300.0,-30.0,-30.0
0.39,7.5,0.0,0.0,-90.01187133789062,0.0683021992444992,0.5038050413131714,1.2475351095199585,0.5577726364135742,1.5342919826507568,-0.7266256809234619,-13.11276912689209,18.432445526123047,-1.3900136947631836,-0.26553672552108765,-1.182100534439087,1.5625828504562378,-1.3324412107467651,0.013247671537101269,-0.49058035016059875,-1.074676275253296,1.747272253036499,-1.3653405904769897,-43.31867980957031,-11.732108116149902,11.03083610534668,-18.98828887939453,47.55306625366211,-17.638736724853516,3.907381534576416,20.68616485595703,-6.615725994110107,-6.312505722045898,-140.40171813964844,-162.85865783691406,211.9344482421875,160.21426391601562,300.0,255.89283752441406,-300.0,-300.0,-30.0,-30.0
0.4,7.5,0.0,0.0,-89.97744750976562,0.0743403434753418,0.5048214197158813,1.669885516166687,1.0834221839904785,2.458228826522827,-7.934347152709961,-10.321399688720703,8.439129829406738,-1.499057650566101,-0.49095726013183594,-0.9537199139595032,1.3106945753097534,-1.1663235425949097,-0.06294716149568558,-0.42824241518974304,-0.8453637361526489,1.6927651166915894,-1.42384672164917,0.6432316303253174,-14.450759887695312,34.47325897216797,-44.10485076904297,14.503570556640625,-7.112092018127441,9.660835266113281,20.50602912902832,-6.835140228271484,-1.57354736328125,-103.58872985839844,-207.2377166748047,300.0,300.0,300.0,285.32891845703125,-300.0,-300.0,30.0,30.0
0.41000000000000003,7.5,0.0,0.0,-89.93614959716797,0.07651972025632858,0.5131564140319824,2.095609664916992,0.9419811964035034,3.0156617164611816,-14.044656753540039,-10.097548484802246,10.700888633728027,-1.4986945390701294,-0.6263517737388611,-0.5641719102859497,0.9519306421279907,-1.0765472650527954,-0.1309507042169571,-0.2939413785934448,-0.6025992631912231,1.6114542484283447,-1.4743387699127197,0.7926902174949646,-9.730581283569336,44.8597526550293,-42.787269592285156,23.75587272644043,-11.213614463806152,16.92209815979004,22.91365623474121,-9.258607864379883,1.9189214706420898,-142.33799743652344,-300.0,300.0,300.0,300.0,300.0,-300.0,-25.148529052734375,30.0,30.0
0.42,7.5,0.0,0.0,-89.89151763916016,0.07600970566272736,0.5249336957931519,2.4718639850616455,0.1966145634651184,2.960235357284546,-15.617254257202148,-6.691725730895996,9.373746871948242,-1.4944580793380737,-0.7026709318161011,-0.17865701019763947,0.6504178643226624,-0.7510407567024231,-0.22152350842952728,-0.1266472488641739,-0.34566813707351685,1.4831622838974,-1.5052449703216553,-0.0014464855194091797,-1.5600553750991821,35.288814544677734,-12.904804229736328,0.0002498626708984375,-10.273765563964844,19.048763275146484,24.0859375,-14.092374801635742,7.436575412750244,-103.72315979003906,-135.0888214111328,290.43182373046875,300.0,300.0,240.90127563476562,-300.0,265.24945068359375,30.0,-30.0
0.43,7.5,0.0,0.0,-89.8468246459961,0.07470372319221497,0.539689302444458,2.894848346710205,-0.3883398771286011,2.759918451309204,-12.96507453918457,-4.662087917327881,1.4895682334899902,-1.3405817747116089,-0.641775906085968,0.09196031093597412,0.8480526208877563,-0.7997745275497437,-0.28651657700538635,0.03770245611667633,-0.07613179087638855,1.2627754211425781,-1.4860566854476929,22.960493087768555,8.942596435546875,22.249958038330078,38.014835357666016,-0.20379844307899475,-5.286472320556641,15.287386894226074,30.977436065673828,-29.07119369506836,14.059367179870605,-85.36603546142578,214.6897430419922,189.0325927734375,300.0,300.0,-196.00167846679688,-300.0,181.46682739257812,30.0,-23.88212776184082
0.44,7.5,0.0,0.0,-89.80217742919922,0.0730990469455719,0.5566616654396057,3.6542246341705322,-0.7581648826599121,2.5680575370788574,-12.965246200561523,1.43293297290802,-7.107941150665283,-0.9729575514793396,-0.33186355233192444,0.27641740441322327,1.2819263935089111,-0.7992221117019653,-0.2635778784751892,0.19269417226314545,0.20034514367580414,0.9390960931777954,-1.3997735977172852,40.685760498046875,41.907859802246094,14.267327308654785,45.0924072265625,-0.0017438530921936035,5.785231590270996,16.696517944335938,27.18447494506836,-37.313453674316406,18.291950225830078,-27.731884002685547,300.0,148.94281005859375,300.0,96.36860656738281,-300.0,-300.0,10.836593627929688,30.0,-30.0
0.45,7.5,0.0,0.0,-89.75509643554688,0.07079238444566727,0.5723820924758911,3.61676287651062,-0.41610783338546753,1.910491943359375,-15.341967582702637,-4.615440368652344,-12.274179458618164,-0.6768425107002258,0.07585199922323227,0.33367252349853516,1.5504707098007202,-0.7997711300849915,-0.11337383091449738,0.41754665970802307,0.5675000548362732,0.4539351761341095,-1.1162207126617432,30.607791900634766,43.11038589477539,4.7658491134643555,18.11861801147461,-0.0021540187299251556,22.964099884033203,29.51824378967285,35.598609924316406,-49.7573127746582,43.2048225402832,88.94849395751953,300.0,151.5880889892578,57.0833740234375,300.0,-120.16744995117188,-300.0,-170.68576049804688,30.0,-30.0
0.46,7.5,0.0,0.0,-89.70889282226562,0.07179124653339386,0.5852245092391968,3.305614471435547,-0.0745953768491745,1.3125734329223633,-10.473090171813965,-11.355966567993164,-11.45386791229248,-0.4522094130516052,0.3328298032283783,0.36785322427749634,1.6262480020523071,-0.8000683188438416,0.13983412086963654,0.7881121635437012,0.7793487906455994,0.2732650637626648,-0.6803693771362305,21.393028259277344,18.145627975463867,4.880219459533691,-0.15083862841129303,-0.10305638611316681,41.49298095703125,49.82037353515625,3.8743019104003906e-07,9.134425163269043,42.16510772705078,177.6561737060547,300.0,-0.9603118896484375,-293.3099060058594,300.0,90.58506774902344,231.90069580078125,-168.0694580078125,-21.482894897460938,-30.0
0.47000000000000003,7.5,0.0,0.0,-89.66780853271484,0.0739440768957138,0.601104736328125,3.3886704444885254,-0.49980413913726807,1.5267337560653687,-1.9287500381469727,-5.122788429260254,-9.936586380004883,-0.17782284319400787,0.5000068545341492,0.2712443768978119,1.6964685916900635,-0.8000794053077698,0.15977734327316284,0.9053322672843933,0.780215859413147,0.739997923374176,-0.7015011310577393,25.98271942138672,0.011379971168935299,-14.473670959472656,10.64526653289795,0.014470900408923626,-0.9653926491737366,-2.5850322246551514,-0.03434573858976364,50.00000762939453,-0.4557499885559082,-9.735092163085938,250.25003051757812,-209.51968383789062,-120.97366333007812,300.0,-76.50975036621094,300.0,1.9696884155273438,2.0976085662841797,-30.0
0.48,7.5,0.0,0.0,-89.63128662109375,0.0816454142332077,0.6182595491409302,3.7132279872894287,-0.31985780596733093,1.5112053155899048,1.8303054571151733,1.1136196851730347,-7.079338073730469,0.10050415247678757,0.4503205716609955,0.0409131683409214,1.8386648893356323,-0.8001121878623962,0.08434451371431351,0.6590617299079895,0.7800500988960266,1.1974750757217407,-0.7846043109893799,27.31098747253418,-8.478835105895996,-27.214252471923828,16.542686462402344,0.013724308460950851,-13.41958236694336,-40.42924880981445,0.052469298243522644,45.910831451416016,-9.675155639648438,-125.98446655273438,-81.47196960449219,-298.9708251953125,4.862673759460449,300.0,-139.32879638671875,7.8269195556640625,26.287002563476562,-6.782646179199219,-30.0
0.49,7.5,0.0,0.0,-89.59425354003906,0.0919753909111023,0.633439838886261,3.677926778793335,-0.1313588172197342,1.2120596170425415,5.823171615600586,-2.5930142402648926,-4.527966499328613,0.2116222232580185,0.26099148392677307,-0.054812412708997726,1.9428799152374268,-0.8000791668891907,0.029331805184483528,0.31421926617622375,0.7801815867424011,1.4932149648666382,-0.8000002503395081,0.9804832935333252,-24.58127784729004,-3.111585855484009,10.431194305419922,0.010229108855128288,-5.958637237548828,-39.804073333740234,0.01118436548858881,25.39307403564453,-1.09965594674577e-05,-0.7402725219726562,-161.48373413085938,-161.0998992919922,-113.6812515258789,300.0,82.17871856689453,-71.02632904052734,44.14058303833008,-30.0,-30.0
0.5,7.5,0.0,0.0,-89.55461120605469,0.1027778834104538,0.6462475061416626,3.845088243484497,-0.08795425295829773,0.8376203179359436,7.703826427459717,-4.288376331329346,-3.1510376930236816,0.19457966089248657,0.0055549354292452335,-0.055485304445028305,1.999991536140442,-0.8000521063804626,-0.001126373652368784,-0.03809497505426407,0.7803336977958679,1.6301685571670532,-0.8000001907348633,-5.102454662322998,-27.45416831970215,1.9814428091049194,1.6205012798309326e-06,-0.17156073451042175,-4.658407688140869,-39.207603454589844,-0.014971941709518433,7.198399543762207,-0.0036546180490404367,-34.83136749267578,-82.5363540649414,-133.48251342773438,-58.831787109375,300.0,8.59747314453125,-159.8887939453125,10.296894073486328,-30.0,-30.0
0.51,7.5,0.0,0.0,-89.51298522949219,0.11154231429100037,0.6577091217041016,3.9251649379730225,-0.04526950418949127,0.3850782811641693,6.312444686889648,-4.241899013519287,-3.5118770599365234,0.15684586763381958,-0.2239730805158615,-0.07151036709547043,2.000033140182495,-0.8000156283378601,-0.0262350644916296,-0.3345458507537842,0.7801262736320496,1.6596567630767822,-0.8000002503395081,-4.803751468658447,-21.40485191345215,-3.8630847930908203,-0.0016203098930418491,0.0027516542468219995,-2.655885696411133,-28.506744384765625,-0.005855690222233534,0.11228996515274048,1.7398458567186026e-06,-5.549433708190918,-38.72850036621094,-29.186630249023438,48.37133026123047,300.0,-91.42208862304688,-67.50393676757812,89.26726531982422,-30.0,-30.0
0.52,7.5,0.0,0.0,-89.4712905883789,0.11714639514684677,0.6680732369422913,4.041652202606201,0.12520286440849304,0.20744222402572632,2.40683913230896,-1.9708706140518188,-3.2935354709625244,0.07545878738164902,-0.3862394690513611,-0.17365635931491852,2.000030040740967,-0.7994258999824524,-0.027512473985552788,-0.499957799911499,0.7799333930015564,1.6755378246307373,-0.8000003695487976,-11.406523704528809,-11.568411827087402,-15.606945991516113,-0.013721861876547337,-0.03241496533155441,3.2398030757904053,-0.0010026274248957634,3.4458935260772705e-07,3.4579365253448486,-0.019466551020741463,-7.7860612869262695,-29.300437927246094,-20.592849731445312,66.40245056152344,300.0,-139.20867919921875,22.46385383605957,165.31834411621094,-30.0,-30.0
0.53,7.5,0.0,0.0,-89.43017578125,0.11942709982395172,0.6784032583236694,3.983949661254883,0.2828502357006073,0.030785564333200455,0.6013080477714539,-2.297039747238159,-4.0532402992248535,0.01140157412737608,-0.4276703894138336,-0.3137241303920746,2.000000476837158,-0.7999867796897888,0.004223128780722618,-0.5000468492507935,0.7799910306930542,1.7189977169036865,-0.8000001907348633,-2.671482801437378,-0.19353163242340088,-12.253616333007812,-0.0008535054512321949,-9.015766408992931e-05,3.3573474884033203,-0.00010038118489319459,0.002276116283610463,4.9105329513549805,-8.955026942203403e-07,45.444950103759766,41.622901916503906,-54.24528503417969,153.0995635986328,300.0,35.07255935668945,13.614458084106445,300.0,-30.0,-30.0
0.54,7.5,0.0,0.0,-89.38886260986328,0.12073547393083572,0.6875855922698975,4.0182085037231445,0.4169599115848541,-0.1972484588623047,0.5928717255592346,-1.7284036874771118,-4.466796875,-0.011933102272450924,-0.4193277955055237,-0.4469885528087616,2.000001907348633,-0.8000153303146362,0.031213466078042984,-0.4999912679195404,0.7800589799880981,1.747811198234558,-0.8000003695487976,-1.7809569835662842,1.131221055984497,-13.865874290466309,-0.0023490511812269688,0.0007977586355991662,2.1629512310028076,-0.0005824610707350075,-0.0025426156353205442,1.3403977155685425,-1.39700171075674e-06,-39.83197784423828,26.21147918701172,-166.79713439941406,-8.214252471923828,300.0,-44.96946716308594,-32.908531188964844,300.0,-30.0,-30.0
0.55,7.5,0.0,0.0,-89.3466796875,0.12185785174369812,0.6958863139152527,4.014775276184082,0.46760374307632446,-0.3716147840023041,1.7303674221038818,-2.628746509552002,-2.8778960704803467,-0.01657170057296753,-0.42319053411483765,-0.5543340444564819,1.9997364282608032,-0.7999997735023499,0.034033551812171936,-0.5000323057174683,0.7801018953323364,1.7292019128799438,-0.8000002503395081,0.3977661728858948,-2.18678617477417,-8.200543403625488,-9.426474571228027e-05,-0.00024027196923270822,-1.220481038093567,-0.001418803003616631,-0.008579554967582226,-4.180365562438965,-0.004379580728709698,-68.47760009765625,-16.478435516357422,-154.3067169189453,-97.9828109741211,300.0,80.3583984375,-60.455787658691406,300.0,-30.0,-30.0
0.56,7.5,0.0,0.0,-89.30406951904297,0.12222658842802048,0.7056278586387634,4.2604169845581055,0.43136197328567505,-0.1821306049823761,0.9652145504951477,-1.305791974067688,0.4231189787387848,-0.018247991800308228,-0.4337930381298065,-0.6117082238197327,1.9994220733642578,-0.8000171184539795,-0.038147781044244766,-0.47328898310661316,0.7032590508460999,1.6759809255599976,-0.7999998927116394,0.2788156569004059,-0.21128608286380768,-1.37074613571167,4.76837158203125e-07,-0.5977175831794739,-9.332296371459961,6.102649211883545,-9.052528381347656,-8.719868659973145,-1.5313271433115005e-06,-44.847747802734375,-69.94914245605469,110.69406127929688,7.333925247192383,-300.0,211.29039001464844,-113.57743835449219,300.0,-30.0,-30.0
0.5700000000000001,7.5,0.0,0.0,-89.26223754882812,0.120859794318676,0.7173312902450562,4.363037109375,0.3995189070701599,-0.0013694921508431435,-1.4109214544296265,0.35976722836494446,1.0648376941680908,0.022581033408641815,-0.4083770513534546,-0.6010730862617493,1.999515175819397,-0.7999750971794128,-0.09516596049070358,-0.3096022605895996,0.5748801827430725,1.6065402030944824,-0.8000003099441528,7.376428604125977,4.875788688659668,5.146414756774902,-0.00018396973609924316,-0.03973834589123726,-1.1812180280685425,24.17041778564453,-11.934906005859375,-7.521840572357178,-0.009763145819306374,117.33692932128906,-10.841614723205566,160.38165283203125,79.11283874511719,-300.0,192.96902465820312,-36.60963439941406,300.0,-30.0,-30.0
0.58,7.5,0.0,0.0,-89.2221908569336,0.12054131925106049,0.7275388836860657,4.496107578277588,0.42766475677490234,-0.08838547021150589,0.0026643434539437294,4.629350185394287,2.2385475635528564,0.05871441587805748,-0.3689626157283783,-0.5947732329368591,1.9999263286590576,-0.7999712824821472,-0.09741828590631485,-0.15241222083568573,0.36008408665657043,1.6344490051269531,-0.8000003695487976,2.038267135620117,3.266453266143799,-0.24309077858924866,-4.1775405406951904e-05,-0.04591992497444153,1.5590474605560303,12.926641464233398,-26.111845016479492,8.42005729675293,-0.002734421519562602,171.4530792236328,-65.421630859375,-97.74472045898438,38.791358947753906,-300.0,110.83524322509766,82.7913818359375,300.0,-30.0,-30.0
0.59,7.5,0.0,0.0,-89.18325805664062,0.12224653363227844,0.7346358299255371,4.559996604919434,0.4950311779975891,-0.19023126363754272,0.08204717934131622,6.597811698913574,2.324033498764038,0.07393291592597961,-0.320887953042984,-0.6073582768440247,2.000035524368286,-0.7999212145805359,-0.07640956342220306,-0.10054733604192734,0.06023106724023819,1.757009744644165,-0.8000004887580872,1.2097179889678955,5.966659069061279,-1.5312814712524414,-0.005932327825576067,-0.005760719534009695,2.6178476810455322,1.7797476053237915,-33.5947380065918,17.23002815246582,1.242221514985431e-06,134.33062744140625,-14.038501739501953,-182.79010009765625,140.53311157226562,-196.1200408935547,101.16783905029297,106.40485382080078,300.0,-30.0,-30.0
0.6,7.5,0.0,0.0,-89.14311981201172,0.12483242154121399,0.7387489080429077,4.5258469581604,0.5279026031494141,-0.2918368875980377,0.12522301077842712,4.369221210479736,1.21241295337677,0.09218096733093262,-0.24530979990959167,-0.5996751189231873,2.00002384185791,-0.8000094890594482,-0.03844095766544342,-0.13369755446910858,-0.22409658133983612,1.8762321472167969,-0.8000004291534424,1.556928038597107,8.385946273803711,2.253173589706421,-0.003302288707345724,-0.0035164132714271545,5.129398345947266,-6.180586338043213,-26.660852432250977,12.485648155212402,-2.6714742489275523e-06,77.52572631835938,-19.43905258178711,-178.3351593017578,92.01993560791016,-1.1855621337890625,66.785400390625,72.28936767578125,300.0,-30.0,-30.0
0.61,7.5,0.0,0.0,-89.10231018066406,0.12746630609035492,0.7396520972251892,4.858551025390625,0.4550597667694092,-0.39685797691345215,-0.15580584108829498,7.913390636444092,1.913464069366455,0.07041201740503311,-0.15515179932117462,-0.616101861000061,2.000058889389038,-0.799946665763855,-0.019079886376857758,-0.21554283797740936,-0.5207341313362122,1.9719980955123901,-0.8000003099441528,-4.639898300170898,9.000584602355957,-4.348170280456543,-0.009141592308878899,-0.003973026759922504,0.05876488983631134,-8.868399620056152,-33.4276008605957,10.006730079650879,-3.3172766507050255e-06,6.067465782165527,-41.32686996459961,-20.899120330810547,-13.68162727355957,-174.4804229736328,-5.711840629577637,11.947216033935547,300.0,-30.0,-30.0
0.62,7.5,0.0,0.0,-89.06039428710938,0.12963798642158508,0.7380570769309998,5.185844421386719,0.4355473816394806,-0.27357515692710876,-0.29284757375717163,8.661015510559082,1.6237249374389648,0.06293407082557678,-0.0819167047739029,-0.6417096853256226,1.999969244003296,-0.799938440322876,-0.12038815766572952,-0.2684835195541382,-0.8634641766548157,2.0000951290130615,-0.800000011920929,1.3870701789855957,5.360579967498779,-1.988123893737793,-1.438334584236145e-05,-0.09841085970401764,-16.65877342224121,-1.565786361694336,-37.53367233276367,2.048731565475464,-5.0489143177401274e-05,-71.34114074707031,25.083702087402344,123.74836730957031,-129.6060791015625,-186.76690673828125,81.7972640991211,126.66446685791016,300.0,-16.992738723754883,-27.775238037109375
0.63,7.5,0.0,0.0,-89.01524353027344,0.13213025033473969,0.7361060380935669,4.745826721191406,0.3022487163543701,0.023044845089316368,2.1061668395996094,1.0219193696975708,-0.9221969842910767,0.1216375008225441,-0.07133965194225311,-0.5793648958206177,1.9995806217193604,-0.8000471591949463,-0.16981683671474457,-0.2998902201652527,-1.0862441062927246,1.9999134540557861,-0.800000011920929,7.733299732208252,-2.565683364868164,11.42446231842041,1.5050172805786133e-06,-0.3689865171909332,1.134911060333252,-7.267518997192383,-14.386990547180176,0.0049817729741334915,0.0009525400819256902,89.02391815185547,-17.491317749023438,-10.907119750976562,-171.96151733398438,196.3339385986328,104.45196533203125,300.0,300.0,-2.7391676902770996,-26.958166122436523
0.64,7.5,0.0,0.0,-88.96917724609375,0.13454259932041168,0.7343225479125977,4.447320938110352,0.30223092436790466,0.027168892323970795,1.5114860534667969,-0.5189598798751831,-3.832371473312378,0.10986178368330002,-0.06520687788724899,-0.4969169497489929,2.0000064373016357,-0.8000355958938599,-0.007271219976246357,-0.4498503506183624,-1.122184157371521,1.9998847246170044,-0.8000001907348633,-8.10482120513916,2.3198904991149902,5.084898948669434,-0.000621817191131413,0.0005070306360721588,27.277965545654297,-19.870237350463867,4.814248561859131,3.8929283618927e-07,-0.06267186999320984,210.2327117919922,-167.44691467285156,1.4557571411132812,17.600452423095703,300.0,-241.880615234375,300.0,300.0,-30.0,-30.0
0.65,7.5,0.0,0.0,-88.92476654052734,0.13519009947776794,0.7313796281814575,5.147323131561279,0.6024108529090881,-0.060466114431619644,-1.431120753288269,7.748069763183594,-1.7469991445541382,-0.03793570399284363,-0.018466386944055557,-0.5452153086662292,2.0000662803649902,-0.7999891638755798,0.007174805738031864,-0.4584369659423828,-1.242621898651123,2.0000367164611816,-0.8000002503395081,-18.470294952392578,6.680843353271484,-11.913156509399414,-0.005412109661847353,-0.0030254891607910395,-13.020834922790527,10.00393009185791,-24.16920280456543,-0.010964065790176392,2.955992385977879e-06,-203.18930053710938,-52.404144287109375,210.60440063476562,-13.5237398147583,-110.2509765625,-243.7196807861328,300.0,300.0,-30.0,-30.0
0.66,7.5,0.0,0.0,-88.88021087646484,0.13506640493869781,0.7270505428314209,5.027283668518066,0.7640947103500366,0.19195973873138428,-1.7812857627868652,4.695188999176025,-1.762376308441162,-0.07930193096399307,0.034353844821453094,-0.6006196737289429,1.9995118379592896,-0.7999816536903381,-0.12846620380878448,-0.2416241317987442,-1.453558325767517,2.000021457672119,-0.800000011920929,4.699428081512451,2.1777167320251465,-1.5905263423919678,-0.00015783309936523438,-0.02925950661301613,-14.351943969726562,28.527421951293945,-18.825075149536133,-0.0019957732874900103,0.0033200355246663094,-40.07427215576172,178.70266723632812,161.551025390625,-132.57762145996094,-34.03321075439453,173.91207885742188,300.0,300.0,-10.914048194885254,-30.0
0.67,7.5,0.0,0.0,-88.8335952758789,0.1364949345588684,0.7242006063461304,4.461724281311035,0.6405758261680603,0.5179746747016907,3.193941116333008,-1.3553135395050049,-4.7184529304504395,0.021071607246994972,-0.029251379892230034,-0.5730777382850647,1.9999845027923584,-0.8000439405441284,-0.06993284076452255,-0.1601775884628296,-1.4767796993255615,1.999765396118164,-0.8000001311302185,13.214861869812012,-12.297250747680664,5.943504810333252,0.0014765624655410647,-0.0035350045654922724,13.317355155944824,-4.300691604614258,4.973479747772217,6.109476089477539e-07,-0.38589397072792053,155.7799530029297,18.49384307861328,-171.44259643554688,-192.97879028320312,221.65013122558594,34.9404182434082,300.0,300.0,-22.767229080200195,-30.0
0.68,7.5,0.0,0.0,-88.78665924072266,0.14067873358726501,0.7217380404472351,4.278496742248535,0.7960258722305298,0.2613580822944641,7.045679092407227,-0.8920466899871826,-7.338480472564697,0.11364174634218216,-0.174965038895607,-0.5377645492553711,2.0001237392425537,-0.80007404088974,0.18067048490047455,-0.3801071345806122,-1.3550666570663452,1.999849796295166,-0.8000003099441528,4.961387634277344,-16.242013931274414,0.29099443554878235,-0.008390773087739944,0.002630433300510049,33.26068115234375,-33.86537551879883,17.684844970703125,-4.470348358154297e-08,-0.32521823048591614,143.75363159179688,-104.31236267089844,-242.875732421875,-10.536033630371094,237.8717803955078,-210.43417358398438,300.0,300.0,-30.0,-30.0
0.6900000000000001,7.5,0.0,0.0,-88.74179077148438,0.14279647171497345,0.7175629734992981,4.946402549743652,1.264056921005249,0.15894904732704163,-0.42302584648132324,6.835982322692871,-4.877864360809326,0.006735187955200672,-0.21712124347686768,-0.6696202754974365,2.0000829696655273,-0.7999846339225769,0.3445020914077759,-0.445446252822876,-1.3006930351257324,2.0000858306884766,-0.7999999523162842,-21.18516731262207,5.353842258453369,-22.677915573120117,-0.0056175608187913895,-0.0015103931073099375,6.152562141418457,5.626727104187012,-5.6069440841674805,-0.00820310227572918,0.00027900791610591114,-120.17947387695312,-116.11436462402344,200.24375915527344,254.40904235839844,-140.64776611328125,-264.47711181640625,300.0,300.0,-30.0,-30.0
0.7000000000000001,7.5,0.0,0.0,-88.69829559326172,0.14172402024269104,0.7111259698867798,4.955941200256348,1.4756712913513184,0.31266868114471436,-2.0279195308685303,7.14290714263916,-4.061500072479248,-0.11720284819602966,-0.09110330045223236,-0.8486645221710205,2.00000262260437,-0.8000302910804749,0.35882675647735596,-0.3422529399394989,-1.3845402002334595,1.9999994039535522,-0.8000003695487976,-9.210288047790527,14.939705848693848,-16.495380401611328,-0.0007128308643586934,-0.00031815949478186667,-1.8172742128372192,13.118745803833008,-10.212860107421875,4.598405212163925e-07,-0.008388722315430641,-105.52579498291016,75.31587219238281,15.072040557861328,85.02155303955078,-6.128437042236328,-4.9069061279296875,300.0,300.0,-30.0,-30.0
0.71,7.5,0.0,0.0,-88.65422058105469,0.14095892012119293,0.7031828165054321,4.817468166351318,1.6375982761383057,0.503858208656311,-1.0882887840270996,5.45424747467041,-3.5687506198883057,-0.13040387630462646,0.016627758741378784,-0.9608063697814941,1.999781608581543,-0.7999600172042847,0.36136767268180847,-0.224826380610466,-1.474088191986084,2.0000503063201904,-0.8000003695487976,2.5873959064483643,6.409800052642822,-8.50954532623291,-5.7220458984375e-05,-0.06399166584014893,0.9487881660461426,10.290218353271484,-8.70975112915039,0.0005652076797559857,-0.0003459149447735399,25.306894302368164,35.74168014526367,-33.52623748779297,-149.1674346923828,-109.10857391357422,142.40689086914062,300.0,300.0,-30.0,-30.0
0.72,7.5,0.0,0.0,-88.60928344726562,0.1418275237083435,0.6940973997116089,4.746538162231445,1.6960302591323853,0.6443952322006226,1.5897022485733032,5.261100769042969,-4.033003807067871,-0.08495166152715683,0.01680753007531166,-1.0516096353530884,2.0000014305114746,-0.799973726272583,0.41559961438179016,-0.18336065113544464,-1.537275791168213,1.9999979734420776,-0.800000011920929,5.3567280769348145,-4.781704902648926,-9.368682861328125,-0.002579455031082034,-0.001130879856646061,7.883579254150391,-0.15693238377571106,-4.939483642578125,-5.878973752260208e-08,-0.001091784331947565,92.66960144042969,-52.53287887573242,-42.960533142089844,-172.7680206298828,-17.430133819580078,-0.08216476440429688,300.0,300.0,-30.0,-30.0
0.73,7.5,0.0,0.0,-88.56403350830078,0.1439511626958847,0.683795154094696,4.7742600440979,1.8176631927490234,0.692844808101654,2.8309388160705566,6.422267913818359,-4.17562198638916,-0.06745757162570953,-0.03731122240424156,-1.1664745807647705,2.0000250339508057,-0.7999885678291321,0.5178223848342896,-0.22802896797657013,-1.5795750617980957,1.999970555305481,-0.800000011920929,-0.8549605011940002,-5.623657703399658,-13.075511932373047,-0.002715363400056958,-0.001645284821279347,11.730481147766113,-7.014712333679199,-3.7276289463043213,-8.195638656616211e-08,-0.03142205625772476,82.32199096679688,-98.68103790283203,-13.631147384643555,-48.335906982421875,7.537569046020508,-76.41848754882812,300.0,300.0,-30.0,-30.0
0.74,7.5,0.0,0.0,-88.51892852783203,0.1468372642993927,0.6716095209121704,4.894787788391113,2.086298942565918,0.7179592251777649,2.380042791366577,8.095701217651367,-2.1633100509643555,-0.13712315261363983,-0.05191270634531975,-1.317248821258545,2.000001907348633,-0.7999807000160217,0.6076533794403076,-0.29964280128479004,-1.635797142982483,2.0000264644622803,-0.7999999523162842,-10.76110553741455,1.2458866834640503,-16.329320907592773,-0.003251252695918083,-5.811452865600586e-07,6.91028356552124,-6.773895740509033,-7.348801136016846,-0.0013247057795524597,-1.571570464875549e-07,-19.16738510131836,-100.25382995605469,8.753952026367188,11.504630088806152,-71.341796875,-34.83684539794922,300.0,300.0,-30.0,-30.0
0.75,7.5,0.0,0.0,-88.4730224609375,0.15044279396533966,0.6582115888595581,4.527629375457764,2.122833490371704,1.078112006187439,3.8055293560028076,4.348296642303467,0.6031804084777832,-0.23882149159908295,-0.06811924278736115,-1.4456342458724976,1.9999876022338867,-0.8000578880310059,0.6401290893554688,-0.3529227674007416,-1.7000524997711182,1.998976469039917,-0.800000011920929,-10.040231704711914,-6.941921234130859,-8.333698272705078,0.000672563910484314,-0.2348875254392624,2.737316370010376,-4.681331157684326,0.13208961486816406,3.390014171600342e-07,-0.06763781607151031,-90.2188720703125,-12.188751220703125,-5.86503791809082,-96.06484985351562,-105.53816986083984,146.0028533935547,300.0,156.19973754882812,-30.0,-30.0
0.76,7.5,0.0,0.0,-88.42518615722656,0.1544700413942337,0.6457366347312927,4.452322006225586,2.2386276721954346,1.1846745014190674,3.1129813194274902,3.0590577125549316,2.6779794692993164,-0.35262030363082886,-0.13736239075660706,-1.498313546180725,1.9656656980514526,-0.7999961972236633,0.6434616446495056,-0.40233904123306274,-1.7000025510787964,1.9999899864196777,-0.800000011920929,-11.852413177490234,-7.4678850173950195,-2.4681575298309326,-5.422079563140869,-0.000271080614766106,-1.450297236442566,-5.195135116577148,4.7744353651069105e-05,-1.1175870895385742e-08,-0.009285776875913143,-85.15798950195312,-6.61883544921875,-40.304603576660156,-15.719436645507812,-287.6163330078125,138.04505920410156,300.0,-26.44277572631836,-30.0,-30.0
0.77,7.5,0.0,0.0,-88.37616729736328,0.1591050773859024,0.6340253949165344,4.440184116363525,2.3306021690368652,1.3444855213165283,2.44633150100708,2.1990442276000977,4.885190486907959,-0.48687678575515747,-0.20329724252223969,-1.484216332435608,1.8225769996643066,-0.7999858856201172,0.6025384068489075,-0.46615710854530334,-1.7000104188919067,1.9999327659606934,-0.800000011920929,-14.20786190032959,-6.473064422607422,4.5667009353637695,-20.03672981262207,-0.000657321885228157,-6.133657455444336,-7.313149452209473,-0.000880627310834825,1.0803341865539551e-07,-0.05997811630368233,-102.71411895751953,-22.812057495117188,-54.05875015258789,-4.374034881591797,-257.6187438964844,132.97994995117188,300.0,-117.66133880615234,-30.0,-30.0
0.78,7.5,0.0,0.0,-88.3255615234375,0.16409751772880554,0.6230603456497192,4.418843746185303,2.277459144592285,1.4824721813201904,1.3550136089324951,0.1345590353012085,7.395428657531738,-0.6387982368469238,-0.26050469279289246,-1.3884377479553223,1.6611759662628174,-0.9292700290679932,0.5032406449317932,-0.5000059604644775,-1.7000174522399902,1.9998998641967773,-0.800000011920929,-15.305331230163574,-2.860741138458252,10.029596328735352,-13.112750053405762,5.49603271484375,-12.616092681884766,-0.0802130252122879,-0.2085331231355667,-7.051974534988403e-06,-0.26120784878730774,-100.92420959472656,-45.392433166503906,-96.62345886230469,-29.105884552001953,-90.70391082763672,127.56532287597656,300.0,-86.62103271484375,-30.0,30.0
0.79,7.5,0.0,0.0,-88.27141571044922,0.16932320594787598,0.6157824993133545,4.059403896331787,2.0970547199249268,1.912752389907837,2.4802210330963135,-7.068976402282715,10.098048210144043,-0.8166784644126892,-0.359682559967041,-1.2748171091079712,1.578704595565796,-0.9310571551322937,0.41305455565452576,-0.500052273273468,-1.5812456607818604,1.9994693994522095,-0.800000011920929,-18.013782501220703,-13.432963371276855,13.585807800292969,-10.694347381591797,24.981483459472656,-6.90592098236084,0.1585114598274231,19.936010360717773,-8.139759302139282e-06,-0.19092600047588348,-46.56452941894531,-93.28938293457031,-73.89794921875,-39.263370513916016,300.0,169.045166015625,300.0,-275.5018615722656,-30.0,-18.66534423828125
0.8,7.5,0.0,0.0,-88.21076965332031,0.17492976784706116,0.6144986748695374,4.579313278198242,1.9640624523162842,2.004096508026123,0.2557837963104248,-10.078594207763672,17.696874618530273,-1.0900126695632935,-0.5162736773490906,-1.132012963294983,1.445133090019226,-0.9441652297973633,0.3038368821144104,-0.49997490644454956,-1.2986154556274414,1.9882709980010986,-0.8000000715255737,-32.882781982421875,-12.556116104125977,19.544063568115234,-34.84101867675781,56.77230453491211,-16.813552856445312,4.8102810978889465e-06,28.809947967529297,-0.16092020273208618,0.030214350670576096,-269.65216064453125,-197.82696533203125,-209.04476928710938,300.0,300.0,300.0,97.79645538330078,-300.0,-30.0,-30.0
0.81,7.5,0.0,0.0,-88.14376831054688,0.1806112825870514,0.618966817855835,5.4471516609191895,0.9556856751441956,2.041332483291626,-0.3211328387260437,-9.792359352111816,22.739927291870117,-1.4191665649414062,-0.6946722269058228,-0.9472932815551758,1.1261736154556274,-0.8825743198394775,0.11461880058050156,-0.4977039694786072,-0.9560893774032593,1.7646757364273071,-0.7999997735023499,-44.6678581237793,-11.19601821899414,17.192298889160156,-51.627506256103516,57.99095153808594,-27.945419311523438,1.4950929880142212,32.80595779418945,-36.23078918457031,8.866627467796206e-07,-300.0,-271.3831787109375,-56.897613525390625,300.0,300.0,300.0,-300.0,-300.0,-30.0,-30.0
0.8200000000000001,7.5,0.0,0.0,-88.07432556152344,0.1831786185503006,0.6267346143722534,5.554782867431641,0.2181699573993683,1.7722381353378296,-6.090975284576416,-10.381525993347168,14.599027633666992,-1.4642316102981567,-0.8785799741744995,-0.5733373165130615,0.6905402541160583,-0.6439780592918396,-0.048006683588027954,-0.43033167719841003,-0.6080324053764343,1.5476329326629639,-1.0481294393539429,8.509734153747559,-18.406625747680664,49.06894302368164,-44.54646682739258,35.9022102355957,-14.771610260009766,7.677671909332275,32.91048812866211,-19.02559471130371,-24.57724952697754,-109.60393524169922,108.97124481201172,300.0,300.0,300.0,300.0,-300.0,90.70474243164062,30.0,30.0
0.8300000000000001,7.5,0.0,0.0,-88.00861358642578,0.18312938511371613,0.6388357281684875,5.69337272644043,-0.4411008358001709,1.7531318664550781,-6.080564975738525,-6.005534648895264,10.95107650756836,-1.3829097747802734,-0.9363395571708679,-0.2201242595911026,0.5197018980979919,-0.4497947692871094,-0.13563430309295654,-0.3638293743133545,-0.36178016662597656,1.4392563104629517,-1.1168705224990845,12.268668174743652,-2.8261325359344482,32.14004898071289,-4.319447994232178,29.502273559570312,-11.327987670898438,6.497750282287598,21.895448684692383,-12.521228790283203,0.21567249298095703,-198.95623779296875,148.05795288085938,300.0,300.0,300.0,-101.58918762207031,-300.0,154.76551818847656,30.0,-10.282882690429688
0.84,7.5,0.0,0.0,-87.9438705444336,0.18251317739486694,0.6562034487724304,5.870415687561035,-0.9248893857002258,1.9735630750656128,-6.066966533660889,-3.704449415206909,6.331561088562012,-1.2310134172439575,-0.8736482858657837,0.0071430085226893425,0.7032061219215393,-0.47495853900909424,-0.20057059824466705,-0.28785383701324463,-0.1378294825553894,1.2865968942642212,-1.156587839126587,18.57582664489746,9.574748992919922,18.5959415435791,28.882980346679688,-2.348295211791992,-5.130549430847168,7.097305774688721,22.02948760986328,-19.4576473236084,11.809818267822266,-250.0730438232422,247.08975219726562,300.0,300.0,300.0,-244.27389526367188,-300.0,59.122581481933594,30.0,7.84633731842041
0.85,7.5,0.0,0.0,-87.8783950805664,0.1805025339126587,0.678817093372345,6.194064140319824,-1.2064789533615112,2.1365890502929688,-7.4583845138549805,-2.100423812866211,2.5453715324401855,-0.9613033533096313,-0.6503947973251343,0.17162640392780304,1.036989450454712,-0.682584285736084,-0.22048887610435486,-0.19876177608966827,0.10735110193490982,1.048559308052063,-1.1281884908676147,35.956199645996094,29.10556411743164,19.002023696899414,33.41753387451172,-21.765783309936523,-0.16206789016723633,9.211688995361328,23.56479263305664,-27.63642120361328,22.354690551757812,-296.0567626953125,300.0,300.0,300.0,300.0,-300.0,-300.0,-28.847442626953125,30.0,-3.5796356201171875
0.86,7.5,0.0,0.0,-87.8116226196289,0.1760805994272232,0.7038620710372925,6.317188739776611,-1.396085262298584,1.8357861042022705,-9.327397346496582,-2.198884963989258,-3.9793694019317627,-0.6738519668579102,-0.27528730034828186,0.1675671637058258,1.3967260122299194,-0.79951012134552,-0.19674023985862732,-0.09098201245069504,0.42850857973098755,0.6624362468719482,-1.0049668550491333,31.310548782348633,43.301334381103516,-6.118901252746582,36.841590881347656,0.004771724343299866,6.036633491516113,12.892013549804688,34.92195129394531,-46.286582946777344,21.208154678344727,-210.97499084472656,300.0,216.89309692382812,300.0,300.0,-300.0,-300.0,13.09136962890625,30.0,-30.0
0.87,7.5,0.0,0.0,-87.7452392578125,0.17451341450214386,0.7249650955200195,6.809610366821289,-1.1311516761779785,1.1529446840286255,-3.505035877227783,5.7221598625183105,-4.821923732757568,-0.4923812448978424,-0.03803252801299095,-0.024483034387230873,1.6665269136428833,-0.8000372648239136,0.01119917631149292,0.13499608635902405,0.7813026309013367,0.22768697142601013,-0.6060599684715271,14.799819946289062,22.536020278930664,-36.606868743896484,28.420808792114258,0.07013273239135742,28.659832000732422,30.565759658813477,0.5493764877319336,-0.8245820999145508,44.25271987915039,59.170684814453125,300.0,125.03031158447266,-291.3682861328125,300.0,-300.0,-23.757125854492188,-113.26213073730469,30.0,-30.0
0.88,7.5,0.0,0.0,-87.68049621582031,0.17420409619808197,0.7455863952636719,6.345582962036133,-0.9270070791244507,0.9187824130058289,-4.571841716766357,-4.12166690826416,-3.7994091510772705,-0.2555893361568451,0.08429435640573502,-0.21817587316036224,1.725434422492981,-0.7999914884567261,0.15638265013694763,0.3543499708175659,0.7774174213409424,0.4334285855293274,-0.506330132484436,31.047895431518555,9.681020736694336,-10.407427787780762,-1.748234748840332,-0.013651415705680847,11.39185905456543,22.72065544128418,1.430511474609375e-06,32.495235443115234,11.396783828735352,-19.631736755371094,219.029052734375,24.592002868652344,-62.67115020751953,300.0,300.0,189.25186157226562,-47.77649688720703,7.658679962158203,-30.0
0.89,7.5,0.0,0.0,-87.61583709716797,0.173944354057312,0.7642870545387268,6.381416320800781,-1.0003002882003784,0.6189894676208496,-2.1799216270446777,-0.4075038433074951,-0.7788237929344177,-0.04645966738462448,0.11166754364967346,-0.3739534318447113,1.7411627769470215,-0.8000398874282837,0.047125961631536484,0.31530553102493286,0.7785682082176208,0.8342826962471008,-0.5748753547668457,17.320106506347656,0.7228810787200928,-18.38691520690918,3.6890881061553955,-0.003077070228755474,-18.92887306213379,-17.260833740234375,-8.270144462585449e-07,43.310302734375,-6.917910575866699,-26.964599609375,-56.501094818115234,-168.17340087890625,69.02195739746094,300.0,-69.48087310791016,55.06193542480469,31.1357421875,6.512386322021484,-30.0
0.9,7.5,0.0,0.0,-87.55196380615234,0.1752968281507492,0.7809964418411255,6.529105186462402,-0.803952157497406,0.38984841108322144,-1.2935389280319214,0.23817580938339233,-2.586808681488037,0.04720352217555046,0.08229000866413116,-0.5429714322090149,1.774652361869812,-0.7999842166900635,0.022108152508735657,0.3006434738636017,0.7798166871070862,1.1434482336044312,-0.6337631344795227,4.248447418212891,-3.5682373046875,-17.278358459472656,4.641152858734131,-0.0006831104401499033,3.128150463104248,3.113370180130005,-1.73225998878479e-07,28.028915405273438,-6.652180194854736,204.1016845703125,-125.46257019042969,-15.382644653320312,20.48870086669922,300.0,-25.94078826904297,7.5958251953125,34.648704528808594,0.36119842529296875,-30.0
0.91,7.5,0.0,0.0,-87.48854064941406,0.17878569662570953,0.7958976030349731,6.681917667388916,-0.7864176034927368,0.3446309268474579,2.333296775817871,1.7636383771896362,-0.11928170174360275,0.012554354034364223,0.014031551778316498,-0.7317196130752563,1.8281831741333008,-0.8000332117080688,-0.01611783169209957,0.15211711823940277,0.7801199555397034,1.3954533338546753,-0.6778014898300171,-8.398689270019531,-8.238062858581543,-19.480337142944336,6.632680416107178,0.008051561191678047,-7.551168441772461,-25.823768615722656,0.011494532227516174,23.590972900390625,-4.749545574188232,-31.108633041381836,-96.31207275390625,-183.34228515625,-10.348766326904297,300.0,-16.735252380371094,-31.248062133789062,35.26042175292969,-1.9660263061523438,-30.0
0.92,7.5,0.0,0.0,-87.42375183105469,0.1827215850353241,0.8102983236312866,6.75921630859375,-0.8176900148391724,0.42004722356796265,1.4692835807800293,0.5395907759666443,-0.5342261791229248,-0.0698808878660202,-0.030149584636092186,-0.8954668641090393,1.883137583732605,-0.7999229431152344,-0.02329900860786438,0.0132922837510705,0.7802550196647644,1.5505856275558472,-0.6682665944099426,-7.99747371673584,-2.6660385131835938,-14.50588607788086,6.4470624923706055,-0.0010669577168300748,1.9083303213119507,-9.804146766662598,-0.004076486919075251,11.384541511535645,0.6010507345199585,73.76492309570312,13.811643600463867,35.15107727050781,66.5377197265625,300.0,154.0750732421875,-105.26543426513672,78.02375793457031,-8.132208824157715,-30.0
0.93,7.5,0.0,0.0,-87.3575668334961,0.18505872786045074,0.824832022190094,6.732630252838135,-0.8534687757492065,0.4524989426136017,-0.6277260780334473,-0.19721609354019165,0.6570752859115601,-0.1390073299407959,-0.02292531356215477,-1.0162137746810913,1.9232197999954224,-0.7999875545501709,-0.011273852549493313,-0.04068765044212341,0.7800639867782593,1.663453459739685,-0.664823591709137,-5.737799167633057,2.7483057975769043,-9.6741304397583,2.819131851196289,-1.6384583432227373e-06,0.24918971955776215,-2.3750154972076416,0.0035777422599494457,10.869308471679688,0.3228154182434082,-67.74760437011719,54.208839416503906,58.35533142089844,63.91236114501953,300.0,105.59867095947266,-18.495620727539062,11.7677001953125,-1.7597825527191162,-30.0
0.9400000000000001,7.5,0.0,0.0,-87.29058074951172,0.18483243882656097,0.8397510051727295,6.661481857299805,-0.8922433257102966,0.41993817687034607,-3.341841220855713,-1.004807949066162,0.7006856203079224,-0.17065821588039398,0.03412524238228798,-1.081805944442749,1.9375253915786743,-0.7999773025512695,0.0014392699813470244,0.012763001956045628,0.7800090312957764,1.783388614654541,-0.6689472794532776,-1.1832078695297241,7.519168376922607,-4.03736686706543,0.8645109534263611,-0.0005519039696082473,1.6960525512695312,10.544233322143555,0.005437578074634075,12.442087173461914,-0.3292245864868164,-19.583709716796875,73.75001525878906,95.67955017089844,60.64203643798828,300.0,115.09893798828125,9.833492279052734,26.1407413482666,0.10902070999145508,-30.0
0.9500000000000001,7.5,0.0,0.0,-87.22319030761719,0.18288536369800568,0.8545650243759155,6.592251777648926,-0.9482534527778625,0.2245071530342102,-4.367767333984375,-1.6302961111068726,0.7417198419570923,-0.17208705842494965,0.12000691890716553,-1.105334997177124,1.9455863237380981,-0.7999870777130127,0.013205834664404392,0.13408906757831573,0.7799999117851257,1.9194426536560059,-0.6991923451423645,0.6842111349105835,9.210260391235352,-1.0963349342346191,1.0484297275543213,-2.9016518965363503e-08,0.8542242050170898,12.999394416809082,0.00010346737690269947,14.036067962646484,-2.9292354583740234,-9.657707214355469,42.69403839111328,14.5845947265625,33.45769500732422,300.0,70.03054809570312,16.113433837890625,27.22115707397461,0.8157272338867188,-30.0
0.96,7.5,0.0,0.0,-87.15498352050781,0.180842325091362,0.8688045740127563,6.773629188537598,-0.9592248201370239,-0.006927318871021271,-3.889700412750244,-1.378173828125,-0.7142729163169861,-0.15255437791347504,0.2075599730014801,-1.1216177940368652,1.9614087343215942,-0.8000140190124512,0.03131984919309616,0.25494295358657837,0.7799032926559448,1.9999572038650513,-0.7255693078041077,3.0863547325134277,8.316022872924805,-2.0560688972473145,2.1543774604797363,0.014156972989439964,3.0602428913116455,11.170599937438965,-1.3813376426696777e-05,-1.7881393432617188e-07,-6.2931413650512695,23.598674774169922,22.432788848876953,-22.16949462890625,10.297626495361328,300.0,6.232122421264648,20.27935028076172,19.022186279296875,-30.0,-30.0
0.97,7.5,0.0,0.0,-87.0860595703125,0.1796591579914093,0.8819769620895386,6.807915687561035,-0.9402182102203369,-0.2757534980773926,-2.642319679260254,-0.7385910153388977,-0.587580680847168,-0.11622592806816101,0.275227814912796,-1.163891315460205,1.9823957681655884,-0.8000378012657166,0.051217008382081985,0.3262210786342621,0.7797345519065857,1.9999996423721313,-0.8000003099441528,3.939807653427124,5.593545436859131,-5.780422687530518,2.0964863300323486,-0.03415907546877861,1.1097558736801147,4.016547679901123,0.04731961339712143,0.0005594640970230103,0.42212045192718506,-9.655001640319824,-12.686067581176758,-51.48714828491211,-17.54903793334961,300.0,-69.58841705322266,119.011474609375,-16.121829986572266,0.5536918640136719,-30.0
0.98,7.5,0.0,0.0,-87.01741790771484,0.1797250211238861,0.8932647109031677,6.867319107055664,-0.9332152009010315,-0.45886698365211487,-0.7860590815544128,0.28308022022247314,-0.2867216467857361,-0.06554996967315674,0.29124441742897034,-1.2550559043884277,2.0000739097595215,-0.8000206351280212,0.057958561927080154,0.32625120878219604,0.7799961566925049,1.9999932050704956,-0.8000002503395081,5.5392842292785645,-1.0856459140777588,-11.124120712280273,0.0016210153698921204,0.0008586099138483405,0.3795648515224457,-2.6531312465667725,0.0002393536560703069,3.46434535458684e-05,1.0997033541571e-06,1.379084825515747,-47.856727600097656,-36.10074234008789,-70.46397399902344,300.0,-106.5465087890625,139.42555236816406,-7.482322692871094,-30.0,-30.0
0.99,7.5,0.0,0.0,-86.94927978515625,0.1819833368062973,0.9024068117141724,6.970486164093018,-1.0240821838378906,-0.6133912801742554,2.6129794120788574,1.6170258522033691,0.3574313521385193,-0.0033057513646781445,0.19773131608963013,-1.4056153297424316,2.000115156173706,-0.8000219464302063,0.0540180578827858,0.22492331266403198,0.7799891233444214,1.99998939037323,-0.8000003099441528,6.098615646362305,-14.738567352294922,-17.700000762939453,-0.010655202902853489,0.0010934192687273026,-0.818901777267456,-14.958086967468262,7.55535438656807e-08,8.997617987915874e-05,-0.0026519133243709803,10.518774032592773,-83.13184356689453,-74.1617431640625,-127.72860717773438,300.0,-139.24090576171875,133.13671875,35.69962692260742,-30.0,-30.0
1.0,7.5,0.0,0.0,-86.8812255859375,0.18737773597240448,0.9092385172843933,7.00740909576416,-1.2558190822601318,-0.6806579232215881,6.824344158172607,1.6316455602645874,1.5678797960281372,0.020059673115611076,-0.06757853925228119,-1.5733373165130615,2.0001060962677,-0.8000081777572632,0.022796466946601868,-0.03351188451051712,0.780005156993866,1.9966492652893066,-0.8000003695487976,0.4031780958175659,-34.200042724609375,-16.786380767822266,-0.025778476148843765,0.002456013346090913,-4.271228313446045,-32.65435028076172,-0.00045968100312165916,-0.665143609046936,3.1191695597954094e-05,8.126747131347656,-79.9998550415039,-141.33169555664062,-180.1299591064453,300.0,-74.85000610351562,-7.320051193237305,147.6131134033203,-30.0,-30.0
1.01,7.5,0.0,0.0,-86.8111801147461,0.19353942573070526,0.9156878590583801,7.020168781280518,-1.3551921844482422,-0.41874322295188904,5.844207286834717,-1.2211990356445312,0.19719450175762177,-0.028730276972055435,-0.38171830773353577,-1.696224331855774,1.9999338388442993,-0.799992561340332,-0.01870131678879261,-0.307588130235672,0.7803352475166321,1.866057276725769,-0.7999997138977051,-3.3244762420654297,-31.54285430908203,-6.046725749969482,-0.011539598926901817,-0.0117565356194973,-3.951085329055786,-26.18694305419922,2.081228256225586,-23.119890213012695,3.858527634292841e-06,3.749420166015625,32.05094528198242,-10.316970825195312,-12.36895751953125,131.91880798339844,11.658538818359375,-251.50413513183594,300.0,-30.0,-30.0
1.02,7.5,0.0,0.0,-86.739501953125,0.1970738023519516,0.9262728691101074,7.2554521560668945,-1.3632307052612305,-0.01687636971473694,2.0820388793945312,0.27453848719596863,-0.8539302945137024,-0.03198161721229553,-0.6092010140419006,-1.698888897895813,1.9996975660324097,-0.8000739812850952,-0.09996604174375534,-0.5000028610229492,0.7548826336860657,1.5823750495910645,-0.7999998927116394,2.9378674030303955,-16.631179809570312,1.1579241752624512,0.061991192400455475,-0.014168772846460342,-8.887155532836914,-11.377605438232422,-3.6865222454071045,-33.977115631103516,-8.355083991773427e-06,-77.15738677978516,130.3922576904297,99.53810119628906,112.1001205444336,-300.0,52.65052795410156,-185.5081329345703,300.0,-30.0,-30.0
1.03,7.5,0.0,0.0,-86.6684799194336,0.19725656509399414,0.9399541616439819,7.3758544921875,-1.2318110466003418,0.4973096549510956,-0.22545425593852997,3.1916303634643555,-0.3378586769104004,-0.005626033991575241,-0.6898770928382874,-1.6730091571807861,1.998899221420288,-0.7999821305274963,-0.1691068410873413,-0.478311151266098,0.6911719441413879,1.2835198640823364,-0.8000001311302185,2.890857219696045,-2.3912689685821533,4.484861850738525,-0.000174790620803833,-0.028385162353515625,-5.001710414886475,7.525496482849121,-7.777376174926758,-27.994735717773438,0.0006166664534248412,128.3218231201172,-45.803749084472656,124.6031723022461,123.66435241699219,-300.0,168.55030822753906,-35.011962890625,300.0,-30.0,-30.0
1.04,7.5,0.0,0.0,-86.5997314453125,0.19733639061450958,0.9549096822738647,7.034387588500977,-1.0857905149459839,0.7660468816757202,-1.1528172492980957,2.304891586303711,1.0979249477386475,0.02773257903754711,-0.6624261140823364,-1.5839585065841675,1.9991530179977417,-0.7999145984649658,-0.21025651693344116,-0.40564224123954773,0.5957369208335876,1.1160449981689453,-0.8000002503395081,3.7597310543060303,6.3127641677856445,12.595900535583496,-0.0002541840076446533,-0.13657115399837494,-4.147138595581055,6.495019912719727,-12.186990737915039,-8.197746276855469,0.00018890429055318236,108.21653747558594,-60.122703552246094,-50.091331481933594,103.90414428710938,-134.85037231445312,221.75341796875,106.74217987060547,300.0,-30.0,-30.0
1.05,7.5,0.0,0.0,-86.53160095214844,0.19865290820598602,0.9689828157424927,6.612736225128174,-1.0186864137649536,0.4772510528564453,-0.7269628047943115,-2.4180421829223633,-0.018093807622790337,0.0654091015458107,-0.593417227268219,-1.4268583059310913,2.0000133514404297,-0.800039529800415,-0.15851084887981415,-0.3103961646556854,0.55876225233078,1.0160061120986938,-0.8000004291534424,3.379509210586548,6.8797078132629395,17.765056610107422,0.0027669784612953663,7.780204759910703e-05,10.879966735839844,10.40475082397461,0.9235560297966003,-9.030961036682129,3.2235291200777283e-06,154.48822021484375,-91.59762573242188,-94.09632873535156,-8.862722396850586,157.93014526367188,78.8043441772461,79.281982421875,300.0,-30.0,-30.0
1.06,7.5,0.0,0.0,-86.46515655517578,0.20065109431743622,0.9797510504722595,7.140035629272461,-1.285733938217163,0.2945078909397125,0.926331102848053,6.365578651428223,3.006195306777954,-0.040632788091897964,-0.4822482168674469,-1.3908878564834595,1.9999374151229858,-0.7999016642570496,-0.1496361345052719,-0.27948078513145447,0.3986250162124634,1.1023317575454712,-0.800000011920929,-17.70750617980957,13.224058151245117,-5.031689167022705,3.809109330177307e-07,-0.0525536872446537,-4.22269344329834,-0.9559119939804077,-26.14558219909668,17.75373077392578,-0.00012441407307051122,24.311912536621094,-32.65076446533203,-67.13501739501953,49.2657356262207,-262.0791015625,-148.69569396972656,38.89698028564453,300.0,-30.0,-30.0
1.07,7.5,0.0,0.0,-86.39796447753906,0.20070971548557281,0.988785982131958,6.650635242462158,-1.3175660371780396,0.3385985493659973,-2.6341404914855957,-0.31275275349617004,-1.4263088703155518,-0.09323190897703171,-0.3499310612678528,-1.3365223407745361,1.999996304512024,-0.7999892234802246,-0.05842535197734833,-0.19469916820526123,0.293399453163147,1.1736050844192505,-0.8000004887580872,1.2271591424942017,12.712264060974121,10.09167194366455,-1.12876296043396e-06,-0.0018297359347343445,14.770520210266113,12.589268684387207,-4.752997398376465,6.518997669219971,-7.64897558838129e-05,-5.762325286865234,158.83517456054688,100.64411926269531,16.34063720703125,300.0,10.535442352294922,68.40632629394531,300.0,-30.0,-30.0
1.08,7.5,0.0,0.0,-86.3302001953125,0.2006523311138153,0.9954564571380615,6.724229335784912,-1.3332103490829468,0.009737003594636917,-0.0682046189904213,0.6362581253051758,-0.22865477204322815,-0.10078870505094528,-0.27581366896629333,-1.2664530277252197,2.0001401901245117,-0.8000989556312561,-0.008831046521663666,-0.1621921956539154,0.21041613817214966,1.253434658050537,-0.800000011920929,-1.263684630393982,3.4012610912323,4.632575035095215,-0.0027323614340275526,-9.897555719362572e-05,-1.1513553857803345,-2.6111419200897217,-9.350957870483398,8.192073822021484,0.0001900018542073667,-101.58686828613281,6.151934623718262,-88.72254943847656,-88.79375457763672,88.74832916259766,-136.73733520507812,32.6300048828125,300.0,-30.0,-30.0
1.09,7.5,0.0,0.0,-86.2635498046875,0.20045073330402374,0.9994236826896667,7.174599647521973,-1.417917013168335,0.06517486274242401,-0.4583573043346405,6.887775897979736,0.5346731543540955,-0.14096859097480774,-0.22118905186653137,-1.2907015085220337,2.000006914138794,-0.7999576330184937,-0.03204162046313286,-0.1696324497461319,0.04950205981731415,1.3414331674575806,-0.7999999523162842,-5.277840614318848,6.589096546173096,-7.472060203552246,-0.0007447341922670603,-0.004063856787979603,-2.939258575439453,0.6781395077705383,-20.672061920166016,8.265501976013184,1.0872608982026577e-06,-26.081851959228516,13.82901382446289,98.30058288574219,1.256795883178711,-168.31051635742188,-148.84202575683594,-74.31743621826172,300.0,-30.0,-30.0
1.1,7.5,0.0,0.0,-86.195556640625,0.19947771728038788,1.0033353567123413,6.690637588500977,-1.2994911670684814,0.337581992149353,-1.8184075355529785,-0.9417567253112793,-1.6523282527923584,-0.09752631932497025,-0.21498353779315948,-1.264936923980713,1.9999204874038696,-0.800149142742157,-0.022496595978736877,-0.13561421632766724,-0.04837624728679657,1.3428343534469604,-0.8000004291534424,10.415933609008789,-3.6277174949645996,9.589004516601562,-3.46451997756958e-07,-0.057480890303850174,2.831254243850708,4.962751388549805,-2.2564785480499268,-3.8210649490356445,-0.0008862129761837423,-38.183746337890625,87.89703369140625,90.49687194824219,-76.46647644042969,209.81591796875,140.6775360107422,16.950912475585938,300.0,-30.0,-30.0
1.11,7.5,0.0,0.0,-86.12730407714844,0.19843339920043945,1.0063055753707886,7.0049309730529785,-1.334305763244629,0.1911500096321106,-1.1436200141906738,3.9628756046295166,0.9893641471862793,-0.07562778145074844,-0.1989467740058899,-1.2311339378356934,2.000004529953003,-0.7999421954154968,-0.004644113592803478,-0.09102032333612442,-0.13405977189540863,1.329879641532898,-0.7999998927116394,-3.97133469581604,4.50537633895874,-1.2056535482406616,-0.000937829667236656,-0.0035684623289853334,1.4430294036865234,4.040972709655762,-12.998613357543945,0.0010885552037507296,-1.1017982615157962e-07,27.859817504882812,-133.3507080078125,-11.958130836486816,19.555431365966797,-138.65367126464844,-75.07490539550781,-31.82782745361328,300.0,-30.0,-30.0
1.12,7.5,0.0,0.0,-86.05989074707031,0.19758792221546173,1.00751531124115,6.9052734375,-1.3664323091506958,0.2872711420059204,-1.2187198400497437,3.0939435958862305,1.3688334226608276,-0.08736496418714523,-0.18132969737052917,-1.2234736680984497,1.999966025352478,-0.8000178337097168,-0.029580028727650642,-0.059884026646614075,-0.2679350674152374,1.343704342842102,-0.8000000715255737,0.8733819127082825,-0.3322390913963318,2.287834644317627,7.795169949531555e-07,-0.03151552751660347,-5.376734256744385,2.7741856575012207,-13.418292045593262,2.648064374923706,-0.00010758134885691106,-53.62150955200195,41.276187896728516,1.7840385437011719,-37.62397003173828,-3.8082733154296875,47.859500885009766,32.047943115234375,300.0,-30.0,-30.0
1.1300000000000001,7.5,0.0,0.0,-85.9906234741211,0.19778530299663544,1.0086638927459717,6.522894859313965,-1.3451868295669556,0.30456897616386414,-0.22909720242023468,-3.5686912536621094,-1.39375638961792,-0.03138807788491249,-0.21628136932849884,-1.138185977935791,2.0000319480895996,-0.8001294732093811,-0.014934777282178402,-0.03881962597370148,-0.29636308550834656,1.2963883876800537,-0.8000003695487976,8.42436695098877,-5.4117608070373535,12.826177597045898,0.003909303806722164,0.0038578652311116457,5.780430316925049,1.0501092672348022,4.343328475952148,-8.39757251739502,4.919427010463551e-05,57.62641906738281,21.3439998626709,-54.965667724609375,-24.637269973754883,243.8103790283203,53.36621856689453,22.478822708129883,300.0,-30.0,-30.0
1.1400000000000001,7.5,0.0,0.0,-85.92214965820312,0.19735027849674225,1.0074059963226318,7.013147830963135,-1.3902961015701294,-0.10196173191070557,-1.1402746438980103,4.491891384124756,1.2558444738388062,-0.05559126287698746,-0.18132784962654114,-1.1163944005966187,2.000079393386841,-0.7999480366706848,0.016509316861629486,-0.01990136317908764,-0.364156037569046,1.3031607866287231,-0.7999999523162842,-10.06567096710205,8.830379486083984,-5.697993278503418,-0.004902176093310118,-0.0048785642720758915,1.5539641380310059,2.242497205734253,-14.38808536529541,6.063486099243164,8.03457951406017e-05,-13.069960594177246,-98.8685073852539,-6.154204368591309,90.88714599609375,-158.42234802246094,-184.9696044921875,26.77933120727539,300.0,-30.0,-30.0
1.1500000000000001,7.5,0.0,0.0,-85.85518646240234,0.19611085951328278,1.0034626722335815,7.021859169006348,-1.420580506324768,0.041910722851753235,-1.1485880613327026,4.608011722564697,1.04088294506073,-0.09893379360437393,-0.12584151327610016,-1.161373496055603,2.000016450881958,-0.8000355958938599,-0.04604315385222435,0.007135710213333368,-0.5165526270866394,1.3728333711624146,-0.8000000715255737,-0.2275819480419159,2.673799991607666,-3.953005790710449,-0.001121043344028294,0.0006333334022201598,-11.54775619506836,3.448089838027954,-15.467069625854492,7.564258098602295,0.00019723849254660308,-100.6915054321289,102.7523193359375,21.753154754638672,-42.459556579589844,-11.0936279296875,-13.311386108398438,17.312652587890625,300.0,-30.0,-30.0
1.16,7.5,0.0,0.0,-85.78572845458984,0.19643960893154144,1.0003695487976074,6.453557968139648,-1.3672714233398438,0.21410226821899414,0.9720505475997925,-4.7261481285095215,-3.1635937690734863,-0.012087734416127205,-0.17708200216293335,-1.1017121076583862,1.99993097782135,-0.7999732494354248,-0.04485181346535683,0.012607927434146404,-0.5261023044586182,1.365288496017456,-0.8000003695487976,13.999726295471191,-9.970634460449219,12.103879928588867,-1.1967495083808899e-06,-0.007440503686666489,7.57342529296875,-2.5931687355041504,7.018154621124268,-3.743107318878174,-0.0007076116744428873,117.45207977294922,58.291507720947266,-94.35843658447266,-80.3838882446289,300.0,128.23663330078125,27.608173370361328,300.0,-30.0,-30.0
1.17,7.5,0.0,0.0,-85.71622467041016,0.19642625749111176,0.9960393905639648,6.929005146026611,-1.2804126739501953,-0.20448404550552368,-0.35895201563835144,1.8366516828536987,-1.2707780599594116,-0.0024201537016779184,-0.15842680633068085,-1.0777243375778198,2.0000925064086914,-0.799980640411377,0.04284999892115593,0.003653918392956257,-0.5217637419700623,1.342950701713562,-0.7999999523162842,-8.99313735961914,9.178518295288086,-5.458689212799072,-0.004069998394697905,-0.002969073597341776,9.435690879821777,0.009469214826822281,-4.269394397735596,-1.5351719856262207,-4.4731859816238284e-07,23.07199478149414,-160.51287841796875,23.48715591430664,123.16481018066406,-59.177669525146484,-226.32180786132812,-25.483020782470703,300.0,-30.0,-30.0
1.18,7.5,0.0,0.0,-85.65037536621094,0.19460801780223846,0.9867892265319824,7.5674543380737305,-1.1047334671020508,-0.3932619094848633,-1.9350595474243164,11.159650802612305,4.333622932434082,-0.14629967510700226,-0.01645905151963234,-1.212866187095642,2.0000534057617188,-0.8000445365905762,-0.03193182870745659,0.042196422815322876,-0.7170343995094299,1.4574613571166992,-0.7999999523162842,-16.95966148376465,16.758739471435547,-18.67904281616211,-0.0021143388003110886,-0.09257566183805466,-18.63094139099121,6.8626885414123535,-28.77350616455078,18.089305877685547,3.162318898830563e-05,-191.8577880859375,-21.574905395507812,51.814537048339844,19.69464874267578,-300.0,-117.33757019042969,47.771942138671875,300.0,-30.0,-30.0
1.19,7.5,0.0,0.0,-85.58242797851562,0.19294115900993347,0.9777958393096924,6.914287090301514,-1.4751392602920532,0.3477558195590973,0.32032647728919983,0.8433992862701416,-1.2338910102844238,-0.1380293220281601,0.023708371445536613,-1.2790412902832031,1.9999375343322754,-0.7999863028526306,-0.11982239782810211,0.0996442660689354,-0.8279694318771362,1.5441615581512451,-0.8000003695487976,10.26874828338623,-5.774080276489258,-1.12142014503479,-2.5041401386260986e-05,-0.02183791622519493,-3.8597443103790283,2.3289875984191895,-3.50175404548645,7.201195240020752,-0.0010638455860316753,52.949180603027344,200.44366455078125,-113.13973236083984,-138.1698455810547,300.0,156.30599975585938,39.77452087402344,300.0,-30.0,-30.0
1.2,7.5,0.0,0.0,-85.5113525390625,0.19388720393180847,0.9712744951248169,6.467174530029297,-1.3561993837356567,0.40403610467910767,3.1181085109710693,-5.964117050170898,-4.056098461151123,-0.0395377092063427,-0.06251408904790878,-1.2295600175857544,2.000001907348633,-0.799921452999115,-0.055725548416376114,0.0517955981194973,-0.7457107305526733,1.518957495689392,-0.8000000715255737,8.811931610107422,-9.813183784484863,8.027763366699219,0.002101244404911995,-2.4586915969848633e-07,13.949015617370605,-9.73966121673584,14.312789916992188,-7.544259071350098,0.00038243073504418135,155.90716552734375,-87.92420196533203,-93.40632629394531,-43.1543083190918,300.0,32.60152053833008,-43.4146614074707,300.0,-30.0,-30.0
1.21,7.5,0.0,0.0,-85.44042205810547,0.19413267076015472,0.9633753299713135,6.913971424102783,-1.1150931119918823,-0.18387159705162048,0.254888653755188,-0.5488007068634033,-1.0915981531143188,-0.05700432509183884,-0.031201224774122238,-1.2146434783935547,2.00007963180542,-0.8000018000602722,0.03156498074531555,0.019939707592129707,-0.6520947217941284,1.47158682346344,-0.800000011920929,-9.658477783203125,11.756068229675293,-4.012409210205078,-0.0026699171867221594,-0.00020915237837471068,4.340261459350586,0.3335599899291992,4.909814834594727,-2.3025102615356445,5.2089308155700564e-05,-58.79346466064453,-137.5646514892578,86.33932495117188,147.9610137939453,-42.59825897216797,-205.5897979736328,18.24081039428711,300.0,-30.0,-30.0
1.22,7.5,0.0,0.0,-85.37176513671875,0.1928059458732605,0.9516347050666809,7.287097930908203,-1.0344135761260986,-0.4292789101600647,-0.684964656829834,4.768206596374512,1.2560142278671265,-0.12867090106010437,0.0733286589384079,-1.286535620689392,1.9999054670333862,-0.7999339699745178,-0.028632482513785362,0.06037944182753563,-0.6953173875808716,1.5350033044815063,-0.800000011920929,-5.100656509399414,8.812475204467773,-9.887699127197266,9.313225746154785e-07,-0.09722568094730377,-13.043347358703613,6.524015426635742,-10.895479202270508,11.835811614990234,-3.0651557608507574e-05,-130.5072479248047,63.3166389465332,62.61004638671875,-49.32678985595703,-245.7008056640625,-14.039276123046875,41.281070709228516,300.0,-30.0,-30.0
1.23,7.5,0.0,0.0,-85.30189514160156,0.1920504868030548,0.9397620558738708,6.784247398376465,-1.0894010066986084,-0.10868063569068909,1.3848057985305786,-3.4928860664367676,-3.487668752670288,-0.07948093116283417,0.051545675843954086,-1.3233819007873535,2.0000224113464355,-0.8001386523246765,-0.07882721722126007,0.09075139462947845,-0.678597629070282,1.5874671936035156,-0.8000000715255737,11.332178115844727,-9.998469352722168,0.912708580493927,-0.007112216204404831,0.037998199462890625,-0.04932636022567749,-0.22738248109817505,10.641227722167969,1.2745945453643799,0.00016327697085216641,87.5119400024414,121.54540252685547,-74.52536010742188,-119.42173767089844,300.0,84.01547241210938,10.963899612426758,300.0,-30.0,-30.0
1.24,7.5,0.0,0.0,-85.23155212402344,0.19213587045669556,0.9277599453926086,7.197668075561523,-0.8988435864448547,-0.35366737842559814,1.7796604633331299,1.7276825904846191,-2.102283477783203,-0.018547631800174713,0.003048111917451024,-1.358938217163086,1.999995470046997,-0.7998493313789368,-0.03917780891060829,0.0734494999051094,-0.6249996423721313,1.5564391613006592,-0.7999997735023499,1.8451367616653442,-1.1920329332351685,-7.4077982902526855,0.005721033550798893,9.5367431640625e-07,6.67415189743042,-2.6007211208343506,1.0299519300460815,-6.048498630523682,-0.0002972778456751257,46.03169631958008,-97.72447967529297,-24.044931411743164,60.26915740966797,-158.75979614257812,-99.62472534179688,-110.57087707519531,300.0,-30.0,-30.0
1.25,7.5,0.0,0.0,-85.16316986083984,0.19161508977413177,0.9131476879119873,7.488554000854492,-0.74373459815979,-0.40151605010032654,0.11178067326545715,5.588807106018066,0.979295015335083,-0.054614558815956116,0.06419406831264496,-1.4610217809677124,1.9998822212219238,-0.7999498844146729,-0.028474360704421997,0.07747400552034378,-0.6765251159667969,1.547227144241333,-0.7999999523162842,-7.150003910064697,11.09852123260498,-12.082948684692383,-8.843839168548584e-06,-0.08020155131816864,-2.9093880653381348,2.533846855163574,-9.669641494750977,2.4268105030059814,-2.8672246116911992e-05,-67.21131896972656,-66.51756286621094,53.96577835083008,76.82455444335938,-152.05137634277344,-26.02379608154297,19.195232391357422,300.0,-30.0,-30.0
1.26,7.5,0.0,0.0,-85.09320831298828,0.1909969002008438,0.8988603949546814,6.886651992797852,-0.7984737753868103,-0.02996143326163292,1.10536527633667,-3.4212632179260254,-2.6029622554779053,-0.04441199079155922,0.08774516731500626,-1.5015126466751099,2.0000452995300293,-0.8001852631568909,-0.05364289507269859,0.0912492573261261,-0.6501546502113342,1.5226969718933105,-0.8000000715255737,6.005525588989258,-4.290454387664795,1.812476396560669,-0.0002909323084168136,0.00868581049144268,-2.3595380783081055,0.4452037215232849,11.846246719360352,-5.141575813293457,3.586772072594613e-05,5.87539529800415,119.31392669677734,-30.781173706054688,-100.9176025390625,300.0,138.29832458496094,35.49632263183594,300.0,-30.0,-30.0
1.27,7.5,0.0,0.0,-85.02252197265625,0.19067008793354034,0.884132981300354,7.258415699005127,-0.6238201260566711,-0.3723612427711487,1.1107821464538574,1.121999979019165,-1.715345025062561,-0.0027538093272596598,0.07406190037727356,-1.526281714439392,1.999986171722412,-0.799871563911438,-0.05119582638144493,0.08808118104934692,-0.5850545167922974,1.4691601991653442,-0.7999998331069946,2.572171926498413,0.6421716213226318,-5.895851135253906,0.00499575724825263,1.2665987014770508e-07,2.141352415084839,-0.552937388420105,2.222893714904785,-5.215502738952637,-0.00012185894593130797,29.363893508911133,-42.94228744506836,5.115879535675049,32.09086227416992,-135.75242614746094,-95.67765045166016,-42.366973876953125,300.0,-30.0,-30.0
1.28,7.5,0.0,0.0,-84.95280456542969,0.1901130974292755,0.8673407435417175,7.432450771331787,-0.4367000162601471,-0.41802385449409485,0.7578132748603821,2.4266397953033447,-1.067965030670166,0.004855049308389425,0.11717886477708817,-1.6000906229019165,2.0000693798065186,-0.8000267744064331,-0.04236534982919693,0.08934979140758514,-0.5688183903694153,1.4503350257873535,-0.8235142827033997,-0.5266513824462891,6.492686748504639,-8.461142539978027,0.054569970816373825,0.04983977973461151,1.3685235977172852,-4.0917558670043945,3.745924472808838,15.204673767089844,-9.147022247314453,-13.25748062133789,-33.2752571105957,27.908788681030273,45.140785217285156,-28.898771286010742,-54.61421203613281,-23.8361873626709,300.0,-30.0,-30.0
1.29,7.5,0.0,0.0,-84.8818359375,0.1897076964378357,0.8503172397613525,7.464724540710449,-0.40296587347984314,-0.1831037700176239,0.6620423197746277,1.110561490058899,-1.7411822080612183,0.002663461258634925,0.2089519202709198,-1.6768240928649902,2.000004291534424,-0.800047755241394,-0.038114018738269806,0.06830036640167236,-0.4572147727012634,1.4545912742614746,-0.7999998331069946,-0.3284359574317932,10.826815605163574,-7.4604926109313965,-0.0023388417903333902,0.0060167196206748486,0.498430997133255,-1.5556409358978271,14.875224113464355,-9.71447467803955,-2.3987522581592202e-06,11.983806610107422,-23.525728225708008,58.95684814453125,33.39643478393555,63.68134307861328,-53.53864669799805,-178.1457061767578,300.0,-30.0,-30.0
1.3,7.5,0.0,0.0,-84.80901336669922,0.1885167956352234,0.8337043523788452,7.175629138946533,-0.21816325187683105,-0.291526734828949,-0.26103654503822327,-3.26466965675354,-3.472550868988037,0.027614181861281395,0.2933367192745209,-1.6981271505355835,2.000002384185791,-0.8000461459159851,-0.031947340816259384,0.06259787082672119,-0.24544166028499603,1.3056070804595947,-0.7999563217163086,4.214353084564209,6.186605453491211,0.6348261833190918,-0.00865679420530796,0.009631931781768799,0.8701464533805847,0.11121459305286407,24.332901000976562,-17.042652130126953,0.5048495531082153,2.2028560638427734,61.809486389160156,52.703277587890625,-46.85764694213867,88.35163879394531,11.779433250427246,-7.557640075683594,300.0,-30.0,-30.0
1.31,7.5,0.0,0.0,-84.73612976074219,0.1867406815290451,0.8156203627586365,7.211695194244385,0.07634525001049042,-0.6921104788780212,-1.2167011499404907,-2.3893442153930664,-2.2987804412841797,0.06940656155347824,0.3465055227279663,-1.700075626373291,1.9999514818191528,-0.7999821305274963,-0.032936979085206985,0.0653301551938057,-0.013161608017981052,1.1506673097610474,-0.8000000715255737,3.888617515563965,4.471059322357178,-0.006265957839787006,4.269508644938469e-05,-0.003952645696699619,-0.8759027123451233,0.5320539474487305,22.628097534179688,-15.266636848449707,0.0517505407333374,-28.717195510864258,-8.89595890045166,66.36109924316406,-30.153589248657227,-46.77448272705078,-65.27863311767578,-25.048660278320312,199.7364044189453,-30.0,-30.0
1.32,7.5,0.0,0.0,-84.66474151611328,0.18501555919647217,0.7966888546943665,7.3643364906311035,0.24549904465675354,-0.7827663421630859,-1.706135869026184,1.0522278547286987,0.41353121399879456,0.09097731113433838,0.38028228282928467,-1.7003483772277832,1.9923033714294434,-0.799889862537384,-0.0492551326751709,0.06981169432401657,0.1746772825717926,1.004440188407898,-0.7642043232917786,0.7745630145072937,2.2189877033233643,-0.010812032967805862,-1.1964881420135498,0.0019078152254223824,-1.907959222793579,0.4871193766593933,15.29179573059082,-14.12982177734375,4.580615997314453,-33.83341979980469,-22.36198616027832,39.70402145385742,-40.26795196533203,-268.9582824707031,-36.894569396972656,-86.3725357055664,23.296186447143555,-30.0,-30.0
1.33,7.5,0.0,0.0,-84.59571075439453,0.18326689302921295,0.7780433893203735,7.454041481018066,0.24819251894950867,-0.5525916218757629,-2.3041090965270996,4.197456359863281,0.8707228302955627,0.10593005269765854,0.3769492208957672,-1.6909596920013428,1.8716717958450317,-0.7998698353767395,-0.0758000984787941,0.07879868149757385,0.31572675704956055,0.8469927310943604,-0.6841892004013062,1.7774163484573364,-2.4525368213653564,1.5968017578125,-19.86499786376953,0.0012749508023262024,-3.160250425338745,0.7719395756721497,11.407176971435547,-13.907837867736816,5.687429428100586,-28.28904151916504,-2.914527416229248,-1.2258446216583252,-52.77132034301758,-164.5258331298828,69.54266357421875,-72.2740478515625,-169.16517639160156,-30.0,-30.0
1.34,7.5,0.0,0.0,-84.52826690673828,0.1817617118358612,0.7607184648513794,7.144668102264404,0.3184847831726074,-0.21506625413894653,-2.8855299949645996,2.2016963958740234,1.42282235622406,0.09977412223815918,0.3482650816440582,-1.6046861410140991,1.5883958339691162,-0.7999444007873535,-0.08544573932886124,0.10461334884166718,0.4601220190525055,0.650166928768158,-0.5544744729995728,-2.6350083351135254,-3.508671760559082,13.389888763427734,-33.50295639038086,0.0023337467573583126,0.07324112206697464,3.4442853927612305,15.257392883300781,-20.047286987304688,13.091143608093262,18.44291114807129,-70.46382141113281,-2.087247848510742,-60.70746612548828,-58.83395767211914,208.2826690673828,-48.18144226074219,-86.52278137207031,-30.0,-4.79710578918457
1.35,7.5,0.0,0.0,-84.46174621582031,0.18227362632751465,0.7450678944587708,6.726269245147705,0.2900450825691223,-0.023107975721359253,-1.4039896726608276,-1.0712305307388306,5.299658298492432,0.055478475987911224,0.24069739878177643,-1.39095938205719,1.120911955833435,-0.5015121102333069,-0.07607533037662506,0.15325140953063965,0.6259282827377319,0.42806315422058105,-0.34086132049560547,-6.384854793548584,-16.646398544311523,25.995195388793945,-49.999717712402344,28.464984893798828,1.2520204782485962,5.30155086517334,16.302949905395508,-20.603496551513672,25.09599494934082,6.1978302001953125,-181.1957244873047,18.526531219482422,-226.1005859375,-81.92178344726562,300.0,-28.576614379882812,-83.03475952148438,-30.0,-4.9439544677734375
