DanielTruong99/RLHumanoidRobot/analysis/data/state_log.csv
time_step,c_x,c_y,c_z,base_x,base_y,base_z,base_vx,base_vy,base_vz,base_wx,base_wy,base_wz,pos_R_hip_joint,pos_R_hip2_joint,pos_R_thigh_joint,pos_R_calf_joint,pos_R_toe_joint,pos_L_hip_joint,pos_L_hip2_joint,pos_L_thigh_joint,pos_L_calf_joint,pos_L_toe_joint,vel_R_hip_joint,vel_R_hip2_joint,vel_R_thigh_joint,vel_R_calf_joint,vel_R_toe_joint,vel_L_hip_joint,vel_L_hip2_joint,vel_L_thigh_joint,vel_L_calf_joint,vel_L_toe_joint,torque_R_hip_joint,torque_R_hip2_joint,torque_R_thigh_joint,torque_R_calf_joint,torque_R_toe_joint,torque_L_hip_joint,torque_L_hip2_joint,torque_L_thigh_joint,torque_L_calf_joint,torque_L_toe_joint
0.01,8.601255416870117,-0.02073812484741211,-1.7325210571289062,-90.00422668457031,-0.0019454360008239746,1.0295177698135376,0.6474913358688354,-0.010510274209082127,-1.1366721391677856,0.12860199809074402,9.924295425415039,-0.5923565030097961,0.09732330590486526,0.12846198678016663,-0.4360552430152893,0.7522137761116028,-0.597006618976593,-0.12053178250789642,0.07762996107339859,-0.5623565316200256,0.7088078856468201,-0.3443865180015564,24.08989143371582,-4.32694149017334,-35.91492462158203,49.9443244934082,-29.36865234375,-16.469263076782227,7.32452392578125,-28.149999618530273,49.99500274658203,-42.57345199584961,-44.43643569946289,48.90364074707031,135.4745635986328,-126.61273956298828,-59.01020812988281,-300.0,300.0,300.0,1.54241943359375,0.3990325927734375
0.02,8.595695495605469,0.4862080514431,-1.673858642578125,-90.01160430908203,-0.0060413796454668045,1.014311671257019,1.7811533212661743,0.017166197299957275,-2.0901994705200195,-1.9945924282073975,19.239652633666992,-5.283934116363525,0.3442639410495758,-0.007488114293664694,-0.9034432768821716,1.2474250793457031,-0.7998520731925964,-0.016011804342269897,0.10638623684644699,-0.9772513508796692,1.2093276977539062,-0.8000014424324036,26.29073715209961,-17.964771270751953,-50.00004196166992,49.73112487792969,-0.07335574924945831,18.70070457458496,1.0755510330200195,-45.82470703125,46.33340072631836,-0.03674323111772537,138.68997192382812,62.3416748046875,85.34595489501953,-37.54573059082031,-300.0,-300.0,300.0,300.0,-30.0,-30.0
0.03,8.534408569335938,1.189650535583496,-1.5919257402420044,-90.01873016357422,-0.008415129035711288,0.9929970502853394,2.635251760482788,0.14854344725608826,-2.4043192863464355,-0.19757646322250366,18.841997146606445,-4.048183917999268,0.3671737313270569,-0.20117035508155823,-1.3197802305221558,1.6897567510604858,-0.7999816536903381,0.1933458149433136,-0.0235064085572958,-1.4583489894866943,1.7090829610824585,-0.800000011920929,-4.466192245483398,-18.125167846679688,-40.908817291259766,47.67823791503906,-0.003163187764585018,22.423721313476562,-22.21670913696289,-47.85234069824219,49.997928619384766,1.810201638363651e-06,65.05825805664062,-99.34466552734375,-184.01124572753906,33.57163619995117,-300.0,56.91217041015625,300.0,149.61599731445312,-30.0,-30.0
0.04,8.447559356689453,1.7091645002365112,-1.5306086540222168,-90.0208740234375,-0.007286477833986282,0.975841224193573,0.8087980151176453,0.2794398069381714,-0.47934913635253906,1.0590903759002686,4.347633361816406,-2.655970811843872,0.22850023210048676,-0.2719438672065735,-1.5466457605361938,2.002262830734253,-0.7969242334365845,0.26978641748428345,-0.16061130166053772,-1.7000623941421509,2.0000100135803223,-0.7385413646697998,-17.88385772705078,1.402586817741394,-8.10069465637207,-0.2731819152832031,5.9941511154174805,9.3416166305542,-10.264942169189453,0.07690154016017914,-0.03892572224140167,-13.089948654174805,193.10482788085938,-222.66885375976562,122.65804290771484,125.57779693603516,153.57308959960938,300.0,300.0,18.594833374023438,-30.0,-30.0
0.05,8.405966758728027,1.8964213132858276,-1.5078847408294678,-90.02040100097656,-0.003027111291885376,0.9693711996078491,0.7227733135223389,0.4019055962562561,-0.38482674956321716,2.2665677070617676,2.2101335525512695,-0.0820031389594078,0.07124663889408112,-0.3875361382961273,-1.5484529733657837,1.9427248239517212,-0.7998253703117371,0.3420669734477997,-0.19584982097148895,-1.6998274326324463,1.9999638795852661,-0.7999999523162842,-16.16983413696289,-21.05788803100586,3.3603639602661133,-8.94782829284668,-0.0005622152239084244,5.899993419647217,1.1141059398651123,-0.014218351803719997,6.649643182754517e-07,-0.05729402229189873,106.97970581054688,-250.74778747558594,138.18630981445312,-289.8727722167969,-300.0,300.0,300.0,-37.29370880126953,-30.0,-30.0
0.06,8.433502197265625,1.7562800645828247,-1.5240734815597534,-90.01849365234375,0.0008691307157278061,0.9614085555076599,0.6511704325675964,0.4888959527015686,-0.442630410194397,-0.7915818691253662,-0.9370688199996948,2.198089599609375,-0.09894052892923355,-0.45719319581985474,-1.4912737607955933,1.885024070739746,-0.799964964389801,0.40704119205474854,-0.22606438398361206,-1.6998881101608276,2.0000455379486084,-0.7999999523162842,-18.21968650817871,2.4559736251831055,8.256704330444336,-0.3504584729671478,8.043134585022926e-07,6.965978622436523,-6.229621410369873,2.6263296604156494e-07,0.006637607701122761,1.1329029803164303e-07,-23.919830322265625,-13.948493957519531,-118.71995544433594,234.55953979492188,-300.0,227.31919860839844,300.0,177.71470642089844,-30.0,-30.0
0.07,8.476028442382812,1.5214122533798218,-1.5517550706863403,-90.01570129394531,0.001833118498325348,0.9514280557632446,0.8194047808647156,0.4189804494380951,-0.7373837232589722,-3.167097330093384,0.24467571079730988,2.040466547012329,-0.3264041244983673,-0.2998124659061432,-1.496618628501892,1.9589312076568604,-0.8001226186752319,0.4384433925151825,-0.18669889867305756,-1.7000173330307007,1.9994628429412842,-0.800000011920929,-24.071901321411133,25.79056167602539,-4.843612194061279,13.190840721130371,0.025333629921078682,0.5518758296966553,11.430815696716309,0.011988721787929535,1.0058283805847168e-06,-0.12331638485193253,-162.29290771484375,159.8665313720703,115.30192565917969,300.0,-300.0,-300.0,300.0,110.74171447753906,-30.0,-30.0
0.08,8.474221229553223,1.5229281187057495,-1.5515984296798706,-90.01412200927734,0.0017514228820800781,0.9417356252670288,1.0403574705123901,0.33822184801101685,-0.7366761565208435,-0.8356374502182007,4.029735088348389,0.7611374855041504,-0.423789918422699,-0.15474306046962738,-1.5406564474105835,2.0000722408294678,-0.8000708818435669,0.3997748792171478,-0.06247608736157417,-1.7000303268432617,1.9996678829193115,-0.800000011920929,-7.263964653015137,12.349228858947754,-8.116477012634277,-0.10851286351680756,0.023163873702287674,-9.063472747802734,12.721508979797363,0.012317941524088383,1.825392246246338e-07,-0.15861345827579498,-300.0,300.0,-16.82196044921875,21.599838256835938,-300.0,-300.0,300.0,202.07321166992188,-30.0,-30.0
0.09,8.444930076599121,1.676679253578186,-1.533351182937622,-90.0140609741211,0.0023738406598567963,0.9318234324455261,1.0879400968551636,0.277849018573761,-0.7402584552764893,0.18398752808570862,4.422962188720703,-0.3231102228164673,-0.3708571791648865,-0.1532839834690094,-1.6049425601959229,2.000040292739868,-0.8000049591064453,0.29041239619255066,0.03980927914381027,-1.699938416481018,1.9999850988388062,-0.7999999523162842,10.333560943603516,-7.282329082489014,-6.129341125488281,-0.0032401797361671925,0.0005540219135582447,-13.778473854064941,7.669992446899414,-0.008184317499399185,8.391216397285461e-07,-0.02012914977967739,-218.74774169921875,300.0,-88.99752807617188,-91.66441345214844,-300.0,16.641265869140625,300.0,300.0,-30.0,-30.0
0.1,8.35893440246582,2.058537483215332,-1.4877678155899048,-90.01324462890625,0.0035911910235881805,0.9218677282333374,0.7499340176582336,0.37990260124206543,-0.6871424913406372,-0.13638682663440704,0.3971481919288635,-4.451135158538818,-0.13221375644207,-0.3929305374622345,-1.5578447580337524,2.0000109672546387,-0.7999695539474487,0.2084120213985443,0.067555271089077,-1.6997150182724,2.0000112056732178,-0.7999999523162842,31.85100555419922,-33.98341369628906,11.054802894592285,0.010341332294046879,-0.006863443646579981,-4.852630615234375,-1.875706672668457,-0.0007006824016571045,-0.029378775507211685,-2.4184487301681656e-07,25.476070404052734,300.0,-100.50251770019531,-199.49729919433594,-300.0,300.0,300.0,300.0,-30.0,-30.0
0.11,8.185571670532227,2.6615147590637207,-1.414505958557129,-90.01274871826172,0.006910344585776329,0.9100086688995361,0.5903902649879456,0.25170689821243286,-1.0654616355895996,4.464250087738037,-0.7781445980072021,-6.829851150512695,0.21770909428596497,-0.7333837747573853,-1.3302040100097656,1.9999375343322754,-0.7999013662338257,0.26479625701904297,-0.17668884992599487,-1.6998311281204224,1.999991774559021,-0.7999999523162842,39.600494384765625,-40.27325439453125,28.55570411682129,-1.1980533599853516e-05,-0.1577572524547577,13.270058631896973,-40.027000427246094,-0.000741365016438067,6.240606307983398e-05,-0.007671525236219168,300.0,-39.582763671875,-263.57684326171875,-202.54298400878906,-300.0,300.0,300.0,300.0,-30.0,-13.642087936401367
0.12,7.9976277351379395,3.1773533821105957,-1.3502895832061768,-90.01194763183594,0.010799827054142952,0.8960146903991699,0.6647206544876099,0.4515073299407959,-0.8055842518806458,1.2271555662155151,-2.9294486045837402,-4.526066303253174,0.4905911087989807,-0.8876485228538513,-1.0347788333892822,1.9999701976776123,-0.7999768853187561,0.35870224237442017,-0.5000123381614685,-1.6999229192733765,2.0000715255737305,-0.7999998331069946,27.175098419189453,-3.310641288757324,34.64915466308594,-0.00013890862464904785,-0.03702065348625183,4.862593650817871,0.34861811995506287,-7.897615432739258e-07,0.06974276155233383,-1.3256067177280784e-07,154.2098388671875,-300.0,-110.28019714355469,114.07048034667969,-300.0,263.1158447265625,300.0,300.0,-30.0,1.2248331308364868
0.13,7.9018449783325195,3.4009392261505127,-1.3221355676651,-90.00877380371094,0.010576838627457619,0.8812493681907654,1.0804967880249023,0.2614162266254425,-1.144258737564087,0.14836113154888153,-0.21873126924037933,-3.2727468013763428,0.2876780331134796,-0.7402809858322144,-1.0983341932296753,1.999991774559021,-0.7999405264854431,0.42955148220062256,-0.49997279047966003,-1.6999552249908447,2.00006103515625,-0.7999998331069946,-40.37107849121094,20.3527774810791,-23.649702072143555,7.823854684829712e-05,-0.04807437211275101,9.731017112731934,1.5674158930778503e-06,1.4901161193847656e-08,0.052740756422281265,6.409500201698393e-07,188.08444213867188,-300.0,-135.85740661621094,-0.9865188598632812,-300.0,-147.419677734375,300.0,40.98503112792969,-30.0,-30.0
0.14,7.661379814147949,3.911332368850708,-1.2569458484649658,-90.00733947753906,0.007308417931199074,0.8646717071533203,1.6942821741104126,0.09458307921886444,-1.4787362813949585,0.7848882675170898,5.167411804199219,-5.182034015655518,-0.1378924399614334,-0.4515415132045746,-1.406367301940918,1.9999542236328125,-0.79991215467453,0.5836395025253296,-0.49994632601737976,-1.6999194622039795,2.0001208782196045,-0.7999998331069946,-39.7849006652832,30.579082489013672,-33.06727600097656,-2.0638108253479004e-06,-0.14030539989471436,20.217735290527344,-0.0065742600709199905,6.332993507385254e-07,0.14251211285591125,2.496963134035468e-07,297.8738098144531,-300.0,1.0533115863800049,-90.03131103515625,-300.0,-300.0,300.0,-21.44927978515625,-30.0,-30.0
0.15,7.438409328460693,4.320274353027344,-1.2032992839813232,-90.0062484741211,0.0030812937766313553,0.8474178910255432,2.2196848392486572,0.04662962257862091,-1.4512509107589722,2.9150679111480713,8.574585914611816,1.0837613344192505,-0.36656537652015686,-0.1251564621925354,-1.6262458562850952,2.0001885890960693,-0.800075888633728,0.7155096530914307,-0.5000454783439636,-1.700052261352539,1.9995341300964355,-0.8000000715255737,-25.969022750854492,34.67884826660156,-24.917972564697266,-0.002029524650424719,0.002223361749202013,6.8473944664001465,0.008330995216965675,-0.0036776841152459383,-1.2069940567016602e-06,-0.3196278512477875,-124.49259948730469,-240.2960205078125,-266.1670837402344,0.9664764404296875,-300.0,-245.16281127929688,300.0,76.41584777832031,-30.0,-30.0
0.16,7.365930080413818,4.441854953765869,-1.1873142719268799,-90.00482940673828,-0.000735308974981308,0.8307251930236816,1.678209662437439,0.19832319021224976,-1.0215535163879395,-0.8331565260887146,3.5946946144104004,0.6264265775680542,-0.40420567989349365,0.1248326525092125,-1.7000694274902344,2.000047206878662,-0.8000210523605347,0.7682672142982483,-0.5000584721565247,-1.7000316381454468,1.9997862577438354,-0.800000011920929,0.7356848120689392,22.22649574279785,-0.03088141605257988,-0.047938380390405655,0.006476354319602251,3.4647607803344727,0.00953950546681881,-0.00014009000733494759,7.525086402893066e-07,-0.21688354015350342,-189.7044677734375,186.49493408203125,-300.0,9.948226928710938,-300.0,115.95623779296875,300.0,273.2216796875,-30.0,24.747100830078125
0.17,7.398488998413086,4.385031223297119,-1.1952608823776245,-90.0029525756836,-0.0032220687717199326,0.8139609098434448,1.6103512048721313,0.24272127449512482,-0.9817099571228027,0.20560365915298462,2.0901317596435547,2.5637874603271484,-0.3705984950065613,0.18489539623260498,-1.6850090026855469,1.9999773502349854,-0.7999931573867798,0.7693464756011963,-0.49999579787254333,-1.7000021934509277,1.9999890327453613,-0.800000011920929,4.866030216217041,-5.061334609985352,2.6564531326293945,0.0008720061741769314,-0.0004370516398921609,-2.5609068870544434,-0.00033296801848337054,-0.0005254045827314258,1.317821443080902e-07,-0.012043284252285957,-118.79730224609375,44.92979049682617,-300.0,-219.0006103515625,-300.0,108.9173355102539,300.0,300.0,-30.0,-30.0
0.18,7.515789031982422,4.178033828735352,-1.2231581211090088,-90.00116729736328,-0.004814228042960167,0.7959915399551392,1.8109519481658936,0.1672036051750183,-1.0794858932495117,1.1086511611938477,3.0529720783233643,3.3434247970581055,-0.32181981205940247,0.12768585979938507,-1.679288625717163,2.00005841255188,-0.8000133633613586,0.7281627655029297,-0.500013530254364,-1.7000107765197754,1.9999161958694458,-0.800000011920929,4.735583305358887,-6.141979694366455,-1.1414361000061035,-0.0006077415309846401,-8.101476123556495e-05,-5.29167366027832,0.0018970717210322618,-0.0013204022543504834,2.942979335784912e-07,-0.0702567994594574,-39.649314880371094,-1.4294319152832031,-300.0,-4.518199920654297,-300.0,-81.58079528808594,300.0,258.0122985839844,-30.0,-30.0
0.19,7.579320430755615,4.059857368469238,-1.2390329837799072,-89.9997787475586,-0.006869607605040073,0.7768887877464294,1.9740554094314575,0.037559643387794495,-1.1199992895126343,0.9707199335098267,3.53829288482666,1.4020594358444214,-0.23921895027160645,0.06523973494768143,-1.700000524520874,2.000013828277588,-0.800007700920105,0.6867218613624573,-0.5000207424163818,-1.7000038623809814,1.999954104423523,-0.800000011920929,10.97945785522461,-5.94770622253418,-2.8005735874176025,-0.009874742478132248,0.002205385360866785,-3.2907328605651855,0.002609873190522194,-2.3879692889750004e-05,3.4552067518234253e-07,-0.036316853016614914,-18.1988525390625,133.4429168701172,-300.0,32.48826599121094,-300.0,-34.54499053955078,300.0,292.2374267578125,-30.0,-30.0
0.2,7.592994213104248,4.032069206237793,-1.2430119514465332,-89.99800109863281,-0.00977922510355711,0.7570458054542542,2.035037040710449,0.05300851911306381,-1.088815689086914,0.2497403770685196,2.7688450813293457,0.9303104877471924,-0.12067440897226334,0.012670760974287987,-1.7000023126602173,2.000002384185791,-0.8000026941299438,0.6609672904014587,-0.5000080466270447,-1.7000008821487427,1.9999973773956299,-0.7999999523162842,12.701752662658691,-4.57110071182251,0.0027095316909253597,0.002732448745518923,-0.0005320408381521702,-2.2608485221862793,-4.8074190999614075e-05,-0.0004034818848595023,1.1775409802794456e-07,-0.0020966054871678352,-8.195456504821777,52.413665771484375,-300.0,21.704666137695312,-300.0,-27.872419357299805,300.0,299.5128173828125,-30.0,-30.0
0.21,7.624291896820068,3.9701004028320312,-1.2514779567718506,-89.9960708618164,-0.012761675752699375,0.7358807325363159,2.1708457469940186,0.05825303494930267,-1.1094216108322144,0.4866093695163727,2.6696128845214844,1.7128500938415527,-0.005615063942968845,-0.04036884382367134,-1.6999958753585815,1.9999964237213135,-0.7999966144561768,0.6342100501060486,-0.49999290704727173,-1.6999911069869995,2.0000057220458984,-0.800000011920929,10.48602294921875,-5.649844646453857,-0.00031663180561736226,0.0007197633385658264,9.251743904314935e-07,-2.8922111988067627,-5.385663826018572e-08,-4.575122147798538e-07,0.0003019364085048437,9.772202247404493e-08,15.674030303955078,-51.291847229003906,-300.0,-18.9222412109375,-300.0,-94.91755676269531,300.0,254.55856323242188,-30.0,-30.0
0.22,7.72688102722168,3.763388156890869,-1.2786462306976318,-89.99405670166016,-0.015085889026522636,0.7133118510246277,2.3077266216278076,0.05319145321846008,-1.124935507774353,1.0337190628051758,2.713655710220337,2.99554705619812,0.07437769323587418,-0.11109443753957748,-1.6999939680099487,1.999988079071045,-0.7999906539916992,0.5990183353424072,-0.4999849200248718,-1.6999866962432861,2.0000107288360596,-0.7999999523162842,5.947461128234863,-7.912752151489258,-0.0006798061076551676,0.0017064635176211596,2.6048655854538083e-07,-3.8480632305145264,-0.00011086756421718746,-2.845190465450287e-07,8.317199535667896e-05,3.8551570469280705e-07,37.00023651123047,-115.4937515258789,-300.0,-41.75251770019531,-300.0,-170.53475952148438,300.0,216.4196319580078,-30.0,-30.0
0.23,7.922766208648682,3.327270030975342,-1.334486722946167,-89.99211883544922,-0.0163862407207489,0.6894785761833191,2.438660144805908,0.02587476372718811,-1.1307778358459473,1.567015290260315,2.8083455562591553,4.5890350341796875,0.09868212789297104,-0.19184215366840363,-1.699995756149292,1.999983310699463,-0.7999893426895142,0.5521002411842346,-0.49998438358306885,-1.6999915838241577,2.000009536743164,-0.7999999523162842,-0.36594444513320923,-8.038732528686523,-0.0004271052312105894,0.0020223360043019056,-1.201988197863102e-08,-5.187026500701904,-0.0004766936181113124,-3.1152740120887756e-07,-0.00029064263799227774,2.6632460503606126e-07,37.43741989135742,-146.61346435546875,-300.0,-29.463905334472656,-300.0,-235.5521240234375,300.0,154.98373413085938,-30.0,-30.0
0.24,8.205779075622559,2.5448341369628906,-1.4314427375793457,-89.9902572631836,-0.0166303887963295,0.6645224690437317,2.5504837036132812,-0.029195360839366913,-1.125514268875122,1.7722288370132446,2.685882091522217,6.435976982116699,0.05311296135187149,-0.24700146913528442,-1.6999998092651367,1.9999836683273315,-0.7999926209449768,0.4895195960998535,-0.49998918175697327,-1.6999998092651367,2.0000033378601074,-0.7999999523162842,-7.729559898376465,-3.6927905082702637,6.122281774878502e-07,0.00029338174499571323,8.207280188798904e-09,-6.955303192138672,-0.00010798865696415305,2.718271571211517e-05,0.0004367944202385843,1.3729663805861492e-07,20.321638107299805,-145.16720581054688,-300.0,8.869585037231445,-300.0,-252.65834045410156,300.0,13.22024917602539,-30.0,-30.0
0.25,8.483269691467285,1.3445851802825928,-1.5748932361602783,-89.98832702636719,-0.01543014869093895,0.6395502686500549,2.6513278484344482,-0.06739263236522675,-0.9934696555137634,2.061039924621582,3.6628124713897705,7.948816299438477,-0.07426676899194717,-0.2476738691329956,-1.6999157667160034,1.9035733938217163,-0.8000128865242004,0.40678802132606506,-0.5000046491622925,-1.7000147104263306,1.999902367591858,-0.7999999523162842,-16.448806762695312,2.3550679683685303,-0.005753274075686932,-16.639284133911133,0.0011936211958527565,-9.245834350585938,0.0030153323896229267,-0.0006463261088356376,9.12696123123169e-08,-0.08161678910255432,-5.458580017089844,-161.35809326171875,-300.0,17.58300018310547,-300.0,-141.3916778564453,300.0,-179.59707641601562,-30.0,-30.0
0.26,8.566733360290527,-0.5708110332489014,-1.79831063747406,-89.98564147949219,-0.012037642300128937,0.6146453022956848,2.610142707824707,-0.0993812084197998,-0.8437307476997375,2.134054660797119,1.6624207496643066,12.209033966064453,-0.294543594121933,-0.21330563724040985,-1.657499074935913,1.698571801185608,-0.7999691367149353,0.28466176986694336,-0.49973341822624207,-1.6999645233154297,2.0000252723693848,-0.7999998927116394,-26.20334243774414,3.286510944366455,7.601606845855713,-22.653308868408203,2.15915497392416e-06,-14.394296646118164,9.164214134216309e-07,5.8673322200775146e-08,0.002900778315961361,-5.8851765061263e-07,-10.89011001586914,-249.9579315185547,-300.0,-53.78092575073242,-300.0,236.37730407714844,300.0,-26.346580505371094,-30.0,-30.0
0.27,8.142297744750977,-2.708137035369873,-2.052504062652588,-89.98168182373047,-0.007803753018379211,0.5896363854408264,2.270744562149048,-0.24744796752929688,-0.7055978178977966,0.49172866344451904,-0.9766629934310913,13.737277030944824,-0.5453060865402222,-0.12126882374286652,-1.558221459388733,1.6386171579360962,-1.2077279090881348,0.13563022017478943,-0.4997234344482422,-1.6999233961105347,2.0000178813934326,-0.7999998927116394,-24.820032119750977,10.01461410522461,7.8641157150268555,-3.804776906967163,-10.948511123657227,-15.202781677246094,1.2088567018508911e-06,-0.09960876405239105,-0.04574413597583771,2.8909653337905183e-08,-4.074211120605469,-148.82070922851562,-300.0,-82.14185333251953,-300.0,300.0,300.0,-40.736167907714844,-30.0,-30.0
0.28,7.4020676612854,-4.326496124267578,-2.259812116622925,-89.97593688964844,-0.0015410799533128738,0.5666455030441284,1.9677035808563232,-0.16173005104064941,-0.4186735451221466,-0.8653527498245239,-3.3130033016204834,16.15656280517578,-0.786331295967102,-0.12996123731136322,-1.5113414525985718,1.7083971500396729,-1.2925323247909546,-0.04076112434267998,-0.4997422397136688,-1.7000149488449097,1.9999666213989258,-0.7999998927116394,-23.686323165893555,-3.549071788787842,5.7255940437316895,4.263267993927002,17.596792221069336,-19.528667449951172,-0.04176725074648857,-0.06171566992998123,0.00033216550946235657,-0.20862655341625214,-86.15204620361328,-104.24769592285156,-300.0,-117.90032196044922,-300.0,300.0,300.0,-229.0431671142578,-30.0,-30.0
0.29,6.816299915313721,-5.179187297821045,-2.3798470497131348,-89.96493530273438,0.008127246052026749,0.548299252986908,1.1906704902648926,0.019997626543045044,0.2587275505065918,-2.865967273712158,-11.223222732543945,17.560546875,-0.992158830165863,-0.24813438951969147,-1.3861117362976074,1.7376854419708252,-1.307782530784607,-0.20760269463062286,-0.5001319050788879,-1.5866624116897583,1.9997717142105103,-0.8000000715255737,-19.35483741760254,-16.271120071411133,17.550426483154297,0.1370033472776413,-4.069737434387207,-15.555150032043457,0.33174997568130493,19.280406951904297,0.003027547150850296,-0.16115133464336395,-135.2686767578125,-5.755409240722656,-300.0,-86.45137023925781,300.0,300.0,300.0,-300.0,-30.0,-30.0
0.3,6.49003267288208,-5.5474853515625,-2.4362854957580566,-89.9449691772461,0.022472567856311798,0.5370430946350098,1.0890967845916748,-0.09775567054748535,1.0773447751998901,-3.8542869091033936,-15.804278373718262,21.14581871032715,-1.3024834394454956,-0.40951865911483765,-1.1963942050933838,1.6597641706466675,-1.4525905847549438,-0.34785696864128113,-0.5004541873931885,-1.231847882270813,1.7693088054656982,-0.91270512342453,-33.71327590942383,-18.494426727294922,19.666820526123047,-13.59588623046875,24.636470794677734,-17.627975463867188,3.012669801712036,39.772254943847656,-17.013275146484375,-42.9806022644043,-62.098052978515625,-300.0,-239.31109619140625,-34.628883361816406,300.0,274.39141845703125,-300.0,-300.0,-30.0,-30.0
0.31,6.247743606567383,-5.7729926109313965,-2.4739468097686768,-89.91668701171875,0.03837503120303154,0.5325842499732971,1.6471202373504639,0.04888337850570679,1.7791301012039185,-9.655832290649414,-10.914754867553711,10.381486892700195,-1.4997199773788452,-0.6091979742050171,-0.9595928192138672,1.4372597932815552,-1.4213744401931763,-0.4506435990333557,-0.4671086370944977,-0.8518702983856201,1.5751045942306519,-1.3560137748718262,0.07460987567901611,-19.989023208618164,34.078956604003906,-27.19817352294922,4.9308648109436035,-5.9048662185668945,6.9521098136901855,27.67987060546875,-16.61381721496582,113.06564331054688,41.282310485839844,-300.0,300.0,300.0,300.0,300.0,-300.0,-300.0,-30.0,-30.0
0.32,5.854114532470703,-6.1132636070251465,-2.534507989883423,-89.87672424316406,0.05325232446193695,0.5339685082435608,2.307687282562256,-0.44550758600234985,2.357419729232788,-15.133516311645508,-8.843103408813477,15.774961471557617,-1.4983174800872803,-0.7460389137268066,-0.5475495457649231,1.1836470365524292,-1.320928692817688,-0.5240415334701538,-0.36400216817855835,-0.5981118083000183,1.5704959630966187,-1.4005426168441772,-3.1130778789520264,-8.119729995727539,42.9954833984375,-35.67085266113281,26.802181243896484,-11.133437156677246,12.170998573303223,23.27545738220215,-5.271920680999756,14.475284576416016,-195.3312225341797,-300.0,300.0,300.0,300.0,300.0,-300.0,-214.87159729003906,-30.0,-30.0
0.33,5.184720993041992,-6.6297807693481445,-2.6344127655029297,-89.83061981201172,0.06602984666824341,0.5398724675178528,2.6220128536224365,-1.4545013904571533,2.3189504146575928,-17.014690399169922,-2.566498279571533,14.306709289550781,-1.4896936416625977,-0.785440981388092,-0.1590137928724289,0.9720724821090698,-1.0336692333221436,-0.6062618494033813,-0.1993839293718338,-0.367542564868927,1.5410908460617065,-1.4406797885894775,-2.169894218444824,0.9276080131530762,31.525087356567383,-12.334485054016113,61.065425872802734,-8.880719184875488,18.993106842041016,22.05255126953125,-5.678610801696777,4.204047203063965,-124.41085815429688,-300.0,300.0,300.0,300.0,276.98504638671875,-300.0,226.87664794921875,-30.0,-30.0
0.34,4.569729804992676,-7.0098958015441895,-2.7207159996032715,-89.78289031982422,0.07512295246124268,0.548889696598053,2.7240748405456543,-2.201272964477539,2.0951321125030518,-14.399730682373047,4.9318132400512695,5.682486057281494,-1.5027230978012085,-0.7004058361053467,-0.09170461446046829,1.2524293661117554,-0.7999264001846313,-0.6651398539543152,0.008570216596126556,-0.16913007199764252,1.4364749193191528,-1.4695826768875122,0.09278009086847305,15.5657958984375,-2.7027957439422607,47.2875862121582,0.001417561899870634,-5.385439872741699,21.463449478149414,17.276702880859375,-11.696748733520508,5.130693435668945,-129.62338256835938,-229.11509704589844,300.0,300.0,300.0,-266.17376708984375,-300.0,246.21498107910156,-30.0,-30.0
0.35000000000000003,4.531742572784424,-6.976208686828613,-2.722808837890625,-89.73442077636719,0.08307673782110214,0.5615198612213135,2.930800676345825,-2.7625691890716553,2.0531229972839355,-13.67459774017334,6.503688335418701,-5.061835289001465,-1.4023091793060303,-0.4444619417190552,-0.12056761234998703,1.6681619882583618,-0.7998865842819214,-0.6454387903213501,0.22407887876033783,0.02361552231013775,1.2535507678985596,-1.4517066478729248,22.206331253051758,32.10532760620117,0.1520565152168274,38.710872650146484,0.00012268498539924622,6.273130416870117,21.31678581237793,21.162580490112305,-23.46128273010254,12.79419231414795,85.91981506347656,250.87136840820312,-14.694290161132812,300.0,242.69737243652344,-300.0,-300.0,-36.75532531738281,-30.0,-30.0
0.36,5.277241230010986,-6.361079216003418,-2.6068577766418457,-89.68126678466797,0.09211444109678268,0.5758551359176636,3.500643491744995,-3.1985983848571777,1.6317648887634277,-14.098284721374512,4.1653289794921875,-16.19513702392578,-1.137819528579712,-0.0711817815899849,-0.1645701825618744,1.9097434282302856,-0.799997866153717,-0.5240401029586792,0.43827223777770996,0.29783323407173157,0.9218816757202148,-1.3622850179672241,36.74371337890625,40.90451431274414,-6.053857803344727,18.261110305786133,-0.0035526081919670105,16.7584171295166,20.66929817199707,32.10914611816406,-42.51461410522461,19.32772445678711,164.02438354492188,288.19451904296875,-56.56647872924805,300.0,300.0,-235.09019470214844,-300.0,-124.30877685546875,-30.0,-30.0
0.37,6.106838226318359,-5.482478141784668,-2.4601569175720215,-89.62467193603516,0.10642288625240326,0.5867168307304382,3.8258912563323975,-2.653679609298706,0.5715190172195435,-12.554421424865723,-7.043109893798828,-17.14417266845703,-0.7902984619140625,0.1623324751853943,-0.22760158777236938,1.9798381328582764,-0.7999798059463501,-0.30579209327697754,0.6882414221763611,0.6589632630348206,0.4390980005264282,-1.0456098318099976,42.25423049926758,18.43535804748535,-2.816664695739746,1.7858211994171143,-0.005131947807967663,33.45936965942383,32.64984130859375,33.27529525756836,-48.875370025634766,49.89509582519531,279.6827392578125,220.88218688964844,-8.308563232421875,-68.89412689208984,300.0,204.85581970214844,11.434051513671875,-69.80081176757812,-30.0,-30.0
0.38,6.6154351234436035,-4.765652656555176,-2.3525426387786865,-89.5733642578125,0.12187671661376953,0.5968317985534668,3.761998176574707,-2.6224496364593506,0.37716639041900635,-2.437817096710205,-5.654935359954834,-13.644401550292969,-0.4064740240573883,0.20761170983314514,-0.3643736243247986,2.0000319480895996,-0.7999969124794006,-0.1897900253534317,0.8158882856369019,0.7763029932975769,0.6044741868972778,-0.8000004291534424,43.28241729736328,-2.227327346801758,-17.546201705932617,-0.15263773500919342,-0.0048495447263121605,13.330431938171387,4.253948211669922,9.387731552124023e-07,44.11947250366211,0.006228258833289146,109.52473449707031,150.57150268554688,-300.0,-186.34803771972656,300.0,-2.5707855224609375,300.0,106.13701629638672,-30.0,-30.0
0.39,7.074634075164795,-3.953648805618286,-2.237173080444336,-89.52738189697266,0.13923710584640503,0.6067373156547546,4.208041667938232,-2.177143096923828,0.24197585880756378,2.25359845161438,-1.7820615768432617,-13.651420593261719,-0.09034411609172821,0.10210517048835754,-0.5384900569915771,2.000138521194458,-0.7998018264770508,-0.13939110934734344,0.6573629975318909,0.7800641655921936,1.102625846862793,-0.7999999523162842,27.214765548706055,-12.962174415588379,-18.914209365844727,-0.24112235009670258,1.6205012798309326e-06,3.719407796859741,-28.254077911376953,-0.23972803354263306,49.684234619140625,-0.00019417652219999582,115.14253234863281,-84.22795104980469,-300.0,74.5567626953125,300.0,-65.10608673095703,300.0,204.61721801757812,-30.0,-30.0
0.4,7.42270040512085,-3.1351735591888428,-2.126222610473633,-89.48390197753906,0.15823392570018768,0.6146075129508972,4.193286895751953,-1.607174277305603,-0.10167109221220016,4.8642120361328125,-4.834078788757324,-11.779298782348633,0.036309730261564255,-0.0509541854262352,-0.6572431325912476,2.0000338554382324,-0.8001510500907898,-0.06930067390203476,0.30705416202545166,0.7751131057739258,1.5727545022964478,-0.800000011920929,4.047884464263916,-14.421388626098633,-8.586793899536133,-0.06348463147878647,0.06157927215099335,4.897395133972168,-44.114559173583984,4.093353271484375,43.4099235534668,-1.995349521166645e-05,100.69486999511719,-175.91168212890625,-300.0,89.34092712402344,268.02984619140625,8.38629150390625,300.0,244.03819274902344,-30.0,-30.0
0.41000000000000003,7.613063335418701,-2.4939095973968506,-2.042105197906494,-89.44074249267578,0.17748293280601501,0.6201702952384949,4.563081741333008,-1.380244255065918,-0.32970258593559265,7.552865982055664,-6.50576114654541,-11.140669822692871,-0.022706439718604088,-0.18833409249782562,-0.7722493410110474,1.9998588562011719,-0.8004215359687805,0.07207591831684113,-0.019371366128325462,0.7477573156356812,2.0012712478637695,-0.737497866153717,-8.895291328430176,-14.234663963317871,-8.104635238647461,0.09937330335378647,1.063339114189148,15.41336727142334,-36.559295654296875,9.084206581115723,-2.1118738651275635,50.00001525878906,-4.611091613769531,-157.04586791992188,-171.46087646484375,-58.054115295410156,-58.45957946777344,-2.9830894470214844,300.0,233.16635131835938,-30.0,-30.0
0.42,7.749770641326904,-1.8124133348464966,-1.954413652420044,-89.39164733886719,0.19666221737861633,0.626538097858429,5.077790260314941,-1.098280429840088,-0.38802194595336914,4.314492702484131,-1.9526559114456177,-8.00681209564209,-0.10626666992902756,-0.24921081960201263,-0.8968061208724976,1.999959111213684,-0.8000398278236389,0.20140917599201202,-0.2628677189350128,0.7624615430831909,2.0000100135803223,-0.800000011920929,-9.423602104187012,-1.683225393295288,-14.007837295532227,1.991167664527893e-06,-0.025724072009325027,8.786242485046387,-21.763700485229492,-3.9267821311950684,-0.11748386919498444,-0.0008840486407279968,-127.63858032226562,5.418418884277344,57.1068115234375,100.76852416992188,-300.0,11.87838363647461,300.0,300.0,-30.0,-30.0
0.43,7.796993732452393,-1.3063455820083618,-1.890173316001892,-89.34092712402344,0.21323710680007935,0.6352380514144897,5.183436870574951,-0.8146885633468628,-0.1790243685245514,2.672915458679199,-2.1449787616729736,-5.295781135559082,-0.1469249427318573,-0.2634103298187256,-0.9794796109199524,1.9995592832565308,-0.799950897693634,0.2466767281293869,-0.40541696548461914,0.6673175692558289,2.00012469291687,-0.799999475479126,-1.2110735177993774,-2.638206958770752,-3.8219871520996094,-0.0002921372652053833,-0.07841140776872635,1.557541847229004,-9.470640182495117,-13.798190116882324,-0.08610659092664719,-0.000656181713566184,-54.25386047363281,0.8760948181152344,146.18106079101562,-77.16165161132812,-300.0,224.070068359375,300.0,300.0,-30.0,-30.0
0.44,7.789767265319824,-0.9911438822746277,-1.8504559993743896,-89.28985595703125,0.22794631123542786,0.6467766165733337,5.267011642456055,-0.5807695388793945,-0.004197839647531509,0.27445074915885925,-1.2902814149856567,-2.801907777786255,-0.15644335746765137,-0.2773270905017853,-0.9843877553939819,1.999431848526001,-0.799993097782135,0.23698543012142181,-0.4135313332080841,0.4676760733127594,1.9999990463256836,-0.800000011920929,-0.510756254196167,-0.9813188314437866,3.139704942703247,-0.00024344027042388916,-0.011008219793438911,-1.246214509010315,5.481860160827637,-22.707019805908203,8.925795555114746e-06,-0.4615653157234192,37.625038146972656,-55.76025390625,171.5474395751953,-42.0694580078125,-300.0,211.2847442626953,300.0,300.0,-30.0,-30.0
0.45,7.757087230682373,-0.8178885579109192,-1.8288512229919434,-89.23905944824219,0.24116599559783936,0.6581177115440369,5.492654323577881,-0.3976081609725952,-0.12535545229911804,-1.0036699771881104,2.143871545791626,-1.6482493877410889,-0.170868918299675,-0.27266502380371094,-0.9640644192695618,1.9997153282165527,-0.7998741269111633,0.1981726884841919,-0.36621156334877014,0.19598817825317383,2.0001492500305176,-0.7999995946884155,-1.8477407693862915,0.9587247967720032,1.7014092206954956,-6.754696369171143e-05,-0.2012687623500824,-5.5417351722717285,4.433525085449219,-31.336698532104492,-0.012720732018351555,-0.0006875099497847259,71.1392822265625,-31.737445831298828,4.269634246826172,-8.957624435424805,-284.82037353515625,105.44712829589844,300.0,300.0,-30.0,-30.0
0.46,7.7200927734375,-0.6575782895088196,-1.8086111545562744,-89.18881225585938,0.25476330518722534,0.6664596796035767,5.729027271270752,-0.19249215722084045,-0.34247317910194397,0.11696286499500275,4.926934719085693,-2.0597922801971436,-0.14283110201358795,-0.296945184469223,-0.9471677541732788,1.9999735355377197,-0.7998790144920349,0.08387257158756256,-0.36661195755004883,-0.148859441280365,2.0001091957092285,-0.7999997138977051,6.084025859832764,-5.605483531951904,1.8253545761108398,-1.0058283805847168e-07,-0.028676332905888557,-14.866813659667969,-3.5143179893493652,-38.23310089111328,-0.021967926993966103,-0.0001307288184762001,57.84806442260742,52.43173599243164,-205.0167999267578,-38.36937713623047,-237.783935546875,104.6590347290039,300.0,300.0,-30.0,-30.0
0.47000000000000003,7.683822154998779,-0.41022953391075134,-1.7766432762145996,-89.13766479492188,0.26991206407546997,0.6719375252723694,5.71856689453125,-0.0031111640855669975,-0.42572927474975586,1.1197600364685059,3.0261240005493164,-2.9754695892333984,-0.01667451299726963,-0.3788938522338867,-0.8640363216400146,1.9998881816864014,-0.7999186515808105,-0.016643958166241646,-0.3659111559391022,-0.47026580572128296,2.0000460147857666,-0.7999998927116394,16.169260025024414,-10.633499145507812,12.486739158630371,3.46451997756958e-07,-0.09783955663442612,-6.417038440704346,-2.1959328651428223,-30.1188907623291,-0.002313685603439808,-0.00016985090041998774,124.66677856445312,21.450511932373047,-236.81553649902344,5.321044921875,-139.58285522460938,204.2357635498047,300.0,300.0,-30.0,-30.0
0.48,7.636257648468018,-0.23985348641872406,-1.7542864084243774,-89.08524322509766,0.28600332140922546,0.6747539639472961,5.957026481628418,0.10239198058843613,-0.5242912769317627,0.4101617932319641,3.9843592643737793,-1.1137791872024536,0.09064877033233643,-0.4212161898612976,-0.7254083156585693,1.9998555183410645,-0.7999513149261475,-0.06767065823078156,-0.3776995837688446,-0.7849482893943787,2.0000925064086914,-0.7999995350837708,6.161133289337158,-1.0224754810333252,14.71649169921875,-0.00012020766735076904,-0.07783222943544388,-3.345679759979248,-2.878612518310547,-33.14042282104492,-0.14184978604316711,-0.0005905301077291369,128.62266540527344,-133.2135009765625,-173.0157928466797,126.19954681396484,-300.0,220.83749389648438,300.0,300.0,-30.0,-30.0
0.49,7.581978797912598,-0.10998516529798508,-1.7370522022247314,-89.03023529052734,0.302063912153244,0.6747558116912842,6.2089619636535645,0.1437746286392212,-0.6428209543228149,-0.10986512899398804,3.799506187438965,-1.7266931533813477,0.15975356101989746,-0.40038660168647766,-0.5596761703491211,2.0000224113464355,-0.7999499440193176,-0.09851375222206116,-0.40570077300071716,-1.0939784049987793,2.000096559524536,-0.7999996542930603,6.462399005889893,3.441056251525879,16.860546112060547,0.003726921509951353,-0.0033247300889343023,-2.7401845455169678,-4.144451141357422,-31.93705940246582,-0.01930019073188305,-3.4259792300872505e-06,48.282432556152344,-21.09076690673828,-110.75624084472656,79.45933532714844,-188.57252502441406,100.30995178222656,300.0,300.0,-30.0,-30.0
0.5,7.521940231323242,0.13924162089824677,-1.7038156986236572,-88.97277069091797,0.3177701532840729,0.6722286939620972,6.340810775756836,0.19902242720127106,-0.6609911322593689,0.18744634091854095,3.1901283264160156,-4.089684009552002,0.22318439185619354,-0.3545011579990387,-0.40325021743774414,2.000037431716919,-0.799973726272583,-0.10301928967237473,-0.45978039503097534,-1.3674430847167969,1.9998105764389038,-0.800000011920929,5.9555487632751465,4.658000946044922,14.444854736328125,-0.002301305765286088,-1.6461126506328583e-06,1.0288093090057373,-7.017345428466797,-26.347475051879883,0.06624245643615723,1.6419303392467555e-06,33.94667053222656,2.8986244201660156,-42.871578216552734,4.283998489379883,-29.176986694335938,-24.453826904296875,300.0,300.0,-30.0,-30.0
0.51,7.442791938781738,0.5422738790512085,-1.6494262218475342,-88.91407775878906,0.3333338797092438,0.6677907705307007,6.500543594360352,0.44810622930526733,-0.601974368095398,0.8672016263008118,4.161201477050781,-6.263537406921387,0.26405179500579834,-0.3329086899757385,-0.28980588912963867,2.0000381469726562,-0.799961268901825,-0.11071272939443588,-0.5000526309013367,-1.6256309747695923,1.9999029636383057,-0.7999999523162842,2.6731393337249756,-0.0012246172409504652,8.499687194824219,-0.004948385059833527,-0.001109544187784195,-1.6745386123657227,-0.004393504001200199,-26.397518157958984,-2.5331974029541016e-07,-0.12375123053789139,28.53024673461914,-4.744782447814941,-2.981700897216797,-136.54110717773438,19.80645751953125,-90.28716278076172,300.0,300.0,-30.0,-30.0
0.52,7.329041481018066,1.032677173614502,-1.5819756984710693,-88.85507202148438,0.34919750690460205,0.6655501127243042,5.745896816253662,0.7055128216743469,-0.2808395028114319,2.878819465637207,-2.369814157485962,-6.573034286499023,0.2709638178348541,-0.3545081317424774,-0.16103164851665497,2.000030517578125,-0.8000442981719971,-0.039440661668777466,-0.4994986653327942,-1.6967649459838867,1.9997758865356445,-0.800000011920929,-2.2335658073425293,-4.698662757873535,12.420234680175781,-0.00612337701022625,0.015545274131000042,10.200942993164062,-0.7997308373451233,0.941791296005249,2.0116567611694336e-07,-0.19559122622013092,-56.415775299072266,-21.671985626220703,-63.55604553222656,-114.04046630859375,101.94959259033203,-145.76504516601562,300.0,267.9233703613281,-30.0,-30.0
0.53,7.18635368347168,1.5023682117462158,-1.5155224800109863,-88.7976303100586,0.36573687195777893,0.6638822555541992,5.995718002319336,1.0629719495773315,-0.3651813566684723,4.182126522064209,2.3815298080444336,-6.6622114181518555,0.12123466283082962,-0.4798058271408081,-0.17888854444026947,2.000077962875366,-0.8000229597091675,0.05355960503220558,-0.5001205801963806,-1.7000503540039062,1.9995784759521484,-0.8000000715255737,-23.51769256591797,-17.546810150146484,-12.034134864807129,-0.0014833880122750998,-0.0035930706653743982,9.02843952178955,0.01078527420759201,-0.004137595184147358,1.1920928955078125e-07,-0.3583827018737793,-49.29450225830078,-65.5076675415039,-62.96123123168945,-180.7211151123047,-300.0,-300.0,300.0,72.07633972167969,-30.0,-30.0
0.54,7.011085510253906,1.9746614694595337,-1.4467116594314575,-88.74202728271484,0.3819463551044464,0.6621837615966797,5.903465747833252,1.488258957862854,-0.22874394059181213,3.2740893363952637,3.9875235557556152,-7.853457450866699,-0.04393665865063667,-0.5781062841415405,-0.34980064630508423,2.0000033378601074,-0.8000354170799255,0.134737029671669,-0.5000939965248108,-1.7000280618667603,1.9997302293777466,-0.800000011920929,-13.638448715209961,-6.943045616149902,-19.258535385131836,0.00012198425974929705,-0.0023236218839883804,6.945076942443848,0.00550070870667696,-0.0032630539499223232,-4.76837158203125e-07,-0.2164173424243927,-136.4957275390625,120.67508697509766,-56.84061813354492,101.14652252197266,-300.0,-165.92022705078125,300.0,137.33848571777344,-30.0,-30.0
0.55,6.792191982269287,2.4705631732940674,-1.3719813823699951,-88.68799591064453,0.398058146238327,0.6603804230690002,5.886571407318115,2.0034499168395996,-0.03145412355661392,2.6464004516601562,7.294416427612305,-8.810778617858887,-0.24017241597175598,-0.5760628581047058,-0.6524158120155334,2.0000462532043457,-0.8000622987747192,0.18549217283725739,-0.5001497864723206,-1.7000516653060913,1.9995391368865967,-0.8000001311302185,-21.67619514465332,4.713240623474121,-36.495784759521484,-0.004544662311673164,-0.0033541303128004074,3.3255364894866943,0.012034330517053604,-0.00513045210391283,3.5762786865234375e-07,-0.383325457572937,-187.0419921875,113.34369659423828,-157.06253051757812,153.64511108398438,-300.0,-298.20703125,300.0,136.30343627929688,-30.0,-30.0
0.56,6.544816017150879,2.9332568645477295,-1.298965573310852,-88.63496398925781,0.4148176312446594,0.6578826308250427,5.817821979522705,2.319382667541504,0.12996141612529755,4.658434867858887,8.885649681091309,-8.159358024597168,-0.3767916262149811,-0.477811336517334,-0.9838624000549316,2.000061511993408,-0.8000660538673401,0.1790950894355774,-0.5000969171524048,-1.700041651725769,1.9996156692504883,-0.8000000715255737,-10.915190696716309,9.637039184570312,-34.0634651184082,-0.023126991465687752,-0.0023556030355393887,-3.9155800342559814,0.007223050110042095,-0.004033986013382673,2.1606683731079102e-07,-0.30045732855796814,-190.53663635253906,127.28176879882812,-296.7362060546875,-17.64726448059082,-300.0,-192.0889129638672,300.0,149.12826538085938,-30.0,-30.0
0.5700000000000001,6.31070613861084,3.286746025085449,-1.239558219909668,-88.58075714111328,0.43214118480682373,0.6541702151298523,5.50045108795166,2.6755566596984863,0.33998554944992065,4.284811019897461,6.085249423980713,-6.360684394836426,-0.360972136259079,-0.40635669231414795,-1.1940077543258667,1.999951958656311,-0.7999858260154724,0.11990153044462204,-0.4999719262123108,-1.699942708015442,2.0000295639038086,-0.7999998927116394,6.380259037017822,3.6904923915863037,-15.263446807861328,0.002558214822784066,2.3970205802470446e-06,-7.170799255371094,7.825256034266204e-07,1.2489035725593567e-06,0.002522760536521673,5.43181158718653e-07,-37.307376861572266,22.075584411621094,-300.0,-60.63671112060547,-300.0,148.0708770751953,300.0,251.70162963867188,-30.0,-30.0
0.58,6.112998008728027,3.5252974033355713,-1.1960418224334717,-88.5246810913086,0.44982388615608215,0.6492178440093994,5.298655033111572,2.9616737365722656,0.3411773443222046,4.9009318351745605,4.127835273742676,-4.416694164276123,-0.2990988492965698,-0.4175148606300354,-1.3071047067642212,1.9999504089355469,-0.7999655604362488,0.03823709487915039,-0.49994638562202454,-1.6999281644821167,2.00004243850708,-0.7999999523162842,5.192669868469238,-4.219911098480225,-8.730026245117188,0.0011476061772555113,1.25609221868217e-06,-8.66550064086914,6.194059096742421e-07,1.1734664440155029e-07,0.004113039467483759,-7.81717972131446e-07,57.06036376953125,-124.8814926147461,-300.0,-110.78691101074219,-300.0,131.1895294189453,300.0,201.96385192871094,-30.0,-30.0
0.59,5.949377536773682,3.6828088760375977,-1.1642553806304932,-88.4676513671875,0.46780362725257874,0.642378568649292,5.355794429779053,2.989846706390381,0.1260545551776886,6.408692359924316,5.279492378234863,-4.119025707244873,-0.34141480922698975,-0.4398941397666931,-1.456113576889038,1.9999943971633911,-0.7998408079147339,-0.019451187923550606,-0.49994343519210815,-1.6999483108520508,2.000037431716919,-0.7999999523162842,-10.735087394714355,-1.191575527191162,-19.52955436706543,0.0053095631301403046,1.944601535797119e-06,-3.121915340423584,1.641456037759781e-07,-2.3655593395233154e-07,0.005790679715573788,-4.1531529859639704e-07,246.7118682861328,-246.07330322265625,-300.0,-100.39326477050781,-300.0,-81.82288360595703,300.0,111.91506958007812,-30.0,-30.0
0.6,5.816045761108398,3.781503200531006,-1.141465425491333,-88.41050720214844,0.48557668924331665,0.6333649158477783,5.311686992645264,3.091867685317993,-0.00489729642868042,6.504152297973633,5.122581958770752,-3.5931174755096436,-0.4792349934577942,-0.4229802191257477,-1.663260579109192,1.999955415725708,-0.7999502420425415,-0.029883503913879395,-0.49993497133255005,-1.69987952709198,2.0000534057617188,-0.7999998927116394,-15.554880142211914,2.16463565826416,-20.997085571289062,4.079192876815796e-07,-0.0775090679526329,0.959183931350708,3.243447281420231e-06,4.470348358154297e-07,0.008347436785697937,2.387714630458504e-07,181.0470428466797,-150.5998992919922,-300.0,-52.42628860473633,-300.0,39.763816833496094,300.0,39.25172805786133,-30.0,-30.0
0.61,5.71317720413208,3.8267154693603516,-1.1273596286773682,-88.35191345214844,0.5026529431343079,0.6258822083473206,4.871654510498047,3.633892774581909,0.25174081325531006,3.6544084548950195,1.2082405090332031,-1.0827497243881226,-0.5857152342796326,-0.44059041142463684,-1.693759560585022,1.8954936265945435,-0.7999558448791504,-0.015601803548634052,-0.4999274015426636,-1.699952244758606,2.0000579357147217,-0.7999998927116394,-11.670371055603027,-4.789478778839111,2.4727108478546143,-15.169483184814453,-0.01317622885107994,1.813025712966919,2.321554347872734e-06,2.0675361156463623e-07,0.009449549950659275,-1.7092679627239704e-07,115.8321304321289,-211.17189025878906,-300.0,-85.99130249023438,-300.0,173.6864471435547,300.0,-75.68556213378906,-30.0,-30.0
0.62,5.7014665603637695,3.7302825450897217,-1.1377241611480713,-88.29132080078125,0.5201512575149536,0.6195374131202698,4.960303783416748,3.8070218563079834,0.3030688166618347,3.311370611190796,1.0037195682525635,1.778099536895752,-0.7573150396347046,-0.4638805687427521,-1.6551426649093628,1.7199524641036987,-0.8617481589317322,0.003393468912690878,-0.4999419152736664,-1.6999300718307495,2.000044584274292,-0.7999998927116394,-16.99568748474121,-7.8504252433776855,1.3475146293640137,-9.802936553955078,4.7925262451171875,2.3947269916534424,-0.054037705063819885,-0.11154340207576752,-0.11410022526979446,2.031192707363516e-07,135.49826049804688,-283.0780944824219,-300.0,-67.01976776123047,-300.0,112.9376220703125,300.0,-300.0,-30.0,1.2207412719726562
0.63,5.810100078582764,3.4321489334106445,-1.1831326484680176,-88.22845458984375,0.5378069281578064,0.6156629920005798,5.102757930755615,4.063825607299805,0.5116024613380432,1.7184669971466064,-0.3445727825164795,6.312966823577881,-0.9401572346687317,-0.5192854404449463,-1.6362510919570923,1.629467248916626,-0.8294341564178467,-0.0012789019383490086,-0.4998517334461212,-1.6999601125717163,2.000035047531128,-0.7999999523162842,-20.716999053955078,-3.7590584754943848,4.179660797119141,-13.788068771362305,-21.755836486816406,-2.9039459228515625,-0.012453420087695122,-0.06475846469402313,-0.1303717941045761,-9.772936027729884e-05,-27.125431060791016,-223.4714813232422,-300.0,-14.983905792236328,-300.0,278.8343811035156,300.0,-300.0,-30.0,-30.0
0.64,5.983180999755859,2.9701266288757324,-1.255618691444397,-88.1624984741211,0.5555749535560608,0.61534583568573,5.490902900695801,4.268638610839844,0.8714486956596375,-1.7099108695983887,-0.7691457271575928,8.896302223205566,-1.1023494005203247,-0.6089034080505371,-1.5801242589950562,1.5377849340438843,-0.7991525530815125,-0.03588707372546196,-0.4999157786369324,-1.699985146522522,2.000001907348633,-0.800000011920929,-17.27180290222168,-5.704348564147949,11.599309921264648,-17.158145904541016,2.0769271850585938,-4.165367603302002,-0.11600837856531143,2.294778823852539e-06,-0.054008081555366516,-0.03803889825940132,3.8552703857421875,-121.95631408691406,-300.0,84.86974334716797,-300.0,300.0,300.0,-300.0,-30.0,-30.0
0.65,6.196468830108643,2.295341968536377,-1.3615097999572754,-88.09273529052734,0.5729601979255676,0.6185314655303955,6.236794948577881,4.15040922164917,1.384577989578247,-5.33093786239624,-0.1088109016418457,13.0791015625,-1.2850109338760376,-0.6534866094589233,-1.4208837747573853,1.3449751138687134,-0.7932103872299194,-0.09443826228380203,-0.5000438094139099,-1.7000137567520142,1.9999667406082153,-0.7999999523162842,-22.46843147277832,-1.032065987586975,16.85679817199707,-22.571762084960938,-1.8808902502059937,-7.0482869148254395,-0.0656467080116272,-0.011283510364592075,-8.195638656616211e-08,-0.15528710186481476,-12.051807403564453,-170.28378295898438,-300.0,225.8386993408203,-300.0,300.0,300.0,-300.0,-30.0,-22.5535945892334
0.66,6.3823113441467285,1.3947652578353882,-1.5013253688812256,-88.0194320678711,0.5888823866844177,0.6251722574234009,7.096588134765625,3.62300443649292,2.2175979614257812,-10.142070770263672,2.6284186840057373,14.785679817199707,-1.4663243293762207,-0.6622004508972168,-1.1555670499801636,1.0417170524597168,-0.7478309869766235,-0.14778408408164978,-0.500066876411438,-1.7000184059143066,1.9999412298202515,-0.7999998927116394,-20.006315231323242,3.316281318664551,27.968852996826172,-32.87089538574219,3.0293707847595215,-4.022703647613525,-0.05150246247649193,-0.01765354350209236,-2.436339855194092e-06,-0.20896250009536743,58.94367218017578,-88.32642364501953,-300.0,300.0,-25.241382598876953,300.0,300.0,-300.0,-30.0,5.343112945556641
0.67,6.434427738189697,0.5336539149284363,-1.634487271308899,-87.9439468383789,0.6017524600028992,0.6353722810745239,7.100178241729736,2.4527881145477295,2.7721126079559326,-12.740886688232422,0.7503432035446167,13.674373626708984,-1.5000070333480835,-0.7178179025650024,-0.6950719356536865,0.5541727542877197,-0.6393162608146667,-0.114029161632061,-0.5000028610229492,-1.591904640197754,1.973958134651184,-0.7999998927116394,-0.4392481744289398,-2.1927988529205322,49.7237548828125,-50.0000114440918,5.165081977844238,5.1372809410095215,0.000981812598183751,12.848164558410645,-4.046069622039795,7.131402526283637e-07,-38.088008880615234,-161.96669006347656,-248.91159057617188,175.90432739257812,300.0,226.8482666015625,-23.89599609375,-300.0,-30.0,-30.0
0.68,6.378483772277832,-0.22939114272594452,-1.7535896301269531,-87.8714370727539,0.6163249015808105,0.6465808749198914,6.856592178344727,1.174904465675354,2.674823045730591,-5.5384979248046875,-0.615713894367218,12.524292945861816,-1.503597378730774,-0.7541162371635437,-0.3407880961894989,0.17458020150661469,-0.6294804811477661,-0.0774775967001915,-0.5000267624855042,-1.3881527185440063,1.796166181564331,-0.7999997138977051,0.01183408685028553,-5.119336128234863,28.553951263427734,-31.033292770385742,-0.5799139142036438,-1.3268682956695557,0.005830676760524511,22.162391662597656,-26.486705780029297,-6.98775693308562e-07,-270.3819580078125,-202.85195922851562,-79.82421112060547,-50.18421936035156,300.0,-258.4649658203125,-159.73748779296875,-44.27143859863281,-30.0,-3.508671522140503
0.6900000000000001,6.247444152832031,-0.8718781471252441,-1.8561360836029053,-87.7990951538086,0.6346442699432373,0.6573489308357239,7.010095596313477,0.22290010750293732,2.3574142456054688,-4.128011703491211,-1.9619475603103638,10.576215744018555,-1.5047920942306519,-0.8069601058959961,-0.1429566890001297,0.017879683524370193,-0.6900503039360046,-0.13649171590805054,-0.4311636686325073,-1.1463682651519775,1.6074802875518799,-0.8000001907348633,0.04486263170838356,-3.8840672969818115,14.420357704162598,-6.517285346984863,-6.097808837890625,-15.406661987304688,14.36939811706543,18.362451553344727,-9.622541427612305,1.4501909390673973e-05,-300.0,-109.86416625976562,92.62380981445312,140.539306640625,300.0,-248.56243896484375,251.58865356445312,-1.1954269409179688,-30.0,3.9535160064697266
0.7000000000000001,6.068241119384766,-1.4194279909133911,-1.9467816352844238,-87.72589111328125,0.6550942063331604,0.6692302227020264,7.097532272338867,-0.46947965025901794,2.48600172996521,-3.2654263973236084,-1.5846458673477173,10.115639686584473,-1.5016757249832153,-0.8332589864730835,-0.028235837817192078,7.877285679569468e-05,-0.6661772131919861,-0.21750634908676147,-0.3961482346057892,-0.9344874620437622,1.5188993215560913,-0.7685995101928711,0.03459613025188446,0.796874463558197,9.90455436706543,0.006034392863512039,2.891187906265259,-8.414924621582031,2.8150529861450195,19.36400604248047,-9.48340892791748,-1.79494047164917,-148.9536895751953,-141.87376403808594,53.140995025634766,262.07843017578125,300.0,-50.44017028808594,-193.13229370117188,-188.53480529785156,-30.0,-0.07106208801269531
0.71,5.8327741622924805,-1.9645041227340698,-2.0415048599243164,-87.65118408203125,0.6751688718795776,0.6858092546463013,6.9532151222229,-1.285071849822998,2.6895627975463867,-4.309309959411621,-3.2675116062164307,11.819390296936035,-1.5006349086761475,-0.8366052508354187,0.08065676689147949,4.755564805236645e-05,-0.6487376093864441,-0.3176659047603607,-0.3495466113090515,-0.7170529365539551,1.4383893013000488,-0.8507747650146484,-0.12157546728849411,1.179638147354126,11.45777702331543,-0.08409715443849564,1.1306285858154297,-13.356989860534668,5.454167366027832,20.498733520507812,-8.559941291809082,-8.433489799499512,-210.35523986816406,-113.25153350830078,300.0,90.04000091552734,300.0,-13.232532501220703,-300.0,-69.30318450927734,-30.0,0.3797154426574707
0.72,5.523705959320068,-2.5304152965545654,-2.145984411239624,-87.57462310791016,0.694694995880127,0.7078850269317627,6.696806907653809,-2.2203409671783447,2.7188782691955566,-5.286350727081299,-5.9099931716918945,12.406723022460938,-1.500377893447876,-0.8396205902099609,0.19800764322280884,0.0008907014271244407,-0.5861898064613342,-0.4091421663761139,-0.3067012131214142,-0.4485541880130768,1.3153167963027954,-0.9174656271934509,-0.10243730247020721,0.14964087307453156,11.659875869750977,0.4174797534942627,5.724015712738037,-8.64080810546875,4.6050944328308105,28.105085372924805,-15.195352554321289,-1.605356216430664,-129.679931640625,-106.24716186523438,300.0,31.79248046875,300.0,-7.302318572998047,-300.0,-4.229629039764404,-30.0,-1.3424911499023438
0.73,5.102652549743652,-3.146787643432617,-2.2690863609313965,-87.49593353271484,0.7129263281822205,0.735323429107666,6.556180000305176,-3.2929527759552,2.579606533050537,-8.040946006774902,-4.838010311126709,14.850933074951172,-1.4982281923294067,-0.8144628405570984,0.32633957266807556,0.05004668980836868,-0.4878152012825012,-0.5173598527908325,-0.24575723707675934,-0.13474594056606293,1.1144399642944336,-0.9458916187286377,-1.9468342065811157,5.701182842254639,12.158071517944336,7.639819145202637,9.41271686553955,-13.930436134338379,7.420652389526367,29.30375099182129,-23.015666961669922,8.135261535644531,-179.35008239746094,-129.55789184570312,300.0,206.68838500976562,300.0,119.79745483398438,-300.0,63.67432403564453,-30.0,5.167530059814453
0.74,4.553380012512207,-3.7701222896575928,-2.4084129333496094,-87.41435241699219,0.7300742864608765,0.7668212652206421,6.139828205108643,-4.4409708976745605,1.8776754140853882,-11.33543872833252,-6.262484073638916,14.141204833984375,-1.399336576461792,-0.7158687710762024,0.5337870717048645,0.1532222330570221,-0.3405391573905945,-0.6337753534317017,-0.16213330626487732,0.25306445360183716,0.7932626605033875,-0.9014955759048462,12.037927627563477,12.49259090423584,21.725963592529297,12.611254692077637,14.318608283996582,-15.055622100830078,6.79834508895874,41.05424499511719,-38.891197204589844,13.102872848510742,-75.30079650878906,-73.54546356201172,300.0,80.12690734863281,300.0,95.24360656738281,-300.0,57.570953369140625,-30.0,4.683464050292969
0.75,4.059778690338135,-4.182115077972412,-2.51737380027771,-87.33313751220703,0.7475942373275757,0.7973354458808899,5.728634834289551,-4.893030643463135,0.4178059697151184,-11.592562675476074,-4.4469499588012695,7.242023468017578,-1.2360180616378784,-0.5082842111587524,0.6704382300376892,0.3918425440788269,-0.26166123151779175,-0.6174716949462891,0.007920035161077976,0.6980047225952148,0.31153613328933716,-0.7125557661056519,12.420248031616211,19.55510711669922,6.9215407371521,26.74916648864746,8.967781066894531,12.448766708374023,26.143844604492188,44.85273361206055,-50.000003814697266,14.409420013427734,9.358423233032227,300.0,220.14358520507812,-82.3056640625,152.44284057617188,-300.0,-184.23825073242188,-41.12120056152344,-22.95519256591797,-3.0618209838867188
0.76,3.6782655715942383,-4.422237873077393,-2.594449996948242,-87.25825500488281,0.7634244561195374,0.8266639113426208,5.376081943511963,-6.1493682861328125,0.7203882932662964,0.09022602438926697,1.965259313583374,7.977372169494629,-1.0392210483551025,-0.20651569962501526,0.633767306804657,0.6246793866157532,-0.2803582549095154,-0.5725985765457153,0.22397609055042267,0.7759036421775818,0.10605909675359726,-0.5493913292884827,16.00525665283203,27.869361877441406,-11.967549324035645,16.6275691986084,-0.23965352773666382,4.8423566818237305,13.391827583312988,-0.4659562110900879,-20.83912467956543,15.759140968322754,162.59828186035156,300.0,-256.0986328125,-96.22327423095703,-290.8501892089844,-300.0,-266.6849365234375,-154.20187377929688,-3.312103271484375,-12.758394241333008
0.77,3.499586820602417,-4.471670150756836,-2.624046564102173,-87.18673706054688,0.7814217209815979,0.8551835417747498,4.90037727355957,-6.374043941497803,0.5442328453063965,1.9470634460449219,-1.3888229131698608,0.4998861849308014,-0.7419828176498413,0.043034352362155914,0.43545058369636536,0.8266691565513611,-0.2822609841823578,-0.28443530201911926,0.45831140875816345,0.7001074552536011,-0.000716996961273253,-0.624951958656311,38.64496994018555,24.314210891723633,-21.03107261657715,17.683664321899414,-0.010551497340202332,39.81916809082031,26.40862464904785,-12.98917293548584,0.5103890299797058,-8.695013046264648,217.5354766845703,300.0,-7.5696868896484375,-33.30192565917969,300.0,-300.0,133.64462280273438,-63.2412109375,11.407463073730469,-5.972586631774902
0.78,3.6077163219451904,-4.2910261154174805,-2.588726043701172,-87.11686706542969,0.7995669841766357,0.8818109035491943,5.291948318481445,-6.079540729522705,0.4833507537841797,1.655941367149353,1.2234463691711426,-7.532432556152344,-0.2798355221748352,0.17416954040527344,0.16111239790916443,0.9823837280273438,-0.2814302146434784,-0.07372830808162689,0.5228798389434814,0.6550795435905457,-2.420696910121478e-05,-0.7075490951538086,50.00001907348633,11.023192405700684,-28.45427703857422,10.69416618347168,-0.20244039595127106,23.30729866027832,7.075855731964111,-3.554283618927002,0.1209137886762619,-7.041640758514404,111.6405029296875,176.1162567138672,-27.909456253051758,101.21855926513672,300.0,-300.0,-113.08760070800781,-104.37461853027344,0.3278541564941406,-9.20681381225586
0.79,3.975179433822632,-3.849133253097534,-2.4861502647399902,-87.0462875366211,0.8173214793205261,0.9048764109611511,5.896427154541016,-5.494415760040283,0.3373463451862335,0.9751228094100952,2.88559889793396,-11.597688674926758,0.20497092604637146,0.13963492214679718,-0.1409357190132141,1.0860447883605957,-0.28469499945640564,-0.01722106896340847,0.4601579010486603,0.7342713475227356,-0.00010111362644238397,-0.7657109498977661,50.000022888183594,-5.294656276702881,-29.65777587890625,7.978418827056885,-0.6116582751274109,1.8119733333587646,-9.214954376220703,12.407225608825684,0.1522132009267807,-4.7596282958984375,144.63101196289062,-21.605422973632812,-122.69291687011719,217.6891632080078,300.0,-300.0,-85.31165313720703,-57.81944274902344,1.111379623413086,-4.560091972351074
0.8,4.313066482543945,-3.3490922451019287,-2.3768982887268066,-86.97584533691406,0.8352100253105164,0.9256550669670105,6.755783557891846,-4.787546634674072,0.5738211870193481,1.769516944885254,6.69695520401001,-9.875158309936523,0.4345315098762512,-0.039926912635564804,-0.33611437678337097,1.0622758865356445,-0.2676354646682739,0.01494493056088686,0.34684038162231445,0.7800176739692688,0.10597781091928482,-0.8000000715255737,9.703237533569336,-18.751768112182617,-19.100887298583984,-4.442822456359863,0.9528098702430725,3.470599412918091,-12.45993423461914,0.01613100990653038,15.219247817993164,5.284996404952835e-06,83.30535888671875,-222.91104125976562,-170.32839965820312,215.20388793945312,196.31503295898438,-125.70793914794922,13.799354553222656,-50.42073440551758,-23.04456329345703,-3.969773292541504
0.81,4.4483184814453125,-3.037745475769043,-2.3154873847961426,-86.90416717529297,0.8539807796478271,0.9454277753829956,6.7362895011901855,-4.494350433349609,0.8845151662826538,3.947604179382324,1.7278995513916016,-3.1269726753234863,0.27494147419929504,-0.17992772161960602,-0.4571740925312042,0.9411923289299011,-0.2886638939380646,-0.041711922734975815,0.13661278784275055,0.7800406813621521,0.3159920871257782,-0.8000000715255737,-30.7514591217041,-9.257450103759766,-9.294174194335938,-13.561903953552246,-2.8376801013946533,-9.352593421936035,-24.533702850341797,0.041522275656461716,23.846874237060547,0.00042192585533484817,58.706512451171875,-237.0636444091797,-135.01243591308594,197.86703491210938,300.0,254.3505859375,14.122581481933594,64.39286804199219,-30.0,4.961801528930664
0.8200000000000001,4.3986711502075195,-2.9752511978149414,-2.3107190132141113,-86.8304214477539,0.8732051253318787,0.9651661515235901,6.36322546005249,-4.517275810241699,0.9468086957931519,2.6379175186157227,-3.0567710399627686,0.9821764230728149,0.11019697785377502,-0.22388674318790436,-0.47985973954200745,0.7754848003387451,-0.3128420412540436,-0.12648122012615204,-0.08558116108179092,0.7800726294517517,0.5423826575279236,-0.7999999523162842,-10.975642204284668,-3.5084171295166016,3.612797260284424,-18.291828155517578,-3.009002923965454,-9.830151557922363,-21.752281188964844,0.041830629110336304,24.08243751525879,1.7086524167098105e-05,-90.92229461669922,42.081787109375,52.04286193847656,63.776023864746094,214.0308380126953,267.4869384765625,3.0110015869140625,58.07838439941406,-30.0,3.5649843215942383
0.8300000000000001,4.295855522155762,-2.988450288772583,-2.3236615657806396,-86.75536346435547,0.8917864561080933,0.9844926595687866,6.382535457611084,-4.5478105545043945,0.764278769493103,0.6147598624229431,-2.050823211669922,1.1457300186157227,0.005958057940006256,-0.2364266961812973,-0.4566545784473419,0.615083634853363,-0.3515028953552246,-0.1558905392885208,-0.20508092641830444,0.7801593542098999,0.7419636845588684,-0.7999998927116394,-8.964312553405762,0.1036180704832077,1.4380072355270386,-13.561211585998535,-4.081905841827393,-1.6380114555358887,-7.566532611846924,0.012217296287417412,18.588098526000977,2.081796992570162e-06,-67.93392181396484,37.204437255859375,91.56514739990234,75.1934814453125,172.48423767089844,7.514387130737305,-23.01873779296875,33.334903717041016,-30.0,2.4396324157714844
0.84,4.205695152282715,-2.9810235500335693,-2.332592010498047,-86.67925262451172,0.9091100692749023,1.0026617050170898,6.513769626617432,-4.6265435218811035,0.6041808724403381,-0.037242770195007324,-0.09694426506757736,0.5487910509109497,-0.07160081714391708,-0.22673186659812927,-0.46859216690063477,0.5151212215423584,-0.4039101302623749,-0.1558804214000702,-0.25025179982185364,0.7802411913871765,0.887914776802063,-0.7999998331069946,-6.096309185028076,1.4235059022903442,-2.8425676822662354,-7.380582332611084,-5.143226146697998,0.5534936189651489,-2.67069149017334,-0.003399957437068224,11.512761116027832,7.222697604447603e-07,-22.514869689941406,35.912967681884766,40.27375793457031,41.510929107666016,169.8204345703125,-31.90452003479004,-57.22938537597656,17.87047576904297,-30.0,1.6355133056640625
0.85,4.135866165161133,-2.9435505867004395,-2.3348207473754883,-86.60238647460938,0.925736129283905,1.0198229551315308,6.6354217529296875,-4.649173259735107,0.5194789171218872,-0.9521802067756653,1.2004060745239258,-0.02836012840270996,-0.10328103601932526,-0.2045900672674179,-0.5002726912498474,0.4359651803970337,-0.46075284481048584,-0.16129368543624878,-0.28189048171043396,0.780147135257721,0.9700040221214294,-0.7999998927116394,-1.1005330085754395,2.7999043464660645,-3.6869611740112305,-7.801791667938232,-5.727478504180908,-1.3227734565734863,-3.262756109237671,-0.005088690668344498,5.692471504211426,7.284652383532375e-07,-43.70481872558594,54.53044509887695,13.23532772064209,66.35425567626953,178.3931121826172,-50.21834945678711,-41.53213119506836,-17.08379364013672,-30.0,-1.3196277618408203
0.86,4.084813594818115,-2.8786263465881348,-2.330544948577881,-86.52488708496094,0.9421065449714661,1.035728096961975,6.741533279418945,-4.65718936920166,0.4301541745662689,-1.0844619274139404,2.0272088050842285,-0.5805140733718872,-0.07406613230705261,-0.18762661516666412,-0.5422924160957336,0.36714068055152893,-0.5252599120140076,-0.18870499730110168,-0.3373252749443054,0.7800763249397278,0.9990665912628174,-0.7999998927116394,5.091907024383545,1.2102264165878296,-4.974562168121338,-5.961281776428223,-6.381002902984619,-3.668329954147339,-6.687492370605469,-0.005905059166252613,0.9523577094078064,8.35465471027419e-07,-42.384010314941406,45.564598083496094,-5.047307968139648,21.445636749267578,160.9898681640625,-63.40638732910156,-26.954137802124023,-13.068241119384766,-30.0,-0.47998809814453125
0.87,4.051398754119873,-2.7878317832946777,-2.3197531700134277,-86.44728088378906,0.9585630893707275,1.0499234199523926,6.823855876922607,-4.644746780395508,0.3655490577220917,-0.4519829750061035,2.663538932800293,-1.259678840637207,0.015829963609576225,-0.2073073536157608,-0.6026809215545654,0.3267894387245178,-0.5907074809074402,-0.2244674116373062,-0.41444456577301025,0.7800105810165405,0.9931000471115112,-0.7999999523162842,10.516743659973145,-3.524231195449829,-7.058152675628662,-2.791475296020508,-6.394270896911621,-3.4437921047210693,-7.991242408752441,-0.0037419013679027557,-1.532135009765625,1.8232683942187577e-05,-11.06882095336914,14.506683349609375,-3.8905601501464844,-41.13208770751953,152.6199951171875,-70.89425659179688,-8.300863265991211,-12.384199142456055,-30.0,-0.1975555419921875
0.88,4.016333103179932,-2.6988725662231445,-2.3090429306030273,-86.37003326416016,0.9752870202064514,1.062682867050171,6.786978721618652,-4.567160606384277,0.4055579900741577,0.10592727363109589,2.199859619140625,-0.7259379625320435,0.09729576855897903,-0.2536264955997467,-0.6605204343795776,0.2683759033679962,-0.6429670453071594,-0.2495478093624115,-0.48741257190704346,0.7799726724624634,0.9909047484397888,-0.800000011920929,6.4274187088012695,-4.877188682556152,-5.294132232666016,-7.022093296051025,-5.432100772857666,-1.7050105333328247,-6.664860248565674,0.0032840443309396505,0.8433875441551208,3.45262378687039e-05,32.20623779296875,-43.64033126831055,-3.3343772888183594,-42.50531005859375,152.3977813720703,21.176664352416992,15.414478302001953,-7.150426864624023,-30.0,-0.9462223052978516
0.89,3.9713146686553955,-2.624958038330078,-2.3017497062683105,-86.2933578491211,0.9919653534889221,1.0745818614959717,6.767011642456055,-4.509851455688477,0.5010585784912109,0.3049585819244385,2.3945374488830566,-0.638271689414978,0.15763792395591736,-0.3143078088760376,-0.7085848450660706,0.18775014579296112,-0.6901593208312988,-0.2331419289112091,-0.5000321269035339,0.7799807786941528,1.0295788049697876,-0.7999998927116394,5.594216346740723,-6.458364963531494,-4.538536071777344,-8.0061616897583,-4.9908576011657715,2.922914743423462,-0.0035404502414166927,0.005352694541215897,5.276965618133545,4.3247389839962125e-05,45.060333251953125,-19.566768646240234,-34.644283294677734,-13.577766418457031,153.18968200683594,31.434974670410156,17.17387580871582,7.840625762939453,-30.0,0.35118675231933594
0.9,3.905611038208008,-2.5817105770111084,-2.302088975906372,-86.21650695800781,1.0087981224060059,1.08629310131073,6.627076625823975,-4.443842887878418,0.614233672618866,-0.5217248797416687,0.6958140730857849,0.36405888199806213,0.10634014010429382,-0.2910556495189667,-0.7396435141563416,0.04265677556395531,-0.714828372001648,-0.20869949460029602,-0.5001913905143738,0.7800732851028442,1.0953987836837769,-0.7999998927116394,-9.488480567932129,7.044177055358887,-1.8024213314056396,-16.753389358520508,-3.061915636062622,2.4435477256774902,-0.0008885085699148476,0.006784891709685326,7.2537713050842285,5.565525498241186e-07,57.407630920410156,-34.69765853881836,-58.870689392089844,100.88086700439453,185.79676818847656,156.86917114257812,-9.835493087768555,26.30535125732422,-30.0,-0.06839752197265625
0.91,3.8280274868011475,-2.555856943130493,-2.3070411682128906,-86.13936614990234,1.0255783796310425,1.0978713035583496,6.543126583099365,-4.501761436462402,0.6001784205436707,-0.4426453113555908,0.11220255494117737,0.8040513396263123,0.047546785324811935,-0.23974892497062683,-0.7742416858673096,-8.060200343606994e-05,-0.7492635250091553,-0.18895338475704193,-0.5001116991043091,0.7801158428192139,1.1524548530578613,-0.7999999523162842,-3.9875364303588867,3.7492754459381104,-3.061190366744995,-0.0012841947609558702,-2.328453779220581,1.4076826572418213,0.0007938405615277588,-0.0008430660236626863,4.527682304382324,-5.878027877770364e-07,-14.091849327087402,-5.0389251708984375,-4.882319450378418,8.918720245361328,194.86326599121094,123.21592712402344,-33.03559875488281,-2.8122973442077637,-30.0,10.68930721282959
0.92,3.740539073944092,-2.5439560413360596,-2.3159537315368652,-86.06195068359375,1.0423964262008667,1.1091301441192627,6.512379169464111,-4.56128454208374,0.5169172286987305,-0.7836586236953735,0.0036908574402332306,0.948326051235199,0.010241396725177765,-0.1971496045589447,-0.7994966506958008,-2.433903318888042e-05,-0.7881346940994263,-0.18130247294902802,-0.5000335574150085,0.780057430267334,1.187377691268921,-0.7999998927116394,-3.272487163543701,4.319756984710693,-2.0687503814697266,0.00013147985737305135,-3.8563034534454346,0.26173144578933716,0.00025436942814849317,-0.0010387044167146087,2.646167755126953,2.117303665727377e-07,-20.517980575561523,15.518964767456055,-2.996359348297119,19.14577293395996,228.6237335205078,28.608631134033203,-17.838808059692383,-31.328325271606445,-30.0,0.6289024353027344
0.93,3.6600279808044434,-2.5211822986602783,-2.3222591876983643,-85.98445892333984,1.0593197345733643,1.1193655729293823,6.559500217437744,-4.611717700958252,0.37152373790740967,-0.6181187033653259,0.7750831842422485,0.48739534616470337,0.04223022609949112,-0.21863959729671478,-0.8206092119216919,0.008970903232693672,-0.8000313639640808,-0.17939892411231995,-0.4999595582485199,0.7800061702728271,1.20310640335083,-0.7999999523162842,5.906073570251465,-4.84588098526001,-2.602856159210205,1.363181233406067,0.00010943609231617302,-0.10688721388578415,-0.0002193980326410383,-0.0017727736849337816,0.7999881505966187,2.48525248025544e-05,-41.22332763671875,40.852256774902344,-3.4548192024230957,-17.037540435791016,182.75823974609375,-73.2192153930664,-4.562869548797607,-18.367090225219727,-30.0,-27.673818588256836
0.9400000000000001,3.599311351776123,-2.469722270965576,-2.320821762084961,-85.90706634521484,1.0761637687683105,1.1278091669082642,6.639448642730713,-4.641308784484863,0.2376575767993927,-0.299099326133728,1.826294183731079,-0.44857630133628845,0.13446436822414398,-0.3093239665031433,-0.8571933507919312,0.03873483091592789,-0.8000341057777405,-0.17466256022453308,-0.4999573528766632,0.7799873352050781,1.2062042951583862,-0.800000011920929,9.950215339660645,-10.196130752563477,-4.689557075500488,3.430302381515503,0.000424172350903973,0.7344216108322144,-0.00047465646639466286,9.441282600164413e-08,-0.0022061828058212996,-0.00015963171608746052,-7.545130729675293,23.536354064941406,-45.282630920410156,-19.05426788330078,159.75892639160156,-99.71815490722656,3.7889490127563477,-29.025531768798828,-30.0,-30.0
0.9500000000000001,3.5398635864257812,-2.416205883026123,-2.318786859512329,-85.82955932617188,1.0929509401321411,1.1349698305130005,6.609286785125732,-4.5925984382629395,0.24724780023097992,-0.4773049056529999,1.4192287921905518,0.1157446950674057,0.16436024010181427,-0.3480738401412964,-0.8996222019195557,0.021877391263842583,-0.7999861240386963,-0.1657935529947281,-0.5000260472297668,0.7799880504608154,1.217210292816162,-0.7999999523162842,-0.14066219329833984,-0.7915955781936646,-4.022576808929443,-4.41384744644165,9.300638339482248e-07,1.2509015798568726,-0.0006968319066800177,0.0023044312838464975,1.846766471862793,5.6674332881812006e-05,40.156497955322266,-37.4228515625,-98.12332916259766,14.030326843261719,145.7202606201172,18.404573440551758,10.397674560546875,-20.432090759277344,-30.0,-30.0
0.96,3.4740192890167236,-2.372124195098877,-2.319370746612549,-85.75211334228516,1.1097859144210815,1.14113450050354,6.58448600769043,-4.603201866149902,0.20897510647773743,-0.3215464651584625,1.3605836629867554,0.17834420502185822,0.14864951372146606,-0.34239938855171204,-0.9510432481765747,-5.204888566368027e-06,-0.7999898791313171,-0.15148548781871796,-0.5000241994857788,0.780014157295227,1.2359426021575928,-0.800000011920929,-1.9612665176391602,0.8754622936248779,-5.849313735961914,0.006317544728517532,-0.0002721345517784357,1.6281359195709229,-0.001003659563139081,0.0011798931518569589,1.8635050058364868,7.010715489741415e-05,16.65908432006836,-17.043140411376953,-71.55731201171875,-1.9931864738464355,134.61058044433594,14.893535614013672,-2.595839500427246,12.14864730834961,-30.0,-30.0
0.97,3.4041130542755127,-2.333996057510376,-2.3217175006866455,-85.6746826171875,1.1266412734985352,1.146235466003418,6.591071605682373,-4.631221771240234,0.18629395961761475,-0.26283973455429077,1.4838296175003052,0.4983079433441162,0.1268276572227478,-0.3334037661552429,-1.0144624710083008,0.011692260392010212,-0.8000048995018005,-0.1390838623046875,-0.49999943375587463,0.7800242900848389,1.2479968070983887,-0.7999999523162842,-2.1504087448120117,0.572361409664154,-6.407581806182861,1.5331377983093262,0.0005003613187000155,0.9225721955299377,-0.00037712810444645584,-0.0009220608626492321,0.727270245552063,5.508429603651166e-05,-14.816803932189941,-9.618145942687988,-50.271934509277344,-9.006658554077148,151.1070098876953,-1.1836128234863281,-8.962194442749023,4.593528747558594,-30.0,-30.0
0.98,3.3419394493103027,-2.28458833694458,-2.320780038833618,-85.59725952148438,1.143485188484192,1.1498520374298096,6.671292781829834,-4.684088230133057,0.12755507230758667,0.03925522789359093,2.2603518962860107,-0.2236228883266449,0.1528233140707016,-0.4025436341762543,-1.0916098356246948,0.08185978978872299,-0.8000313639640808,-0.12718193233013153,-0.49997183680534363,0.7799978852272034,1.247369408607483,-0.7999998927116394,4.298293590545654,-9.802227973937988,-8.589791297912598,9.198538780212402,0.0006230660364963114,1.1304082870483398,-0.0005193405086174607,-4.272442311048508e-08,-0.5490393042564392,-0.00039430087781511247,-25.04612922668457,37.48136901855469,-47.199676513671875,-21.38196563720703,143.07684326171875,-69.34343719482422,-1.8838030099868774,0.9802207946777344,-30.0,-30.0
0.99,3.2857401371002197,-2.226102590560913,-2.317103624343872,-85.5196533203125,1.1602258682250977,1.1521141529083252,6.646962642669678,-4.649832725524902,0.1602972000837326,-0.09038178622722626,1.9867885112762451,-0.23333987593650818,0.18477968871593475,-0.49619385600090027,-1.1700533628463745,0.152922123670578,-0.7999959588050842,-0.11317922174930573,-0.4999946653842926,0.7799616456031799,1.2566407918930054,-0.7999999523162842,2.5963425636291504,-8.48187255859375,-7.348882675170898,5.386058807373047,7.582129910588264e-07,1.661743402481079,-0.0013511631404981017,0.003077681874856353,2.004329204559326,6.0962534917052835e-05,13.870208740234375,7.131277084350586,-95.82847595214844,9.077995300292969,150.89559936523438,-3.556316375732422,24.086227416992188,-14.49728012084961,-30.0,-30.0
1.0,3.228253126144409,-2.1692283153533936,-2.3138327598571777,-85.44192504882812,1.1768871545791626,1.1536258459091187,6.6033935546875,-4.598235130310059,0.20009511709213257,-0.47577062249183655,1.4211300611495972,-0.2477470338344574,0.17888905107975006,-0.5231646299362183,-1.2477316856384277,0.19293493032455444,-0.7999693751335144,-0.09590668231248856,-0.5000460743904114,0.7800028920173645,1.2829110622406006,-0.7999999523162842,-1.4226478338241577,-0.10014724731445312,-7.358882427215576,2.811121702194214,-0.0001569095766171813,1.9533478021621704,-0.0005192866083234549,0.002525645773857832,3.0068397521972656,6.355543155223131e-05,24.81728172302246,5.858523368835449,-118.5870590209961,33.709712982177734,115.67354583740234,37.66778564453125,3.667292594909668,3.5440425872802734,-30.0,-30.0
1.01,3.1621813774108887,-2.124605417251587,-2.314362049102783,-85.36392974853516,1.1935726404190063,1.1544512510299683,6.603586673736572,-4.606765270233154,0.18189650774002075,-0.5477559566497803,1.2072137594223022,0.4677809774875641,0.1477242112159729,-0.4924646317958832,-1.334744930267334,0.25267472863197327,-0.7999918460845947,-0.08387234061956406,-0.500027596950531,0.7800487279891968,1.3046830892562866,-0.7999999523162842,-3.5129008293151855,3.822697877883911,-8.70009994506836,7.08297872543335,-3.34432115778327e-07,0.6889438033103943,-0.00037870139931328595,-0.0009897617856040597,1.5270897150039673,-1.6715057427063584e-07,-13.033590316772461,-26.550067901611328,-74.29376983642578,5.128335952758789,77.85735321044922,41.893043518066406,-17.1850643157959,28.08199691772461,-30.0,-30.0
1.02,3.0819671154022217,-2.100564956665039,-2.321542263031006,-85.28582000732422,1.210543155670166,1.1542812585830688,6.622208118438721,-4.696368217468262,0.14744997024536133,-0.08909296244382858,1.3337054252624512,1.1496351957321167,0.1360306441783905,-0.5338394045829773,-1.4258240461349487,0.37630173563957214,-0.8000189661979675,-0.08139818161725998,-0.499996542930603,0.7800291180610657,1.3117457628250122,-0.7999998927116394,-0.6196197271347046,-7.535300254821777,-9.222290992736816,14.292364120483398,0.001136802020482719,-0.2513587176799774,-0.000515447580255568,-0.001470945542678237,0.13043980300426483,-1.1155862011946738e-07,-24.170726776123047,-24.388755798339844,-56.3583984375,-31.546016693115234,58.93647384643555,7.397407531738281,-11.956899642944336,27.514068603515625,-30.0,-30.0
1.03,3.0016934871673584,-2.076448678970337,-2.3289499282836914,-85.20785522460938,1.2277743816375732,1.1531049013137817,6.55631160736084,-4.769320964813232,0.1421782672405243,0.38401827216148376,1.0965584516525269,0.5446678996086121,0.16226954758167267,-0.7145175933837891,-1.4985666275024414,0.5272575616836548,-0.7999874353408813,-0.07554358243942261,-0.5000004172325134,0.7799696922302246,1.325140357017517,-0.7999999523162842,3.9667205810546875,-21.62517738342285,-6.065605640411377,14.803799629211426,-0.00017644016770645976,1.1586085557937622,-0.0008841516682878137,0.002574295736849308,2.213338613510132,2.3109925677999854e-05,18.484394073486328,26.350374221801758,-114.50284576416016,-23.295455932617188,77.89288330078125,1.0881156921386719,20.682567596435547,6.331260681152344,-30.0,-30.0
1.04,2.9336230754852295,-2.0351855754852295,-2.3307621479034424,-85.13027954101562,1.2450270652770996,1.1521565914154053,6.282572269439697,-4.653365135192871,0.24122437834739685,-0.2992638647556305,-0.8153051733970642,-0.19951897859573364,0.18215197324752808,-0.7950331568717957,-1.536583662033081,0.6374322175979614,-0.7998916506767273,-0.05277945101261139,-0.5001204609870911,0.779996395111084,1.3675932884216309,-0.7999999523162842,2.8640658855438232,-3.0069384574890137,-1.3882569074630737,9.195375442504883,-0.0025318115949630737,3.4140591621398926,0.0012543638003990054,0.004388387780636549,5.563462257385254,-2.9216062102932483e-07,82.25084686279297,17.244888305664062,-154.517822265625,77.1882095336914,96.47798919677734,134.07806396484375,14.045158386230469,27.823429107666016,-30.0,-30.0
1.05,2.8545687198638916,-2.00919771194458,-2.3380746841430664,-85.05245208740234,1.2622387409210205,1.1509568691253662,6.4612531661987305,-4.686682224273682,0.08132880926132202,-0.7973201274871826,0.5550788640975952,1.1976900100708008,0.1312069445848465,-0.6502726078033447,-1.6078280210494995,0.7326610088348389,-0.7999814748764038,-0.044520054012537,-0.5000675320625305,0.7647356390953064,1.4082326889038086,-0.7999997735023499,-8.31867504119873,21.42486000061035,-8.998495101928711,8.79985523223877,-1.7122130884672515e-05,-0.8026351928710938,0.0020706714130938053,-2.6793527603149414,2.7032761573791504,3.5977791412733495e-07,-31.37356185913086,-52.136131286621094,-60.89451217651367,52.87623596191406,-58.24882507324219,7.490825653076172,-49.845523834228516,-2.3048782348632812,-30.0,-30.0
1.06,2.7537097930908203,-2.012214422225952,-2.356271982192993,-84.97419738769531,1.2798819541931152,1.1493711471557617,6.588699817657471,-4.91228723526001,0.1667141616344452,0.04320332407951355,1.9139719009399414,2.556206226348877,0.10568893700838089,-0.655411422252655,-1.6727455854415894,0.869674563407898,-0.8000106811523438,-0.07223650813102722,-0.500037431716919,0.7199031114578247,1.419411301612854,-0.7999999523162842,-1.3711796998977661,-10.042658805847168,-6.540795803070068,15.99634075164795,-0.0009500556043349206,-4.4384684562683105,0.0028915442526340485,-5.6474080085754395,-0.25984084606170654,-3.780587576329708e-07,-62.77778625488281,-15.254850387573242,0.4628235697746277,-93.79500579833984,-37.78267288208008,-7.579860687255859,-45.4290885925293,33.58716583251953,-30.0,-30.0
1.07,2.6745877265930176,-1.984532117843628,-2.363837242126465,-84.89618682861328,1.2981990575790405,1.1465275287628174,6.1639204025268555,-4.937850475311279,-0.05918338894844055,1.3003387451171875,-1.8797471523284912,-0.6239510774612427,0.17792604863643646,-0.9049405455589294,-1.664479374885559,1.0286014080047607,-0.8000838756561279,-0.05569009855389595,-0.4998946785926819,0.7276740670204163,1.3947232961654663,-0.800000011920929,12.773876190185547,-31.973257064819336,5.789121150970459,15.585090637207031,0.004794267471879721,5.959395408630371,-0.004183397628366947,5.018263339996338,-3.086840867996216,4.487517799134366e-06,85.10161590576172,70.61651611328125,-141.46429443359375,-87.78550720214844,132.82766723632812,25.272014617919922,49.627716064453125,3.3423690795898438,-30.0,-30.0
1.08,2.6093688011169434,-1.937795639038086,-2.3644659519195557,-84.81812286376953,1.316706657409668,1.142635464668274,6.203217506408691,-4.874100685119629,-0.1030588150024414,0.024411143735051155,-1.2633782625198364,0.5419787764549255,0.2218971997499466,-0.8685996532440186,-1.6519627571105957,1.191507339477539,-0.799875795841217,0.0027906252071261406,-0.5004080533981323,0.7799991369247437,1.390975832939148,-0.7999998927116394,-1.594640851020813,16.01911735534668,-2.9128947257995605,15.076892852783203,-0.1985113024711609,3.966946601867676,0.9322080016136169,2.2095628082752228e-07,5.747542381286621,-8.513170905644074e-05,56.88109588623047,-34.7439079284668,-107.99958801269531,180.1331787109375,1.0790061950683594,58.861507415771484,37.93697738647461,23.481277465820312,-30.0,-30.0
1.09,2.515575647354126,-1.9292590618133545,-2.3803586959838867,-84.74012756347656,1.3345966339111328,1.1391410827636719,6.310122013092041,-4.968827724456787,0.009990185499191284,-0.29217323660850525,0.5999281406402588,2.028162717819214,0.16955634951591492,-0.7096736431121826,-1.7000535726547241,1.307325005531311,-0.7999895215034485,-0.003075971733778715,-0.5001018047332764,0.7397497296333313,1.428849458694458,-0.7999998331069946,-2.805927276611328,13.351847648620605,0.004955630749464035,6.927598476409912,-0.0006408036570064723,-3.2070021629333496,0.00418122299015522,-5.387857913970947,1.3254337310791016,-5.2510586101561785e-08,-102.69514465332031,-13.001457214355469,-15.61934757232666,-9.970069885253906,-84.18345642089844,-87.00752258300781,-78.99589538574219,-45.771480560302734,-30.0,-30.0
1.1,2.422278642654419,-1.9185912609100342,-2.396343231201172,-84.66206359863281,1.3527798652648926,1.1356569528579712,6.474729061126709,-5.205477714538574,-0.019604086875915527,1.2751047611236572,2.221583127975464,1.5179113149642944,0.17119869589805603,-0.7205939888954163,-1.6999703645706177,1.3949987888336182,-0.8000226616859436,-0.031279388815164566,-0.4999978542327881,0.6829833388328552,1.4099968671798706,-0.7999999523162842,2.2646474838256836,-10.52344036102295,-2.0448467694222927e-05,9.474502563476562,0.0024999375455081463,-2.48740553855896,-9.243376553058624e-08,-5.808454990386963,-4.139678478240967,-7.348309736698866e-05,-6.425640106201172,28.910123825073242,-50.08845520019531,-152.3748779296875,-3.80621337890625,-155.65972900390625,-47.200660705566406,-0.18013763427734375,-30.0,-30.0
1.11,2.3530211448669434,-1.8772064447402954,-2.4000678062438965,-84.58428192138672,1.3713626861572266,1.1298445463180542,6.307912826538086,-5.194819450378418,-0.15401050448417664,1.7651056051254272,0.7291510105133057,-0.3228558897972107,0.20294435322284698,-0.8231564164161682,-1.6951701641082764,1.4810391664505005,-0.8000720143318176,-9.804713045014068e-05,-0.48333823680877686,0.6741142272949219,1.3598798513412476,-0.800000011920929,3.2117409706115723,-10.04015064239502,0.1332893967628479,7.615781307220459,0.00205431692302227,6.985874176025391,2.3475341796875,2.357110023498535,-4.8958916664123535,1.9897643142030574e-05,91.3048095703125,-1.0563583374023438,-50.725250244140625,-18.64926528930664,134.0286407470703,-69.32447814941406,49.634185791015625,-35.49144744873047,-30.0,-30.0
1.12,2.286175489425659,-1.8335813283920288,-2.402785539627075,-84.50707244873047,1.3901022672653198,1.1223102807998657,6.191858291625977,-5.098221302032471,-0.10719820857048035,1.099196434020996,-0.11802159249782562,0.7112662196159363,0.1963052898645401,-0.8267190456390381,-1.7000044584274292,1.5303974151611328,-0.8000066876411438,0.03788740560412407,-0.49355795979499817,0.6909993886947632,1.3062536716461182,-0.800000011920929,-2.6914055347442627,5.865981101989746,-0.00021088759240228683,2.710003614425659,0.0013311512302607298,1.619760274887085,-3.464533805847168,1.3142083883285522,-5.514688968658447,1.8399659893475473e-05,-26.199968338012695,-63.431114196777344,-46.68910217285156,114.55858612060547,-8.770875930786133,-38.406349182128906,-8.139860153198242,-26.208240509033203,-30.0,-30.0
1.1300000000000001,2.2089550495147705,-1.8019813299179077,-2.411202907562256,-84.42942810058594,1.4090089797973633,1.1143569946289062,6.349712371826172,-5.231302261352539,-0.06925398111343384,1.165650486946106,0.9231812357902527,1.0110729932785034,0.18668310344219208,-0.8192063570022583,-1.7000902891159058,1.5911235809326172,-0.7999826669692993,0.055313922464847565,-0.5000896453857422,0.703475832939148,1.2247540950775146,-0.7999998331069946,0.2160985916852951,-3.003019332885742,0.0034973821602761745,8.171314239501953,9.136856533586979e-07,0.9478734135627747,0.001851060427725315,0.4410668909549713,-9.573074340820312,5.429756129160523e-07,-35.20461654663086,27.9008846282959,-4.281066417694092,-63.6619873046875,-57.06425094604492,-203.6777801513672,-48.21269607543945,44.276466369628906,-30.0,-30.0
1.1400000000000001,2.1313982009887695,-1.770374059677124,-2.420192003250122,-84.35172271728516,1.4278969764709473,1.105761170387268,6.340579032897949,-5.279191493988037,0.008580386638641357,1.4558504819869995,1.697676420211792,0.8605507612228394,0.1851751208305359,-0.8577200174331665,-1.7000141143798828,1.6565643548965454,-0.7999753952026367,0.06927638500928879,-0.4974977970123291,0.7013918161392212,1.1338400840759277,-0.7999999523162842,-0.4344479441642761,-4.467525482177734,0.00034442622563801706,5.22401237487793,-0.00045327647239901125,1.7351722717285156,0.4341282844543457,-0.9221615195274353,-8.289670944213867,2.4560322344768792e-05,29.83513069152832,-13.36763858795166,-1.211254596710205,-11.45077133178711,-33.7810173034668,-142.2904052734375,-1.3681602478027344,-17.57457160949707,-30.0,-30.0
1.1500000000000001,2.066389799118042,-1.7240583896636963,-2.422652006149292,-84.27429962158203,1.4463788270950317,1.0963084697723389,6.223198413848877,-5.247812271118164,0.022411346435546875,0.8003861904144287,0.952416718006134,-0.18135347962379456,0.18152154982089996,-0.8755404949188232,-1.6999568939208984,1.694321870803833,-0.7999996542930603,0.1434825211763382,-0.430882066488266,0.7252771854400635,1.0573025941848755,-0.800000011920929,-0.3612312078475952,-0.10032130777835846,-0.0040211426094174385,2.6034135818481445,-0.0003204749373253435,10.752278327941895,10.194209098815918,4.010344505310059,-6.390758991241455,2.6605790480971336e-05,57.378944396972656,3.3485944271087646,25.456371307373047,25.304250717163086,45.716331481933594,-115.14842987060547,35.0490608215332,-24.892412185668945,-30.0,-30.0
1.16,1.9834535121917725,-1.6992686986923218,-2.4358465671539307,-84.19721221923828,1.46515691280365,1.086228370666504,6.159358024597168,-5.185873985290527,0.06590873003005981,0.3157144784927368,0.5066515803337097,2.220003843307495,0.13469043374061584,-0.7873556613922119,-1.7000726461410522,1.698279619216919,-0.8000147342681885,0.13725556433200836,-0.45601677894592285,0.727406919002533,0.9590175151824951,-0.7999998927116394,-7.73991060256958,15.18862533569336,0.0050737131386995316,-1.1432900428771973,0.003482875879853964,-8.027009010314941,-10.740618705749512,-2.007962703704834,-12.232970237731934,-3.095410647802055e-07,-108.01426696777344,-81.19441986083984,-89.69957733154297,134.03941345214844,-55.39302444458008,-14.476346969604492,-64.22891235351562,-20.951675415039062,-30.0,-30.0
1.17,1.9156677722930908,-1.654749870300293,-2.440319061279297,-84.1189193725586,1.4835617542266846,1.0748393535614014,6.343045234680176,-5.575605392456055,-0.015459835529327393,1.2119057178497314,1.802712321281433,-0.8524601459503174,0.1455991417169571,-0.8072094917297363,-1.700028657913208,1.7738823890686035,-0.7999778985977173,0.18045659363269806,-0.41140875220298767,0.740413248538971,0.8706204295158386,-0.8000000715255737,7.68052864074707,-14.520513534545898,-0.0006450374494306743,13.352548599243164,-0.002348109148442745,12.6384916305542,13.827817916870117,3.2702341079711914,-5.59956169128418,2.534855593694374e-05,76.52662658691406,209.52352905273438,130.4267120361328,-234.7982635498047,22.250232696533203,-300.0,58.6986083984375,105.48638916015625,-30.0,-30.0
1.18,1.8435217142105103,-1.6152926683425903,-2.448009729385376,-84.04059600830078,1.5014705657958984,1.062774896621704,6.1454362869262695,-5.331122398376465,0.13268941640853882,-0.2357817441225052,1.1619329452514648,1.8613884449005127,0.14745068550109863,-0.7948009967803955,-1.6999568939208984,1.820503830909729,-0.800044596195221,0.20628103613853455,-0.375352680683136,0.7331846952438354,0.8176064491271973,-0.8000000715255737,-5.048786163330078,12.065974235534668,-4.78583388030529e-07,-1.7975472211837769,0.0025724980514496565,-3.4708220958709717,-2.4217231273651123,-2.174997091293335,-5.870826244354248,9.643286466598511e-05,-88.03229522705078,-148.13131713867188,-66.06758880615234,205.52935791015625,18.10924530029297,81.59660339355469,-12.599454879760742,-132.25804138183594,-30.0,-30.0
1.19,1.7898133993148804,-1.5552006959915161,-2.4448370933532715,-83.96244812011719,1.5186346769332886,1.0496923923492432,6.104738712310791,-5.45452356338501,-0.07666909694671631,0.01794379949569702,0.6275400519371033,-2.157029151916504,0.14820116758346558,-0.75275057554245,-1.6999164819717407,1.8087868690490723,-0.8000097870826721,0.33104658126831055,-0.2241043597459793,0.7545886039733887,0.8060206770896912,-0.800000011920929,3.923856496810913,-1.9741127490997314,-0.006363960914313793,-0.6176967024803162,-0.003362965304404497,21.632736206054688,24.52117919921875,4.196620941162109,2.4319710731506348,0.00016981741646304727,121.31707763671875,120.9412612915039,75.27784729003906,-123.74449157714844,103.35667419433594,-248.5692138671875,88.28340911865234,-5.189098834991455,-30.0,-30.0
1.2,1.7320054769515991,-1.5013835430145264,-2.4442667961120605,-83.88554382324219,1.536473274230957,1.035117506980896,6.070781707763672,-5.339815616607666,-0.10671818256378174,1.7202242612838745,-0.21216070652008057,1.5404152870178223,0.11657784134149551,-0.6904217004776001,-1.7000144720077515,1.7624077796936035,-0.8000521063804626,0.2875380218029022,-0.31193336844444275,0.7538111209869385,0.7387555837631226,-0.7999999523162842,-8.232516288757324,12.424994468688965,0.003927914891391993,-7.561857223510742,0.0073397159576416016,-16.674617767333984,-24.903079986572266,-0.2625834345817566,-13.549450874328613,0.00034963813959620893,-140.36444091796875,-155.46119689941406,-176.87005615234375,127.41990661621094,-2.2723214626312256,56.78117370605469,-99.687255859375,-58.53386306762695,-30.0,-25.40567398071289
1.21,1.66922128200531,-1.4536625146865845,-2.4475960731506348,-83.80866241455078,1.5534236431121826,1.0202434062957764,6.249151229858398,-5.744452476501465,0.08088541030883789,2.8924367427825928,2.864767551422119,-0.6806464195251465,0.11746034771203995,-0.7796201109886169,-1.7001482248306274,1.7652934789657593,-0.7999116778373718,0.30902597308158875,-0.31707140803337097,0.7068303823471069,0.7689856290817261,-0.8000001311302185,6.1817474365234375,-25.411190032958984,0.005143535789102316,6.013272285461426,-0.006656774319708347,13.114459991455078,11.188616752624512,-5.585415840148926,10.879716873168945,0.0005149343051016331,158.70530700683594,130.62213134765625,129.71571350097656,-300.0,-103.2290267944336,-300.0,71.19953155517578,131.59083557128906,-30.0,-25.555908203125
1.22,1.6137707233428955,-1.3964287042617798,-2.445068597793579,-83.73135375976562,1.5715492963790894,1.003252625465393,5.842048168182373,-5.414523124694824,-0.08665764331817627,1.4954794645309448,-3.544649600982666,0.6287444829940796,0.09975584596395493,-0.795637309551239,-1.6976053714752197,1.7952760457992554,-0.7922968864440918,0.4236392378807068,-0.21385015547275543,0.7717393040657043,0.6792903542518616,-0.8000003099441528,-7.214426040649414,13.078670501708984,0.05981653928756714,0.3465428054332733,0.8349756002426147,9.00599193572998,9.562834739685059,13.192498207092285,-18.703781127929688,-1.1321828424115665e-05,-91.8943862915039,-160.29917907714844,-19.899070739746094,260.7414855957031,300.0,104.26187896728516,-42.38862609863281,-75.88784790039062,-30.0,-2.282702922821045
1.23,1.5303280353546143,-1.3718152046203613,-2.4632303714752197,-83.65454864501953,1.5896148681640625,0.9864347577095032,6.022209644317627,-5.476499557495117,0.0012520551681518555,1.0051907300949097,0.21015337109565735,1.912825345993042,0.010549460537731647,-0.6610249876976013,-1.7000492811203003,1.7458723783493042,-0.7999866008758545,0.34556278586387634,-0.3079526126384735,0.7707669138908386,0.5869964361190796,-0.800000011920929,-8.760113716125488,14.348499298095703,0.00511174788698554,-7.690629959106445,-3.725290298461914e-07,-14.820265769958496,-18.18325424194336,-2.7792603969573975,-10.586892127990723,0.0004323981993366033,-85.64366149902344,46.473995208740234,-67.98661804199219,37.48290252685547,-90.31513977050781,-76.6090087890625,-55.83050537109375,-60.74323272705078,-30.0,-20.781147003173828
1.24,1.4876856803894043,-1.2996941804885864,-2.453010082244873,-83.57601928710938,1.6043388843536377,0.9695183634757996,6.317649841308594,-5.895345687866211,0.0347062349319458,0.001704145222902298,3.6738789081573486,-3.708406448364258,0.06026215851306915,-0.7669066190719604,-1.7001410722732544,1.7413718700408936,-0.7998611927032471,0.5081955790519714,-0.12825265526771545,0.6719985604286194,0.8000488877296448,-0.8000004887580872,14.706744194030762,-24.852869033813477,-0.001081141410395503,4.845935821533203,-0.012623501010239124,34.38363265991211,36.85261535644531,-13.311156272888184,37.34003829956055,3.0841401894576848e-06,280.87042236328125,300.0,187.057861328125,-300.0,-145.91586303710938,-300.0,167.82534790039062,114.7799301147461,-30.0,-11.865468978881836
1.25,1.4611899852752686,-1.2094017267227173,-2.4277565479278564,-83.49913787841797,1.6213064193725586,0.9502741098403931,6.258126258850098,-5.215368747711182,0.0013503432273864746,1.9555763006210327,-0.5795124769210815,-1.2096987962722778,0.10137930512428284,-0.8429581522941589,-1.6959333419799805,1.7447471618652344,-0.7113032341003418,0.5208063125610352,-0.18513701856136322,0.638034999370575,0.804439127445221,-0.8000002503395081,-2.1836888790130615,1.814975619316101,0.9102774858474731,-3.3819832801818848,8.737738609313965,-9.422065734863281,-17.53793716430664,5.049725532531738,-17.09413719177246,-3.497272246022476e-06,-135.08404541015625,-213.4169921875,-156.73556518554688,181.70706176757812,271.2594299316406,160.74237060546875,-141.45513916015625,-86.56368255615234,-30.0,-2.2329978942871094
1.26,1.4170175790786743,-1.1404520273208618,-2.414247751235962,-83.42369079589844,1.6403846740722656,0.9282281994819641,6.0513410568237305,-5.258213996887207,-0.2970898449420929,2.9912126064300537,-3.201974391937256,-0.8558734059333801,0.05637674406170845,-0.8237555027008057,-1.699802041053772,1.7221735715866089,-0.7851341962814331,0.5278571248054504,-0.25168266892433167,0.7196624279022217,0.6887961626052856,-0.8000006079673767,-5.414056777954102,1.1533727645874023,-0.00873363483697176,-2.386349678039551,-7.813683032989502,7.524405479431152,0.34118789434432983,12.161312103271484,-7.924206733703613,5.252390110399574e-06,46.63724899291992,-80.30579376220703,48.180179595947266,-36.93944549560547,300.0,-131.09548950195312,146.80899047851562,-21.705289840698242,-30.0,0.5112380981445312
1.27,1.3648735284805298,-1.0831364393234253,-2.4078142642974854,-83.34941864013672,1.6587969064712524,0.9052932262420654,6.261118412017822,-5.168783187866211,-0.23508992791175842,2.7327871322631836,0.028488535434007645,-0.6076337695121765,-0.007551014889031649,-0.8229089975357056,-1.7000666856765747,1.598932147026062,-0.6418678760528564,0.5022221207618713,-0.371685266494751,0.7631106972694397,0.6653204560279846,-0.8000004291534424,-6.84730339050293,-0.34505829215049744,0.005822405219078064,-17.906301498413086,14.180537223815918,-7.685414791107178,-18.88701629638672,-0.61098313331604,0.6033211350440979,4.262335096427705e-06,-38.584049224853516,20.28557586669922,-51.05971908569336,-1.7495782375335693,-147.33990478515625,-78.7326431274414,-20.736141204833984,-112.80874633789062,-30.0,-7.878913879394531
