DanielTruong99/RLHumanoidRobot/analysis/data/state_log.csv
time_step,c_x,c_y,c_z,base_x,base_y,base_z,base_vx,base_vy,base_vz,base_wx,base_wy,base_wz,pos_R_hip_joint,pos_R_hip2_joint,pos_R_thigh_joint,pos_R_calf_joint,pos_R_toe_joint,pos_L_hip_joint,pos_L_hip2_joint,pos_L_thigh_joint,pos_L_calf_joint,pos_L_toe_joint,vel_R_hip_joint,vel_R_hip2_joint,vel_R_thigh_joint,vel_R_calf_joint,vel_R_toe_joint,vel_L_hip_joint,vel_L_hip2_joint,vel_L_thigh_joint,vel_L_calf_joint,vel_L_toe_joint,torque_R_hip_joint,torque_R_hip2_joint,torque_R_thigh_joint,torque_R_calf_joint,torque_R_toe_joint,torque_L_hip_joint,torque_L_hip2_joint,torque_L_thigh_joint,torque_L_calf_joint,torque_L_toe_joint
0.01,0.5,0.0,0.0,0.0004771193489432335,0.00801997072994709,0.8173144459724426,-0.5932173728942871,-0.047307856380939484,1.1755329370498657,6.532145023345947,-7.065678119659424,1.5554072856903076,-0.06731938570737839,0.09220575541257858,-0.2424890398979187,0.8794592022895813,-0.37519869208335876,-0.032548315823078156,0.07568074762821198,-0.5687093138694763,1.05397629737854,-0.5819098949432373,-1.579901933670044,-10.112466812133789,9.718864440917969,6.510813236236572,-12.00437068939209,-5.934597015380859,-8.903460502624512,7.8563690185546875,-8.787643432617188,47.941463470458984,-17.080251693725586,25.415767669677734,-100.64552307128906,-145.24612426757812,93.52999114990234,162.69671630859375,-152.51268005371094,104.3835220336914,30.0,30.0
0.02,0.5,0.0,0.0,0.00535199511796236,0.014925330877304077,0.8282649517059326,-0.3756386637687683,0.1894979476928711,1.2901300191879272,2.4903738498687744,-6.789372444152832,-0.6220982074737549,-0.028258133679628372,0.026603378355503082,-0.12146814167499542,0.7920241355895996,-0.2997804880142212,-0.10615356266498566,0.02510836161673069,-0.46417543292045593,1.0218614339828491,-0.6767174005508423,6.591419219970703,-3.7880897521972656,11.930607795715332,-15.955371856689453,6.890743255615234,-9.255077362060547,-2.604038715362549,13.28010082244873,-6.069920063018799,-10.422385215759277,12.266483306884766,6.4656829833984375,300.0,35.021583557128906,216.29470825195312,-288.60528564453125,-7.251319885253906,-184.36221313476562,-30.0,-16.36224365234375
0.03,0.5,0.0,0.0,0.00964351836591959,0.020349614322185516,0.839358925819397,-0.24715524911880493,0.279944509267807,1.1578706502914429,0.7665571570396423,-5.214441299438477,-1.4506926536560059,-0.013363143429160118,-0.00435328995808959,-0.027432242408394814,0.7016683220863342,-0.24776247143745422,-0.14804494380950928,0.0021724202670156956,-0.34473028779029846,0.9586892127990723,-0.7337977290153503,-2.5094244480133057,-2.6906394958496094,7.330570220947266,-6.259997844696045,9.133997917175293,-0.5118092894554138,-0.7743387818336487,11.074779510498047,-6.057755947113037,-5.97294282913208,49.34486389160156,-43.41461181640625,236.0474395751953,-87.84146881103516,53.363075256347656,-86.57323455810547,-8.410736083984375,-15.10946273803711,-7.811206817626953,15.628379821777344
0.04,0.5,0.0,0.0,0.010650546289980412,0.024426845833659172,0.8497675657272339,0.2363574206829071,0.4316898584365845,1.08620285987854,-2.356990337371826,3.084853172302246,0.6819190979003906,-0.19192305207252502,-0.022876538336277008,-0.05293496698141098,0.713283360004425,-0.11650797724723816,-0.1744077056646347,0.03077096678316593,-0.3082469403743744,0.8954542875289917,-0.6500186324119568,-26.617355346679688,-0.9391059875488281,-9.177430152893066,4.716277599334717,15.809547424316406,-2.7948102951049805,5.28758430480957,-1.7635972499847412,-5.197959899902344,10.617020606994629,-51.842159271240234,-127.08432006835938,181.25889587402344,128.56553649902344,-88.30635070800781,-251.6384735107422,-83.01730346679688,-76.32830047607422,-22.172788619995117,30.0
0.05,0.5,0.0,0.0,0.010453698225319386,0.026349201798439026,0.8606078028678894,0.22620928287506104,0.4365207552909851,1.1391490697860718,-4.788880825042725,1.8934035301208496,-0.9883579015731812,-0.2180565446615219,0.06443066149950027,-0.1005113497376442,0.7093684077262878,-0.05972258374094963,-0.10803044587373734,0.0840872973203659,-0.29952120780944824,0.7972757816314697,-0.45245638489723206,7.269612789154053,12.088871955871582,-2.88234543800354,-3.501370429992676,4.9505462646484375,7.537627220153809,5.125178813934326,0.6740617156028748,-6.270726203918457,4.48282527923584,59.2750358581543,89.90122985839844,-119.89847564697266,300.0,-0.588409423828125,44.915321350097656,-76.34471893310547,-22.603870391845703,-30.0,-2.926240921020508
0.06,0.5,0.0,0.0,0.012651357799768448,0.02735983207821846,0.8729473352432251,-0.14760734140872955,0.3571232259273529,1.277083158493042,-5.2064080238342285,-5.317447662353516,-1.185023546218872,-0.12589862942695618,0.18430227041244507,-0.04835200682282448,0.5884203910827637,-0.052621543407440186,-0.09767898917198181,0.13816961646080017,-0.23080281913280487,0.7359638810157776,-0.44323283433914185,9.65419864654541,12.181488990783691,10.616740226745605,-15.784719467163086,-0.22074423730373383,0.7286810278892517,5.468321323394775,11.742175102233887,-10.379684448242188,16.20752716064453,23.47403335571289,3.669322967529297,-51.799591064453125,96.28982543945312,208.67022705078125,122.48692321777344,40.92937469482422,7.2636566162109375,30.0,-1.6615532636642456
0.07,0.5,0.0,0.0,0.016189828515052795,0.029827501624822617,0.8851509690284729,-0.04011110961437225,0.18462735414505005,1.23414945602417,-0.5101267099380493,-3.771954298019409,-3.073793649673462,-0.016706114634871483,0.25680261850357056,0.0004955237964168191,0.48049938678741455,-0.01335165835916996,-0.07956372946500778,0.15972144901752472,-0.11378563195466995,0.6380811929702759,-0.4033125638961792,11.295528411865234,2.9489431381225586,-0.018280789256095886,-6.137426376342773,4.513826370239258,3.0068135261535645,-0.3044652044773102,10.80666446685791,-10.8994779586792,7.650581359863281,34.93718719482422,-23.281646728515625,-53.77064895629883,-300.0,140.0596923828125,76.20243072509766,44.32410430908203,-65.45841217041016,30.0,12.23195743560791
0.08,0.5,0.0,0.0,0.018467264249920845,0.03427032381296158,0.8964361548423767,0.16001836955547333,0.22248013317584991,1.2002060413360596,-0.49676746129989624,-0.18856900930404663,-1.4630610942840576,0.003655208507552743,0.2640480101108551,0.0002939768601208925,0.3687683343887329,0.09250453114509583,-0.0569070503115654,0.15970154106616974,-0.05143620818853378,0.5533673167228699,-0.3295685052871704,-4.104099750518799,-0.9068803787231445,-0.024244360625743866,-14.142009735107422,10.065485954284668,1.724711537361145,0.17733484506607056,3.0462934970855713,-6.576816558837891,9.874136924743652,-33.903358459472656,-70.35546112060547,144.93650817871094,-155.31944274902344,-24.81954574584961,89.79203796386719,5.815155029296875,-81.53665924072266,30.0,-7.343112945556641
0.09,0.5,0.0,0.0,0.019784461706876755,0.039018064737319946,0.9073874354362488,0.23220819234848022,0.15244100987911224,1.1930022239685059,0.18738052248954773,0.9242114424705505,-0.9228137731552124,-0.07701216638088226,0.2582241892814636,-7.247564644785598e-05,0.228163942694664,0.17730732262134552,-0.051018666476011276,0.15321137011051178,-0.018598202615976334,0.4707678258419037,-0.24202296137809753,-10.627015113830566,-0.3140834867954254,0.00017894990742206573,-13.840081214904785,8.156892776489258,-0.3793676793575287,-1.2410285472869873,3.532933235168457,-9.648089408874512,9.250171661376953,-17.157230377197266,-38.3243522644043,-112.27906036376953,103.84530639648438,-53.303550720214844,25.86185646057129,-78.91163635253906,-7.044822692871094,30.0,-0.4149818420410156
0.1,0.5,0.0,0.0,0.020977776497602463,0.04403573274612427,0.9179054498672485,0.2523670494556427,0.1030685231089592,1.1452351808547974,1.3676496744155884,1.4370266199111938,-0.34789565205574036,-0.15625356137752533,0.2553747594356537,-0.00022381175949703902,0.07587192952632904,0.20419460535049438,-0.047785401344299316,0.13535837829113007,0.00018049553909804672,0.3925200402736664,-0.13455043733119965,-6.700092792510986,-0.7804974317550659,0.3489866852760315,-16.631441116333008,2.169001579284668,0.9932233691215515,-2.2155375480651855,-0.02210695669054985,-5.581887245178223,12.512819290161133,-14.655197143554688,42.50752258300781,-39.04363250732422,-36.626373291015625,10.599321365356445,104.39592742919922,-40.039031982421875,12.758369445800781,30.0,-9.840405464172363
0.11,0.5,0.0,0.0,0.022307151928544044,0.04957757145166397,0.9274293184280396,0.0730975866317749,0.14656931161880493,1.0360815525054932,1.791359305381775,-0.22351045906543732,-0.5261490941047668,-0.17475275695323944,0.24157287180423737,-0.022494355216622353,-8.78536156960763e-05,0.2024921029806137,-0.03958854824304581,0.11129265278577805,-4.189772153040394e-05,0.3648395836353302,-0.02232537791132927,0.0524161159992218,-2.1834065914154053,-3.421520233154297,0.0010271724313497543,1.2239640951156616,0.6924168467521667,-2.4462249279022217,0.010596739128232002,-0.3453100919723511,12.475080490112305,-9.60498046875,56.46502685546875,49.398616790771484,-95.43805694580078,151.52023315429688,121.30286407470703,24.104835510253906,18.104618072509766,7.223808288574219,16.9601993560791
0.12,0.5,0.0,0.0,0.023998728021979332,0.05562888830900192,0.9359431266784668,0.046361662447452545,0.1519482135772705,0.9531981945037842,2.7800464630126953,-0.590533971786499,-0.02448810636997223,-0.19497281312942505,0.21027426421642303,-0.04486222565174103,-2.4818122255965136e-05,0.19170154631137848,-0.03358391299843788,0.076351597905159,0.00018192079733125865,0.35599979758262634,0.009504197165369987,-2.88049578666687,-3.902805805206299,-1.4959677457809448,-0.000822145608253777,-1.1304848194122314,0.5124923586845398,-4.3285088539123535,-0.00703794788569212,-1.8129721879959106,2.7254738807678223,-3.7621490955352783,11.595909118652344,-48.41070556640625,-44.36273193359375,36.013301849365234,86.49464416503906,-36.160614013671875,-77.16681671142578,-2.9227466583251953,1.7908329963684082
0.13,0.5,0.0,0.0,0.026511337608098984,0.06328199803829193,0.9433346390724182,0.030789876356720924,0.19494254887104034,0.8449779152870178,5.282060146331787,-1.044973611831665,-0.025027334690093994,-0.10281499475240707,0.1284598559141159,-0.08217349648475647,4.821482434635982e-06,0.23880629241466522,-0.04052197188138962,0.011380228213965893,-4.251935024512932e-05,0.35529154539108276,0.0517195500433445,14.869062423706055,-11.463603973388672,-4.234608173370361,-0.0014078516978770494,4.780976295471191,-1.4154287576675415,-8.016170501708984,0.005164785776287317,1.1179214715957642,4.275862216949463,-11.687771797180176,33.95437240600586,21.21401596069336,-238.98617553710938,90.94398498535156,-1.63232421875,16.787866592407227,-145.34918212890625,1.8400936126708984,-0.40118980407714844
0.14,0.5,0.0,0.0,0.029772989451885223,0.07330071181058884,0.9490399360656738,0.05868688225746155,0.29802224040031433,0.6176586747169495,6.970175743103027,0.38123688101768494,-1.6353179216384888,0.16250944137573242,-0.03440501168370247,-0.10935138165950775,2.0658175344578922e-05,0.21374516189098358,-0.004481080919504166,-0.07581604272127151,-0.02185177616775036,0.4549263119697571,-0.0719226598739624,31.095712661743164,-19.341920852661133,-1.751695990562439,-0.005613833665847778,-2.6359076499938965,6.339505195617676,-9.12342643737793,-2.7906100749969482,13.219210624694824,-11.905972480773926,14.293264389038086,20.489242553710938,74.60845947265625,-230.47900390625,88.33649444580078,-76.42103576660156,72.99838256835938,-206.76560974121094,6.933628082275391,-1.7903413772583008
0.15,0.5,0.0,0.0,0.03333478420972824,0.08079181611537933,0.9536008238792419,0.34423986077308655,0.4392295777797699,0.4762265384197235,1.1708277463912964,1.5001760721206665,-1.6012860536575317,0.25722119212150574,-0.15345270931720734,-0.10717735439538956,1.2007923942292109e-05,0.28559520840644836,0.01846558041870594,-0.10000064224004745,-0.0594838410615921,0.6122655868530273,-0.21711963415145874,1.512450098991394,-7.35484504699707,-1.854936122894287,-0.01921287551522255,7.59110689163208,-0.32798102498054504,2.0972697734832764,-3.645695924758911,15.712757110595703,-13.85402774810791,-61.88795471191406,-30.520809173583984,300.0,109.57199096679688,102.07360076904297,-161.23080444335938,30.230743408203125,-159.52999877929688,2.320526123046875,-3.5935707092285156
0.16,0.5,0.0,0.0,0.03399742394685745,0.08417589962482452,0.9572611451148987,0.5281890034675598,0.4430689811706543,0.33077722787857056,-1.3708795309066772,6.851659297943115,1.8450943231582642,-0.11526034772396088,-0.12705588340759277,-0.27046358585357666,0.06460586190223694,0.4260111153125763,-0.07187186926603317,-0.04866271838545799,-0.13343307375907898,0.7099690437316895,-0.40609169006347656,-50.000038146972656,9.06523609161377,-23.533987045288086,8.500134468078613,14.51932430267334,-13.08214282989502,7.061192989349365,-9.509145736694336,4.410531044006348,-18.87744140625,-44.70216369628906,-106.53302001953125,29.799785614013672,197.25613403320312,-99.82087707519531,-202.34185791015625,-115.34375,-46.08366775512695,-9.645111083984375,-0.940338134765625
0.17,0.5,0.0,0.0,0.03745816648006439,0.08530817925930023,0.9624199867248535,0.0659804567694664,0.6781778931617737,0.5141617655754089,-2.927149534225464,-4.147170543670654,-1.505433201789856,0.0004722474841400981,-0.1133226826786995,-0.22919486463069916,-0.0009733333718031645,0.29568296670913696,-0.08392984420061111,0.025770574808120728,-0.057450536638498306,0.5978651642799377,-0.4199048578739166,29.483545303344727,-3.3645689487457275,9.67612361907959,0.5124539136886597,-16.452119827270508,5.921353340148926,7.5641326904296875,15.00644302368164,-16.143678665161133,-1.7248014211654663,76.69070434570312,120.65119171142578,36.77360534667969,-29.68334197998047,123.22183227539062,300.0,-11.022029876708984,54.106842041015625,-2.052995204925537,5.744903564453125
0.18,0.5,0.0,0.0,0.040330760180950165,0.08685392141342163,0.9657499194145203,0.22445404529571533,0.450456440448761,0.25091955065727234,-2.2235946655273438,1.0901578664779663,-0.15526039898395538,-0.050679970532655716,-0.05525170639157295,-0.23682841658592224,0.030352797359228134,0.2204269915819168,-0.013663225807249546,0.10702856630086899,-0.0003959122986998409,0.5543171167373657,-0.4823240637779236,-18.433902740478516,7.460053443908691,-5.555916786193848,2.898399591445923,-6.903027534484863,7.179452419281006,7.339454650878906,3.5762786865234375e-07,2.340947389602661,-5.360147953033447,15.226776123046875,-108.77537536621094,-85.5890121459961,-33.7664680480957,42.25352478027344,-167.9863739013672,70.13459777832031,-61.49312210083008,6.388982772827148,-4.064968109130859
0.19,0.5,0.0,0.0,0.04231211543083191,0.08886837959289551,0.9678220152854919,0.20933878421783447,0.45851945877075195,0.2198197841644287,-2.042473077774048,0.7985032796859741,-0.04356042668223381,-0.16760319471359253,0.019725946709513664,-0.24188929796218872,-0.00016915072046685964,0.18515367805957794,0.00835336558520794,0.1596611589193344,0.00018721783999353647,0.5342701077461243,-0.1835196316242218,-8.478477478027344,7.581630706787109,-0.45569372177124023,0.27528902888298035,-3.787937641143799,-0.6705254912376404,3.6423394680023193,-0.005050241015851498,-2.8499579429626465,30.355106353759766,-18.27078628540039,59.993438720703125,-177.57376098632812,160.69412231445312,31.02066421508789,128.16436767578125,-43.191261291503906,8.259140014648438,-3.3524932861328125,-1.453470230102539
0.2,0.5,0.0,0.0,0.045106206089258194,0.09235253185033798,0.9691812992095947,0.18857121467590332,0.46039584279060364,0.19582557678222656,0.30268603563308716,-0.13893648982048035,0.13713541626930237,-0.14864607155323029,0.05065208300948143,-0.2288488894701004,-3.3747946872608736e-05,0.12815870344638824,0.011728273704648018,0.16430681943893433,0.00018041845760308206,0.49078741669654846,0.1327243596315384,6.70400857925415,0.3967396020889282,2.362220287322998,-0.000694510352332145,-5.620944976806641,0.7415076494216919,-2.065282106399536,-0.0077045755460858345,-5.0060248374938965,31.19393539428711,15.073801040649414,46.21941375732422,-198.1775360107422,-1.7027463912963867,107.57256317138672,165.50978088378906,-40.481876373291016,-19.030059814453125,-3.3032379150390625,3.4325714111328125
0.21,0.5,0.0,0.0,0.04910299926996231,0.09840376675128937,0.9693835973739624,0.07087928801774979,0.414147287607193,0.07648077607154846,3.7781505584716797,-0.9957833290100098,0.5093918442726135,0.003981816582381725,-0.0025255049113184214,-0.2052631378173828,8.905378308554646e-06,0.09166109561920166,0.030047886073589325,0.11537158489227295,-0.00010109684808412567,0.48989352583885193,0.1482858806848526,18.200761795043945,-9.019949913024902,2.5827279090881348,-0.00043958856258541346,-3.471972942352295,2.5664820671081543,-7.021557331085205,0.00552033307030797,1.3601680994033813,1.014143943786621,19.08944320678711,-26.20156478881836,-36.20280838012695,-218.61956787109375,155.59925842285156,-15.056032180786133,33.655784606933594,-109.2930908203125,3.0406041145324707,-0.6211280822753906
0.22,0.5,0.0,0.0,0.05307004228234291,0.10522571206092834,0.9680820107460022,0.1207445040345192,0.43131497502326965,-0.10946249961853027,2.9073338508605957,-0.09783006459474564,0.5109148025512695,0.16254259645938873,-0.08915690332651138,-0.17731602489948273,2.7652460630633868e-05,0.03864220157265663,0.029864666983485222,0.06467156112194061,-0.0030835922807455063,0.5447601079940796,-0.042695242911577225,13.576266288757324,-8.687640190124512,1.8376857042312622,-0.0009306395659223199,-5.229853630065918,-1.3769789934158325,-3.234819173812866,-0.16231048107147217,6.190506458282471,-18.984159469604492,-41.02097702026367,-50.98078918457031,259.8822937011719,-210.07737731933594,129.412841796875,-163.16656494140625,49.42961883544922,-221.93673706054688,3.3584365844726562,-3.4042301177978516
0.23,0.5,0.0,0.0,0.05635007098317146,0.11031006276607513,0.9656047821044922,0.16933007538318634,0.4750635623931885,-0.2334844172000885,0.20466560125350952,0.1503235548734665,0.9681977033615112,0.2034851610660553,-0.1388964056968689,-0.168588787317276,1.701661676634103e-05,0.0806669369339943,-0.006381957791745663,0.06395305693149567,-0.0018785572610795498,0.6027422547340393,-0.23603932559490204,-0.989784836769104,-2.6306984424591064,-0.3825838565826416,-0.0001951266167452559,4.458773136138916,-4.773316860198975,2.564408779144287,0.5951866507530212,5.130909442901611,-18.79892921447754,-40.2851676940918,-31.904582977294922,198.87782287597656,-20.502389907836914,59.800079345703125,-78.29535675048828,8.824653625488281,-106.42283630371094,0.5358047485351562,-1.8463706970214844
0.24,0.5,0.0,0.0,0.05869431793689728,0.11319934576749802,0.9624002575874329,0.28215470910072327,0.47737663984298706,-0.310323029756546,-1.6378581523895264,1.7497614622116089,1.178784728050232,0.06695642322301865,-0.11526789516210556,-0.2075226604938507,5.00997957715299e-05,0.14371392130851746,-0.04427461698651314,0.10545878857374191,0.0002125989703927189,0.6150172352790833,-0.367563933134079,-18.892284393310547,5.543190956115723,-5.791408538818359,-0.002273968420922756,6.131408214569092,-3.0004513263702393,5.153254508972168,-0.013564885593950748,-1.3453717231750488,-12.846869468688965,12.319326400756836,-3.70831298828125,-52.8482666015625,197.39186096191406,-52.291202545166016,-47.653160095214844,-56.010719299316406,-47.52513885498047,-4.5749053955078125,-1.3771858215332031
0.25,0.5,0.0,0.0,0.061177611351013184,0.11555080860853195,0.9588142037391663,0.19892625510692596,0.5768216848373413,-0.3284904360771179,-1.9622914791107178,0.11590109020471573,0.697192907333374,0.007017329800873995,-0.0687740221619606,-0.2178376317024231,-9.346917067887262e-05,0.06432586908340454,-0.03086702525615692,0.15589408576488495,0.00017294926510658115,0.5673949122428894,-0.19279663264751434,0.1701890230178833,4.29801082611084,1.7215852737426758,0.00014577708498109132,-8.200709342956543,3.637629270553589,4.893259048461914,-0.005155846942216158,-5.100507736206055,17.79491424560547,29.836166381835938,63.82231903076172,-99.0541000366211,141.38584899902344,46.776248931884766,188.5946502685547,-39.76580047607422,-43.30708312988281,-2.9439849853515625,4.773281097412109
0.26,0.5,0.0,0.0,0.06358470022678375,0.11821770668029785,0.9545376896858215,0.18251514434814453,0.48788589239120483,-0.4119400084018707,-0.8225620985031128,0.8058016300201416,0.15808060765266418,-0.097849041223526,0.0037842225283384323,-0.21281279623508453,4.152282781433314e-05,0.03954317048192024,0.0027332736644893885,0.1774020791053772,2.0966412193956785e-05,0.4806162714958191,0.1465788036584854,-15.139822959899902,8.739014625549316,0.06079338490962982,-0.0006172573193907738,-2.183030128479004,3.1786673069000244,-0.29660436511039734,-0.011970765888690948,-9.617289543151855,33.49181365966797,37.56336975097656,-2.522113800048828,-285.94415283203125,205.38174438476562,104.67615509033203,-1.651236653327942,-18.019237518310547,-55.64488983154297,-1.9952392578125,-0.6125679016113281
0.27,0.5,0.0,0.0,0.06708862632513046,0.12254270166158676,0.9492122530937195,0.06715410947799683,0.5193809270858765,-0.4635655879974365,1.400063395500183,-1.737786889076233,0.38680049777030945,-0.05666803568601608,0.021407006308436394,-0.178240567445755,-0.00023637452977709472,0.0037837522104382515,0.0336323156952858,0.152943417429924,-5.574803435592912e-05,0.4419024884700775,0.3583466410636902,13.225434303283691,-2.208278179168701,5.528940677642822,-0.0717218890786171,-3.530463933944702,2.6761386394500732,-2.8241584300994873,-0.0007308125495910645,2.5026702880859375,-2.430905342102051,-2.7435264587402344,50.804359436035156,-32.02406311035156,-142.3331756591797,179.31167602539062,131.96852111816406,34.89909744262695,-35.773406982421875,4.026618957519531,3.35491943359375
0.28,0.5,0.0,0.0,0.07074417173862457,0.12742979824543,0.9434086680412292,0.22304260730743408,0.39542293548583984,-0.5162657499313354,2.5325586795806885,0.6471400260925293,0.60985267162323,-0.015378315933048725,0.004727538675069809,-0.14999128878116608,9.079562732949853e-05,-0.05380813777446747,0.03592299297451973,0.12498730421066284,-0.004473380744457245,0.47188520431518555,0.3247416913509369,-1.1269521713256836,-2.495696783065796,0.36711615324020386,0.00029145029839128256,-5.724659442901611,-0.9510895609855652,-3.9476845264434814,-0.6235707402229309,1.526316523551941,-3.1482841968536377,-17.71099090576172,-81.99462127685547,111.9786605834961,-179.0638885498047,45.42462158203125,-192.07748413085938,-35.78254699707031,-151.2615203857422,30.0,-4.79840087890625
0.29,0.5,0.0,0.0,0.07435984164476395,0.1326400339603424,0.937478244304657,0.22434280812740326,0.40348827838897705,-0.5244318246841431,2.177994728088379,0.28661060333251953,0.5295262932777405,0.024892481043934822,-0.02475883811712265,-0.1364024579524994,-3.297337025287561e-05,-0.11110778152942657,0.038362711668014526,0.09147733449935913,0.00018698431085795164,0.4791160523891449,0.27621036767959595,6.312063694000244,-2.949453115463257,1.6049398183822632,0.003268104512244463,-5.55872917175293,0.8905479907989502,-3.0258796215057373,0.054427579045295715,0.9695819020271301,-4.367877006530762,-7.330140113830566,24.42462730407715,62.544166564941406,7.054867744445801,49.13143539428711,43.13188171386719,-47.80984115600586,-103.08277130126953,30.0,-0.8913116455078125
0.3,0.5,0.0,0.0,0.07756223529577255,0.13721497356891632,0.9313485026359558,0.35211190581321716,0.3404778838157654,-0.576331615447998,1.8263651132583618,1.8228623867034912,0.5102465152740479,-0.009610415436327457,-0.034363243728876114,-0.1403011530637741,5.277624586597085e-05,-0.18132513761520386,0.02118377760052681,0.06081800535321236,8.235829591285437e-05,0.47769322991371155,0.21689341962337494,-8.22354793548584,0.08499684929847717,-2.0724756717681885,-0.0001611621119081974,-6.928394317626953,-2.869523048400879,-3.0201995372772217,0.01731644943356514,-1.1014328002929688,-6.615792751312256,-16.433101654052734,-33.511260986328125,1.8336668014526367,34.257606506347656,37.68154525756836,-109.71479797363281,-37.69731521606445,-113.87791442871094,30.0,-2.7650718688964844
0.31,0.5,0.0,0.0,0.08089913427829742,0.14142538607120514,0.9252607226371765,0.2653421461582184,0.41019028425216675,-0.5546301603317261,0.9675552248954773,0.2405444234609604,0.5613313317298889,0.02137948013842106,-0.03961096331477165,-0.13478051126003265,-8.183576574083418e-05,-0.22328884899616241,0.023979483172297478,0.03918789327144623,0.00022359509603120387,0.479948490858078,0.15987460315227509,8.658053398132324,-0.45860856771469116,2.570085048675537,0.026653651148080826,-3.9114413261413574,1.596323847770691,-1.4574490785598755,-0.04604504629969597,1.2913804054260254,-4.224872589111328,6.101205825805664,55.037391662597656,61.40159606933594,57.032630920410156,59.58222198486328,154.0017852783203,-29.99648666381836,-36.86140823364258,30.0,3.9076576232910156
0.32,0.5,0.0,0.0,0.08384645730257034,0.1448705941438675,0.919195830821991,0.42768892645835876,0.27632594108581543,-0.5760759115219116,1.2722575664520264,2.5024466514587402,0.5109948515892029,-0.045547276735305786,-0.019632596522569656,-0.14335596561431885,8.102938591036946e-05,-0.22258751094341278,0.012746253050863743,0.021147850900888443,-0.0033062780275940895,0.4772278964519501,0.09438198804855347,-14.002878189086914,2.963805913925171,-3.286292314529419,0.00010286562610417604,0.14918991923332214,-2.0185818672180176,-2.0706427097320557,-0.4508046507835388,-1.8547463417053223,-7.186146259307861,-12.967964172363281,-57.57770538330078,-25.335708618164062,18.669511795043945,44.10370635986328,-162.64151000976562,-40.0869255065918,-88.37287902832031,30.0,-4.25285005569458
0.33,0.5,0.0,0.0,0.08724190294742584,0.14790809154510498,0.913135826587677,0.24091288447380066,0.44462504982948303,-0.5850288271903992,-0.45114025473594666,-0.5465317368507385,0.7350190281867981,-0.029283437877893448,0.0002834892657119781,-0.12970709800720215,-0.00016095121100079268,-0.2443598061800003,0.026555445045232773,0.013947754167020321,5.815884651383385e-05,0.4824921190738678,0.03372207656502724,9.231103897094727,1.8439021110534668,4.2761149406433105,-0.006275273393839598,-2.09177827835083,3.1862130165100098,0.5543832182884216,-0.07521270960569382,3.128480911254883,-4.7881693840026855,6.856186866760254,69.52019500732422,161.01670837402344,6.2815093994140625,117.78992462158203,219.19839477539062,7.950624942779541,-43.764183044433594,30.0,5.262495994567871
0.34,0.5,0.0,0.0,0.09024681895971298,0.1498647928237915,0.9068536758422852,0.33493879437446594,0.3423577547073364,-0.6122738718986511,-0.9958285093307495,1.2848639488220215,0.36704301834106445,-0.08280664682388306,0.05279920622706413,-0.11243844032287598,8.646665082778782e-05,-0.203689306974411,0.051502082496881485,0.0230642631649971,0.00010034145088866353,0.4947925806045532,-0.0323847271502018,-12.240666389465332,6.901247978210449,-0.05939846858382225,-0.0011662691831588745,4.1773810386657715,2.023402452468872,1.1841144561767578,-0.04833965748548508,0.040108561515808105,-6.308647155761719,1.9825878143310547,-54.81208419799805,13.470117568969727,68.8087158203125,127.85804748535156,-161.45281982421875,-17.602258682250977,-115.01607513427734,30.0,-4.250110626220703
0.35000000000000003,0.5,0.0,0.0,0.09340039640665054,0.15147925913333893,0.9007707238197327,0.2397511601448059,0.509387195110321,-0.5016347169876099,-1.7932778596878052,-0.38517284393310547,0.4784073531627655,-0.11437171697616577,0.10439658910036087,-0.09144868701696396,-0.0012688912684097886,-0.1966434121131897,0.06448161602020264,0.036648496985435486,8.849492587614805e-05,0.5105461478233337,-0.10825629532337189,4.078024864196777,2.2349815368652344,1.6859920024871826,-0.054476186633110046,5.12226676940918,0.274152010679245,1.8729649782180786,-0.15556083619594574,3.422429084777832,-2.7512340545654297,-9.82442855834961,47.34037399291992,63.815616607666016,7.2778472900390625,127.68049621582031,134.32872009277344,-10.307263374328613,-69.49467468261719,30.0,3.4293174743652344
0.36,0.5,0.0,0.0,0.0965232402086258,0.15434449911117554,0.8965213298797607,0.2713519036769867,0.40932705998420715,-0.3372354507446289,0.0032439727801829576,0.3196924924850464,0.6319560408592224,-0.10459490865468979,0.10911349207162857,-0.09678496420383453,-0.0004083665553480387,-0.1280830353498459,0.058378905057907104,0.041457634419202805,0.0003178423794452101,0.5254397988319397,-0.1504049152135849,-1.5738885402679443,-0.3892117440700531,-0.5216772556304932,-0.33751049637794495,6.72188663482666,-0.989534318447113,-0.45395317673683167,-0.10887166857719421,0.9419633150100708,-2.477656841278076,7.228274345397949,-15.068881034851074,-157.70306396484375,-13.143956184387207,-5.08937931060791,53.262351989746094,-76.40929412841797,-77.64539337158203,30.0,-30.0
0.37,0.5,0.0,0.0,0.09985997527837753,0.15800832211971283,0.8937103152275085,0.23533816635608673,0.36077284812927246,-0.15221822261810303,0.9505548477172852,-0.18800203502178192,0.46502989530563354,-0.07448241859674454,0.09628000855445862,-0.10415874421596527,-0.00022385784541256726,-0.05996473878622055,0.05827982351183891,0.029963241890072823,0.0003487302747089416,0.5350372195243835,-0.16552773118019104,4.720250129699707,-1.6557745933532715,-0.5299097299575806,-0.08375565707683563,6.044798374176025,0.10245540738105774,-1.5095009803771973,-0.06804252415895462,1.0699145793914795,0.679741621017456,9.050162315368652,51.62492370605469,-85.29888153076172,-44.865135192871094,-25.849103927612305,154.19171142578125,-74.61729431152344,-55.55038070678711,30.0,-30.0
0.38,0.5,0.0,0.0,0.10344815254211426,0.16221588850021362,0.8925408124923706,0.21043844521045685,0.34914928674697876,0.006189742591232061,1.4782394170761108,-0.5691575407981873,0.5476000905036926,0.009395117871463299,0.07403366267681122,-0.10690601170063019,-0.0001622077834326774,-0.007737631443887949,0.06191274896264076,0.011001868173480034,0.0003205912362318486,0.5472621321678162,-0.15280506014823914,10.05884838104248,-2.616363286972046,0.2092215120792389,-0.5714062452316284,3.5978217124938965,0.4068508744239807,-2.134777307510376,0.013873586431145668,1.267808437347412,2.8042149543762207,0.3897731304168701,41.880645751953125,16.452632904052734,-107.42304992675781,-25.523311614990234,130.04135131835938,-74.8455581665039,-44.158878326416016,30.0,-30.0
0.39,0.5,0.0,0.0,0.1070508360862732,0.16623930633068085,0.8924632668495178,0.20310895144939423,0.3788715600967407,0.057345643639564514,0.48620039224624634,-0.6811081767082214,1.0058778524398804,0.10636890679597855,0.05455750226974487,-0.10079414397478104,-0.0002917357487604022,0.01643306203186512,0.07729338854551315,0.011673194356262684,0.00019498076289892197,0.5491721630096436,-0.2357518970966339,8.256434440612793,-1.7922732830047607,1.1543341875076294,-0.3137447237968445,1.41209077835083,2.0092720985412598,1.7675485610961914,-0.005910297390073538,-1.3829708099365234,-8.533026695251465,-21.528820037841797,14.4598388671875,174.9891815185547,-148.1116485595703,26.57469940185547,78.35951232910156,-45.24781799316406,-23.78685760498047,-3.648822784423828,-30.0
0.4,0.5,0.0,0.0,0.11048474907875061,0.16882012784481049,0.8920673131942749,0.16188944876194,0.4193752706050873,-0.06562381237745285,-1.7255319356918335,-1.3838934898376465,1.2289572954177856,0.13208454847335815,0.06441332399845123,-0.08356929570436478,-1.5132263797568157e-05,0.036426957696676254,0.12306343019008636,0.06023238226771355,-4.192269261693582e-05,0.5477820038795471,-0.3336683511734009,-0.39320167899131775,2.8865878582000732,2.0859262943267822,0.0007138293003663421,2.029233694076538,5.738938808441162,7.165716648101807,0.0036469462793320417,0.6667591333389282,-9.51473617553711,-2.719694137573242,-17.55569076538086,128.90293884277344,42.356937408447266,166.68869018554688,-7.688443183898926,15.441015243530273,-46.180809020996094,1.6335830688476562,0.15268421173095703
0.41000000000000003,0.5,0.0,0.0,0.11328350752592087,0.16971909999847412,0.8906684517860413,0.24432571232318878,0.4205670654773712,-0.17426489293575287,-2.8653290271759033,0.3910648822784424,0.6330906748771667,-0.007231183350086212,0.12374405562877655,-0.07068204879760742,8.19001579657197e-05,0.05038043484091759,0.18054638803005219,0.131735697388649,2.513566505513154e-05,0.4938082695007324,-0.28408464789390564,-19.75934410095215,7.815558433532715,0.2867264747619629,-0.002303853165358305,1.3460668325424194,5.527353286743164,6.770424842834473,-0.01870499737560749,-8.156501770019531,4.87171745300293,19.09562110900879,-49.545928955078125,-117.01065063476562,188.97360229492188,169.8688507080078,-130.2870635986328,-26.59054946899414,-100.35950469970703,-2.7996883392333984,-3.3900463581085205
0.42,0.5,0.0,0.0,0.116239994764328,0.17129409313201904,0.8887841701507568,0.29623401165008545,0.39034131169319153,-0.1491462141275406,-1.2173917293548584,0.3184967041015625,0.7802276611328125,-0.13204455375671387,0.18592281639575958,-0.047841932624578476,-0.0003806074382737279,-0.05389215424656868,0.20291021466255188,0.15668070316314697,0.00028958520852029324,0.47048524022102356,-0.3061107397079468,-9.17471694946289,5.338680744171143,2.567857027053833,-0.4786612391471863,-3.9440531730651855,1.8619959354400635,1.324639081954956,-0.03669160604476929,-0.9859381914138794,-3.4117579460144043,4.342513084411621,46.30560302734375,-163.3388671875,64.47593688964844,117.364990234375,105.36677551269531,-56.51056671142578,-30.92118263244629,30.0,2.3545265197753906
0.43,0.5,0.0,0.0,0.11950016021728516,0.17301614582538605,0.8868681788444519,0.280401349067688,0.4041673243045807,-0.18036335706710815,-1.729882836341858,-0.16421958804130554,0.3011144697666168,-0.20554596185684204,0.24441947042942047,-0.012592287734150887,-3.831019421340898e-05,-0.07028321176767349,0.23842357099056244,0.17379020154476166,9.577516175340861e-05,0.46354740858078003,-0.34255021810531616,-5.9501214027404785,6.503576278686523,4.142441272735596,-0.013052929192781448,-1.4028810262680054,4.511063575744629,2.15407133102417,0.0006076362915337086,-0.6912459135055542,-3.657985210418701,14.43440055847168,29.707483291625977,-29.619415283203125,91.22636413574219,161.2508544921875,69.9381103515625,-20.3039493560791,-58.501007080078125,30.0,1.8002967834472656
0.44,0.5,0.0,0.0,0.12273808568716049,0.17478156089782715,0.8846685886383057,0.4304889142513275,0.3693540096282959,-0.1916796863079071,-0.9834297895431519,1.4800223112106323,-0.1454009711742401,-0.21713250875473022,0.3045096695423126,-0.00047001431812532246,-3.4423483157297596e-05,-0.0748995840549469,0.2532292902469635,0.18451881408691406,0.00014663107867818326,0.44859063625335693,-0.37659692764282227,-0.6123107671737671,5.899982452392578,-0.00038951262831687927,-0.023197757080197334,-1.0611085891723633,0.9812797904014587,0.47805464267730713,-0.08620786666870117,-2.375662326812744,-3.61222505569458,5.695557117462158,-18.98217010498047,-25.9747314453125,17.644224166870117,160.89366149902344,45.977298736572266,-28.892929077148438,-56.922393798828125,30.0,-4.809946537017822
0.45,0.5,0.0,0.0,0.12599222362041473,0.1768418699502945,0.882245659828186,0.4076915383338928,0.35496264696121216,-0.20602624118328094,-0.4955640435218811,1.0685641765594482,0.05155463516712189,-0.21496017277240753,0.35468801856040955,2.162117016268894e-05,-9.232931915903464e-06,-0.09536954015493393,0.25864869356155396,0.1866728812456131,3.2482961387358955e-07,0.4329461455345154,-0.40883538126945496,0.678190290927887,4.378045558929443,0.0017531190533190966,-0.0013838469749316573,-2.0117225646972656,0.02667871117591858,-0.04594714939594269,0.03944573923945427,-1.159517765045166,-2.446758508682251,-8.676858901977539,1.1943347454071045,46.51030349731445,-65.87091064453125,133.53335571289062,122.21102142333984,0.9311556816101074,-79.7467041015625,30.0,0.20845508575439453
0.46,0.5,0.0,0.0,0.1294369250535965,0.1792636662721634,0.8796040415763855,0.3944895565509796,0.3269868791103363,-0.2161136269569397,0.16231778264045715,0.8110169172286987,0.1234336793422699,-0.20462258160114288,0.3888656497001648,-1.2359455467958469e-05,-1.6222802514676005e-06,-0.11730409413576126,0.2605671286582947,0.1825060397386551,5.562458318308927e-05,0.42603376507759094,-0.43325328826904297,1.2140265703201294,2.7172904014587402,0.0028258448000997305,0.0007111324230208993,-2.11836314201355,-0.018219560384750366,-0.7000626921653748,0.030843019485473633,-0.3358050286769867,-1.9717373847961426,3.1040072441101074,3.47330379486084,23.754669189453125,-66.63679504394531,131.59201049804688,129.33917236328125,-4.5790605545043945,-88.11124420166016,30.0,0.2849750518798828
0.47000000000000003,0.5,0.0,0.0,0.13309267163276672,0.18205727636814117,0.8767832517623901,0.3866315186023712,0.2998289167881012,-0.2269788682460785,0.7794508934020996,0.561631977558136,0.13362978398799896,-0.18535147607326508,0.4069216847419739,-4.929333954351023e-05,-3.2902671591727994e-06,-0.16362032294273376,0.26106876134872437,0.1715097576379776,0.00010461470810696483,0.42778173089027405,-0.45138102769851685,2.283276081085205,1.1492700576782227,0.009910067543387413,-0.002324153669178486,-4.581079483032227,-0.5676112771034241,-1.4462617635726929,0.10550227016210556,0.5262341499328613,-1.4584672451019287,6.795350551605225,11.327774047851562,17.799331665039062,-63.46240997314453,130.20675659179688,137.31040954589844,-8.96656608581543,-94.65843200683594,30.0,0.6926651000976562
0.48,0.5,0.0,0.0,0.13699877262115479,0.18524470925331116,0.8738195896148682,0.3829638957977295,0.26447418332099915,-0.23417426645755768,1.5172206163406372,0.32448986172676086,0.21327000856399536,-0.15247860550880432,0.40836286544799805,-8.812674059299752e-05,-1.371152393403463e-05,-0.22689680755138397,0.25886958837509155,0.15293817222118378,0.00012996770965401083,0.4386884868144989,-0.46155449748039246,3.853548049926758,-0.6027395725250244,0.018773525953292847,-0.004564449191093445,-6.188828945159912,-0.53009033203125,-2.20684814453125,0.05392705649137497,1.3685797452926636,-0.6766694784164429,-0.5329616069793701,21.63385772705078,5.453514099121094,-68.01932525634766,122.672119140625,146.6065673828125,-17.95216178894043,-90.45531463623047,30.0,1.1208457946777344
0.49,0.5,0.0,0.0,0.14096425473690033,0.1887161135673523,0.8714472651481628,0.23704393208026886,0.2655378580093384,0.01300068199634552,0.8511782288551331,-0.3593086302280426,-0.3838845491409302,-0.10935290157794952,0.39343374967575073,-0.00819637905806303,-0.0015906825428828597,-0.23885862529277802,0.25628742575645447,0.13058564066886902,8.502028504153714e-05,0.45748400688171387,-0.4606144428253174,-0.6075750589370728,-1.5969862937927246,-2.902495861053467,5.959545135498047,3.8781118392944336,0.47520649433135986,-1.2000805139541626,0.018443215638399124,1.964036464691162,1.3322664499282837,-8.241825103759766,29.823339462280273,-1.9594287872314453,-64.04170227050781,122.462890625,146.8778076171875,-19.413169860839844,-89.73600769042969,30.0,1.5120162963867188
0.5,0.5,0.0,0.0,0.14474192261695862,0.19127365946769714,0.8711246848106384,0.2822551131248474,0.29614928364753723,0.0415385365486145,-0.05983978882431984,-0.6586293578147888,-0.09878066182136536,-0.11381420493125916,0.38530758023262024,-7.924551937321667e-06,0.0001284968457184732,-0.2049480676651001,0.2550281882286072,0.12668734788894653,0.0002935240918304771,0.48486456274986267,-0.4496511220932007,2.825188398361206,-0.3134176433086395,-0.018823549151420593,-0.2811175584793091,0.8371723890304565,-0.1870715618133545,-0.015957061201334,0.053257085382938385,2.2342276573181152,1.1174086332321167,-14.7618408203125,41.82838439941406,57.60784912109375,2.5150604248046875,81.23031616210938,199.15255737304688,-60.20638656616211,-93.80408477783203,30.0,25.49494743347168
0.51,0.5,0.0,0.0,0.14862209558486938,0.19362270832061768,0.8715644478797913,0.347363144159317,0.24299460649490356,0.1384153813123703,0.3203001916408539,0.05683724209666252,-0.0670759528875351,-0.09714426100254059,0.38023290038108826,-0.00021687465778086334,-0.00015091235400177538,-0.1939740777015686,0.2545221447944641,0.12280042469501495,0.0003877938725054264,0.49950721859931946,-0.4352480471134186,0.4724324941635132,-0.6997030973434448,0.0449410043656826,0.221648171544075,0.23767653107643127,0.18081045150756836,-0.610694408416748,-0.028003346174955368,0.738544225692749,1.5670794248580933,-9.057547569274902,27.645830154418945,-29.969806671142578,-48.185203552246094,62.74340057373047,158.5113983154297,-77.34435272216797,-68.9044189453125,30.0,-28.84507179260254
0.52,0.5,0.0,0.0,0.15251348912715912,0.19592568278312683,0.8728964328765869,0.35607200860977173,0.20898748934268951,0.21291600167751312,0.5109045505523682,0.019327105954289436,-0.04888402298092842,-0.0873337835073471,0.371947318315506,-0.0001751623349264264,-0.00013610704627353698,-0.19450229406356812,0.25406304001808167,0.1152142584323883,0.00024205991940107197,0.508258581161499,-0.4133962392807007,1.1370285749435425,-0.8977258801460266,0.016244763508439064,0.11565931886434555,-1.2186779975891113,0.041060399264097214,-0.7708593010902405,0.03349604457616806,0.5116803050041199,2.3325352668762207,-15.423166275024414,40.872161865234375,-5.9066290855407715,-49.98884582519531,80.34782409667969,160.31080627441406,-47.88233184814453,-51.58781814575195,30.0,-22.344072341918945
0.53,0.5,0.0,0.0,0.15652716159820557,0.19812868535518646,0.8747933506965637,0.3501260280609131,0.18644331395626068,0.257217139005661,0.6365429162979126,-0.17000402510166168,-0.05185488238930702,-0.06948710232973099,0.3625282347202301,-0.00015699892537668347,-0.00015733575855847448,-0.2051214575767517,0.2487119436264038,0.10624602437019348,0.00017165139433927834,0.5187621712684631,-0.38104239106178284,2.1747162342071533,-0.9639129638671875,0.011468690820038319,0.09321463108062744,-2.2540316581726074,-0.48173069953918457,-0.9822497367858887,-0.017170488834381104,0.8183873891830444,1.2194523811340332,-12.568277359008789,38.551795959472656,3.818692684173584,-44.032379150390625,93.35710906982422,153.92117309570312,-38.28472900390625,-39.312461853027344,30.0,-12.295672416687012
0.54,0.5,0.0,0.0,0.16066452860832214,0.2001783400774002,0.8769742846488953,0.3579525351524353,0.19148772954940796,0.2643311619758606,0.4110507667064667,-0.22015860676765442,-0.03752807155251503,-0.04231734946370125,0.3544551134109497,-0.00014930123870726675,-0.000188338992302306,-0.22545363008975983,0.2433805614709854,0.09851819276809692,0.0002081572893075645,0.5301113724708557,-0.3446146845817566,2.8215086460113525,-0.633830726146698,0.016597460955381393,0.07817819714546204,-2.9460625648498535,-0.4100753366947174,-0.6696904301643372,0.03993987292051315,0.4990110397338867,2.8309428691864014,-12.484054565429688,30.618452072143555,38.76219177246094,-45.243324279785156,98.82610321044922,150.83837890625,-45.694480895996094,-25.262786865234375,30.0,-9.212535858154297
0.55,0.5,0.0,0.0,0.16486884653568268,0.2021435648202896,0.8789477944374084,0.37950995564460754,0.20074176788330078,0.21686223149299622,0.39882877469062805,-0.07687708735466003,0.06737607717514038,-0.012239220552146435,0.34663277864456177,-6.431681686080992e-05,-4.3636984628392383e-05,-0.2391943633556366,0.24044573307037354,0.09209299832582474,0.00017842964734882116,0.5395070910453796,-0.31179770827293396,3.08636474609375,-0.8586680293083191,-0.0008463319391012192,0.03155919164419174,-1.2544788122177124,-0.13727453351020813,-0.6703271865844727,0.0010850043036043644,0.8127147555351257,3.077549457550049,-9.190238952636719,13.565673828125,42.15940475463867,-41.440147399902344,120.80316162109375,138.47361755371094,-39.59607696533203,-27.42083740234375,30.0,-0.5350217819213867
0.56,0.5,0.0,0.0,0.16906189918518066,0.20402196049690247,0.8806149363517761,0.36762797832489014,0.18697649240493774,0.19516775012016296,0.42248883843421936,-0.17667892575263977,0.036936234682798386,0.012206483632326126,0.34031400084495544,-4.600892498274334e-05,1.3784323527943343e-05,-0.2538345754146576,0.23825770616531372,0.0857093557715416,0.00012939090083818883,0.5486677289009094,-0.2840764820575714,2.04692006111145,-0.6238618493080139,0.12903083860874176,0.14092092216014862,-1.0896286964416504,-0.2757853865623474,-0.657780647277832,-0.02262203022837639,1.0348244905471802,3.088858127593994,-8.044776916503906,20.827411651611328,17.604450225830078,-42.62777328491211,129.8007354736328,134.58688354492188,-23.97701072692871,-36.174415588378906,30.0,-10.949273109436035
0.5700000000000001,0.5,0.0,0.0,0.1733027845621109,0.20586098730564117,0.882102370262146,0.37917378544807434,0.18063940107822418,0.18120884895324707,0.46892866492271423,-0.130754292011261,0.042422231286764145,0.037999771535396576,0.3335712254047394,-0.00010020470654126257,-8.436674397671595e-05,-0.26438742876052856,0.2339138239622116,0.07854202389717102,0.0001546840649098158,0.5581392645835876,-0.2542453408241272,2.43998646736145,-0.6434624791145325,0.0014064020942896605,0.11187409609556198,-1.652612566947937,-0.44528552889823914,-0.7484742999076843,-0.007428674027323723,0.9455329775810242,3.1770341396331787,-9.440258026123047,23.214134216308594,25.759443283081055,-57.76689910888672,122.0103759765625,139.31565856933594,-31.82234764099121,-19.324695587158203,23.82736587524414,-17.054588317871094
0.58,0.5,0.0,0.0,0.17758113145828247,0.20762906968593597,0.883472740650177,0.38767123222351074,0.17325866222381592,0.16489295661449432,0.49414050579071045,-0.10292807966470718,0.050311535596847534,0.06304609030485153,0.32682958245277405,-8.445559797110036e-05,-6.18398844380863e-05,-0.27237483859062195,0.22855699062347412,0.0715627372264862,0.00013959310308564454,0.5647105574607849,-0.22763727605342865,2.4683356285095215,-0.6705174446105957,-0.0004711705259978771,0.053359486162662506,-1.2509377002716064,-0.6036646366119385,-0.6844139695167542,0.006507307291030884,0.4114537537097931,2.429684638977051,-9.184677124023438,24.07577133178711,30.36319923400879,-69.1501693725586,123.9608383178711,142.42974853515625,-29.380338668823242,-10.625690460205078,3.815216064453125,-18.944358825683594
0.59,0.5,0.0,0.0,0.18188780546188354,0.20924794673919678,0.8846921920776367,0.3973604738712311,0.16526980698108673,0.14492900669574738,0.40049439668655396,-0.06607719510793686,0.05337671935558319,0.08744224160909653,0.32087844610214233,-3.959599052905105e-05,-5.077724836155539e-06,-0.27991411089897156,0.22406016290187836,0.068491630256176,9.359633986605331e-05,0.55862957239151,-0.22036024928092957,2.4900572299957275,-0.5492019057273865,0.0010398509912192822,0.004234228283166885,-1.2634127140045166,-0.3981289565563202,-0.01298439223319292,-0.0006201332435011864,-1.4606783390045166,0.5733501315116882,-9.215221405029297,21.296323776245117,39.24409103393555,-71.34471130371094,129.34930419921875,142.71847534179688,-22.79669952392578,1.7417396306991577,-1.9096012115478516,-23.319259643554688
0.6,0.5,0.0,0.0,0.18614931404590607,0.2105914056301117,0.8854897022247314,0.38577666878700256,0.18284708261489868,0.07347952574491501,-0.06683503836393356,-0.13632971048355103,0.033328570425510406,0.10204552114009857,0.3199564814567566,-0.00013744922762271017,0.0012897939886897802,-0.2949029505252838,0.21789349615573883,0.07066000998020172,-4.696442192653194e-05,0.5532474517822266,-0.21511363983154297,0.5860531330108643,0.37846168875694275,0.20841056108474731,-0.25689440965652466,9.050630569458008,-0.5848925113677979,0.44688335061073303,-0.040168873965740204,-0.1832207441329956,0.5829950571060181,-9.233795166015625,8.454955101013184,53.58037185668945,-59.977596282958984,142.13243103027344,142.3561248779297,-8.935029983520508,-2.253248691558838,-0.7576885223388672,-19.91915512084961
0.61,0.5,0.0,0.0,0.1904856562614441,0.21186642348766327,0.8858458399772644,0.4223119020462036,0.2087983787059784,0.05586211010813713,-0.22818414866924286,0.10294510424137115,0.14210398495197296,0.11798941344022751,0.321011483669281,-6.625802780035883e-05,0.004130857530981302,-0.3065055012702942,0.2031112164258957,0.06993407011032104,2.418610529275611e-05,0.563508927822113,-0.20370399951934814,1.5259649753570557,0.1805574744939804,-0.02555960603058338,0.3105325698852539,-3.848686695098877,-1.489454746246338,-0.12905214726924896,-0.042291440069675446,-0.04366418719291687,2.0366885662078857,-8.206560134887695,17.16762351989746,29.003925323486328,-66.81400299072266,114.0757827758789,169.75051879882812,-29.51834487915039,-14.488563537597656,0.8132123947143555,-30.0
0.62,0.5,0.0,0.0,0.1948312371969223,0.21332769095897675,0.8858816623687744,0.43446895480155945,0.1561141163110733,0.0329584926366806,0.5810138583183289,0.33266350626945496,0.0033360826782882214,0.12976118922233582,0.3163674473762512,-0.00019306720059830695,-0.00030679896008223295,-0.29475870728492737,0.19224943220615387,0.06328379362821579,8.317515312228352e-05,0.5678320527076721,-0.19092535972595215,-0.5693361163139343,-0.8927857279777527,0.06460897624492645,0.40707406401634216,1.7769126892089844,-0.7574194669723511,-1.084031581878662,0.00921805202960968,0.23442579805850983,1.403578519821167,-4.547328472137451,21.399303436279297,40.951541900634766,-158.76461791992188,117.17041778564453,166.1930389404297,-28.256305694580078,3.520428419113159,1.9090700149536133,-10.514631271362305
0.63,0.5,0.0,0.0,0.1992272138595581,0.2148253172636032,0.8862806558609009,0.43467673659324646,0.141927108168602,0.10124896466732025,0.5985054969787598,0.13729296624660492,-0.015089699998497963,0.13420166075229645,0.30797791481018066,-0.00024367219884879887,0.003072923980653286,-0.2848522365093231,0.17330802977085114,0.05215732753276825,0.00010046282113762572,0.5743944644927979,-0.17597950994968414,0.3839459717273712,-0.840298593044281,0.08009330183267593,0.7000688910484314,-1.0900832414627075,-2.5326483249664307,-1.3078417778015137,0.02880995348095894,0.27907857298851013,3.4780781269073486,-15.496940612792969,57.786258697509766,30.333236694335938,-130.13095092773438,91.03081512451172,207.27896118164062,-34.681888580322266,38.87626266479492,-15.849494934082031,-30.0
0.64,0.5,0.0,0.0,0.20363906025886536,0.21606743335723877,0.8872324228286743,0.3982308506965637,0.14100953936576843,0.13914424180984497,0.30955690145492554,-0.24085666239261627,0.08484963327646255,0.12166906893253326,0.3013726770877838,-0.0005271478439681232,0.026160554960370064,-0.3072162866592407,0.1482921838760376,0.04363609850406647,0.0002680968609638512,0.5821888446807861,-0.14860542118549347,-1.9491798877716064,-0.5050662755966187,0.17004181444644928,3.7861757278442383,-2.217236042022705,-2.4247679710388184,-0.8098860383033752,0.0006020814180374146,1.002729892730713,3.9780068397521973,-11.457207679748535,53.96163558959961,63.59286880493164,-145.48150634765625,77.02266693115234,212.9864044189453,-50.533077239990234,78.15802001953125,-30.0,-30.0
0.65,0.5,0.0,0.0,0.20797495543956757,0.21679316461086273,0.8877836465835571,0.4520908296108246,0.17953039705753326,0.03494197130203247,-0.7748470902442932,0.35511836409568787,0.0004703232552856207,0.09627078473567963,0.3057999014854431,-0.00011891293252119794,0.03776548057794571,-0.30285805463790894,0.1394997388124466,0.049082569777965546,0.00013554695760831237,0.5862990617752075,-0.17436599731445312,-3.449186086654663,1.353967547416687,0.05383497104048729,0.1544698178768158,1.4871797561645508,0.019291047006845474,1.5106366872787476,0.00834777019917965,-0.9839966893196106,-4.131540298461914,-7.499277114868164,15.924882888793945,109.94609069824219,-53.3803825378418,131.56846618652344,143.09109497070312,-50.187835693359375,9.311447143554688,-30.0,-24.05140495300293
0.66,0.5,0.0,0.0,0.21236997842788696,0.21747218072414398,0.8876404762268066,0.4899919331073761,0.19741104543209076,0.00477006658911705,-0.32955190539360046,0.5467862486839294,0.046674054116010666,0.08331308513879776,0.31049850583076477,2.0310251784394495e-05,0.01837123930454254,-0.2963390052318573,0.14139525592327118,0.057677336037158966,0.0001201633713208139,0.5766847729682922,-0.15256935358047485,-0.19412966072559357,-0.2944979965686798,0.000541025772690773,-3.095661163330078,0.4767057001590729,0.3817158639431,0.2415083646774292,0.0454220212996006,-0.5661750435829163,0.7201782464981079,-8.244877815246582,6.728512287139893,72.19766235351562,-88.74787902832031,150.86619567871094,182.75291442871094,-23.737384796142578,-14.331212997436523,30.0,-1.6427245140075684
0.67,0.5,0.0,0.0,0.21680280566215515,0.21846294403076172,0.8872495889663696,0.46781226992607117,0.14921241998672485,-0.01822608709335327,0.18534189462661743,0.4555598199367523,0.021372251212596893,0.060688380151987076,0.30417901277542114,0.0002512185019440949,4.709669519797899e-05,-0.2427305430173874,0.13959521055221558,0.055774588137865067,-1.7001243577396963e-06,0.576504111289978,-0.15233099460601807,-3.3190505504608154,-0.8982773423194885,-0.1826099306344986,0.002082930877804756,6.065390110015869,-0.1408579796552658,-0.4017791450023651,0.010082755237817764,-0.5584211349487305,2.1824560165405273,-0.45372211933135986,-13.342002868652344,-19.58150863647461,-2.778792142868042,151.7871856689453,108.10523986816406,9.66128158569336,-66.22579956054688,30.0,6.961029052734375
0.68,0.5,0.0,0.0,0.22133184969425201,0.21949459612369537,0.8865731954574585,0.4564357101917267,0.13388469815254211,-0.04314641281962395,0.36753275990486145,0.13115395605564117,0.052391380071640015,0.03592905402183533,0.2943299412727356,-1.650060039537493e-05,-8.931427146308124e-06,-0.24714842438697815,0.13332803547382355,0.04981037229299545,1.6632200185995316e-06,0.582366943359375,-0.14703910052776337,-1.872873067855835,-1.05043625831604,0.006768999621272087,-0.029014822095632553,-0.34113162755966187,-0.6505358815193176,-0.646114706993103,0.11708049476146698,-0.07629305124282837,2.6816601753234863,-7.5517778396606445,6.99483585357666,5.651698112487793,5.814658164978027,131.37261962890625,122.3775863647461,-1.270354986190796,-81.32173156738281,30.0,0.462871789932251
0.6900000000000001,0.5,0.0,0.0,0.22620607912540436,0.22060801088809967,0.8861373066902161,0.4807773530483246,0.07268577069044113,0.04785649850964546,1.0608162879943848,0.02120615541934967,-0.000641888938844204,0.04528896138072014,0.2843136787414551,-0.00014476642536465079,0.00022270463523454964,-0.21531003713607788,0.11362313479185104,0.036082375794649124,0.00020957441302016377,0.5909453630447388,-0.12981721758842468,2.185126304626465,-1.1553133726119995,-0.0024949461221694946,-0.33811885118484497,2.60675311088562,-2.5680549144744873,-1.6843843460083008,-0.050218693912029266,1.0429470539093018,2.787358283996582,-8.226219177246094,48.6768913269043,-40.76237106323242,-94.82164764404297,86.52349853515625,174.8351593017578,-26.037010192871094,10.045454025268555,7.995655059814453,-30.0
0.7000000000000001,0.5,0.0,0.0,0.23124168813228607,0.2214847207069397,0.8879702091217041,0.38290712237358093,0.048117056488990784,0.348084956407547,0.7323733568191528,-0.9875282645225525,-0.06258778274059296,0.04614739492535591,0.273243248462677,-0.0006103781051933765,0.03226374834775925,-0.2580130994319916,0.08201184868812561,0.02304757386445999,0.0002766571706160903,0.5963649749755859,-0.2632709741592407,-1.4351145029067993,-1.0062161684036255,0.12056329846382141,5.266348838806152,-8.663744926452637,-3.4186861515045166,-1.0471667051315308,-0.01704905740916729,-0.8186529278755188,-13.579339981079102,-11.060108184814453,85.70184326171875,8.419708251953125,-159.19989013671875,48.8298454284668,271.13262939453125,-60.82415771484375,128.96981811523438,-4.6758270263671875,-30.0
0.71,0.5,0.0,0.0,0.2361641675233841,0.22116294503211975,0.8907111287117004,0.4421170651912689,0.1377744972705841,0.2439362108707428,-1.788675308227539,-0.4972740113735199,0.01551174558699131,0.044832419604063034,0.2791290879249573,0.00033277986221946776,0.031686931848526,-0.17264831066131592,0.07904821634292603,0.0530107207596302,-4.770851319335634e-06,0.5657804608345032,-0.2642878592014313,0.1955154687166214,2.009819746017456,-0.011182130314409733,-1.8812589645385742,8.605167388916016,1.3005753755569458,6.013996124267578,-9.825453162193298e-08,-3.9583730697631836,0.16639097034931183,-17.30392837524414,-12.852648735046387,225.53233337402344,-15.275446891784668,187.29981994628906,95.97010803222656,-5.087825775146484,-46.50069808959961,-0.4198724031448364,-4.734550476074219
0.72,0.5,0.0,0.0,0.24078556895256042,0.22009985148906708,0.8924905061721802,0.5107802748680115,0.12306521832942963,0.14950954914093018,-1.459895133972168,0.4613763988018036,0.02819642797112465,0.020122455433011055,0.29802316427230835,-0.00024312602181453258,-0.0002331154973944649,-0.13441291451454163,0.09490184485912323,0.1071702241897583,-0.00010493824811419472,0.49378082156181335,-0.19136619567871094,-4.6425933837890625,1.7680706977844238,-0.0003727078437805176,-3.3528380393981934,2.648897886276245,1.3246593475341797,4.5973358154296875,-0.002464771270751953,-6.2944793701171875,-4.082970142364502,7.972643852233887,-37.19834518432617,-42.11806869506836,17.327543258666992,135.8831787109375,114.7635498046875,-13.47842025756836,-41.08218765258789,-1.6773300170898438,-3.4228973388671875
0.73,0.5,0.0,0.0,0.2453780472278595,0.2195408046245575,0.8935914635658264,0.4864819645881653,0.14276258647441864,0.12135793268680573,-0.9886178970336914,0.20688791573047638,-0.07060252130031586,-0.03705820068717003,0.3133411109447479,-7.670968625461683e-05,1.002005433292652e-06,-0.1331908404827118,0.09525567293167114,0.1309758722782135,0.00013896293239668012,0.4865048825740814,-0.20188820362091064,-5.330998420715332,1.2705001831054688,0.014046786352992058,-0.001447794260457158,0.34017565846443176,-0.2795848846435547,0.8097732663154602,0.06101221591234207,0.26572322845458984,1.0764663219451904,4.001274585723877,4.957853317260742,-4.614316463470459,5.992058753967285,127.3138198852539,152.74478149414062,-17.37970542907715,-47.91981506347656,30.0,-1.291128158569336
0.74,0.5,0.0,0.0,0.2502092719078064,0.2194172739982605,0.8945229649543762,0.4834367632865906,0.1102546975016594,0.1192445307970047,-0.38703814148902893,-0.06124243885278702,-0.012876712717115879,-0.0738397091627121,0.31971684098243713,-9.41893013077788e-05,-2.1060186554677784e-05,-0.1257389932870865,0.09455898404121399,0.13821806013584137,8.628013165434822e-05,0.49389898777008057,-0.19231373071670532,-2.535113573074341,0.05085672438144684,0.0028022488113492727,0.0003437654522713274,0.7549344301223755,0.00868283212184906,0.3932842016220093,-0.0026321331970393658,0.8220142126083374,1.7633495330810547,-6.921060085296631,21.483253479003906,8.182408332824707,-38.5265998840332,106.8434066772461,161.61924743652344,-20.73416519165039,-60.08638381958008,30.0,1.072991132736206
0.75,0.5,0.0,0.0,0.25533151626586914,0.21960631012916565,0.8952665328979492,0.47937315702438354,0.08669950067996979,0.09002088010311127,0.14672815799713135,-0.30909112095832825,0.017820728942751884,-0.08509869873523712,0.314584881067276,-7.719305722275749e-05,-1.5196921594906598e-05,-0.14787718653678894,0.09593208879232407,0.139052614569664,6.734589987900108e-05,0.5061233639717102,-0.17566514015197754,-0.23850928246974945,-0.9785972237586975,0.00034640415105968714,0.00030789818265475333,-2.250326156616211,0.14902310073375702,-0.2002183347940445,0.01709485985338688,1.2862446308135986,2.3264834880828857,-3.5593700408935547,17.464698791503906,-4.533372402191162,-26.156291961669922,116.7334976196289,156.54962158203125,-14.601058959960938,-64.28242492675781,30.0,1.031240463256836
0.76,0.5,0.0,0.0,0.26067110896110535,0.22003960609436035,0.8955207467079163,0.47884947061538696,0.07347006350755692,0.02530297450721264,0.5417264103889465,-0.44687619805336,0.041935086250305176,-0.07679823040962219,0.30083897709846497,-6.14364180364646e-05,-1.0833075975824613e-05,-0.19501294195652008,0.09699563682079315,0.13453145325183868,5.749433330493048e-05,0.5226542949676514,-0.15527476370334625,1.4661129713058472,-1.690063714981079,9.669351857155561e-05,0.000633981719147414,-4.660102367401123,0.0067969560623168945,-0.6770943999290466,0.01149949710816145,1.77791428565979,2.063175916671753,-1.7347207069396973,13.689910888671875,-12.619770050048828,-15.414036750793457,130.02474975585938,151.841796875,-11.351995468139648,-72.48654174804688,30.0,0.8735446929931641
0.77,0.5,0.0,0.0,0.26614508032798767,0.22067750990390778,0.8950099945068359,0.4872974157333374,0.06527885049581528,-0.06342756748199463,0.8645000457763672,-0.4248213768005371,0.09055645763874054,-0.0547487847507,0.2811068892478943,-5.473444252857007e-05,-7.785221896483563e-06,-0.26069724559783936,0.09545539319515228,0.12509159743785858,6.0997346736257896e-05,0.5399468541145325,-0.1373605728149414,2.571030855178833,-2.185964345932007,0.0030890891794115305,0.0003711714525707066,-6.452280521392822,-0.24379734694957733,-1.112777829170227,0.001037494046613574,1.7603102922439575,1.7414547204971313,-2.0975494384765625,10.442061424255371,-20.644287109375,-7.27294921875,136.75831604003906,143.80010986328125,-12.421401977539062,-84.60235595703125,3.730325698852539,0.7869300842285156
0.78,0.5,0.0,0.0,0.27161750197410583,0.22132772207260132,0.8937574028968811,0.49926966428756714,0.05133911594748497,-0.09139332175254822,0.7965244054794312,-0.24233801662921906,-0.02124246209859848,-0.031461913138628006,0.26439401507377625,-0.00034200208028778434,7.097179332049564e-05,-0.27310311794281006,0.0882883295416832,0.11079291254281998,4.8302230425179005e-05,0.5525090098381042,-0.14440172910690308,1.365289568901062,-1.217326045036316,-0.034269317984580994,-0.16028368473052979,5.123525619506836,-0.9986301064491272,-1.439653992652893,0.10046739131212234,0.5315000414848328,-0.8329159021377563,-2.125837564468384,8.024057388305664,-23.771543502807617,-2.390623092651367,139.93528747558594,133.92710876464844,-12.573314666748047,-89.6535415649414,-0.9793930053710938,-30.0
0.79,0.5,0.0,0.0,0.2771395146846771,0.2218206226825714,0.8935039639472961,0.4826981723308563,0.03763250261545181,0.04053657501935959,0.9631029367446899,-0.6023120880126953,-0.06675834953784943,-0.0019496127497404814,0.25579285621643066,-0.00024077143461909145,0.0043613966554403305,-0.25071218609809875,0.06762628257274628,0.09181487560272217,0.00015679413627367467,0.5525790452957153,-0.18564486503601074,4.262206077575684,-0.8689102530479431,-0.0005469843745231628,0.4569741189479828,1.5196226835250854,-2.6916449069976807,-2.506438970565796,0.004842104855924845,-0.8269739747047424,-4.196370601654053,-10.387834548950195,65.84236145019531,-48.80858612060547,-69.36933898925781,56.21306228637695,249.19859313964844,-34.295623779296875,39.02860641479492,-2.588724136352539,-30.0
0.8,0.5,0.0,0.0,0.28261253237724304,0.2218950092792511,0.8946866393089294,0.4113628566265106,0.06689317524433136,0.1888861507177353,-0.23968620598316193,-1.2349025011062622,-0.017143437638878822,0.013027560897171497,0.2532310485839844,-0.0002960482379421592,0.039153825491666794,-0.29534974694252014,0.05554504692554474,0.08547940850257874,0.00013726329780183733,0.5339298844337463,-0.24676616489887238,-0.10846541076898575,0.1583423614501953,0.044308267533779144,5.421583652496338,-8.776762962341309,-0.36942875385284424,0.6732929348945618,-0.011953424662351608,-2.5697569847106934,-6.108527660369873,-10.773880004882812,40.9969596862793,84.76578521728516,-101.76361846923828,85.96346282958984,201.6551513671875,-31.284217834472656,62.088905334472656,-2.094745635986328,-30.0
0.81,0.5,0.0,0.0,0.28785204887390137,0.22107408940792084,0.8959462642669678,0.5289961099624634,0.11610639840364456,0.07348406314849854,-1.6033706665039062,0.12137000262737274,-0.10142847150564194,0.017202164977788925,0.26413533091545105,0.0006702751270495355,0.0030867671594023705,-0.13026471436023712,0.053360436111688614,0.10999107360839844,-9.329145541414618e-05,0.48865458369255066,-0.2289716899394989,-0.06195635348558426,1.8425790071487427,-0.8790037035942078,-4.938835144042969,10.760225296020508,-0.2866072952747345,3.8948276042938232,4.586763679981232e-08,-5.100841999053955,1.9123135805130005,-9.878934860229492,-49.611690521240234,116.95639038085938,-4.835927963256836,215.97789001464844,39.78451156616211,17.599166870117188,-100.29322052001953,0.8854484558105469,-9.259613037109375
0.8200000000000001,0.5,0.0,0.0,0.29275035858154297,0.21995088458061218,0.8963742256164551,0.5243204236030579,0.10263923555612564,0.03760268911719322,-1.0007158517837524,0.20562215149402618,-0.06037726625800133,-0.04139789938926697,0.27888479828834534,-0.0001608878665138036,-4.18135186919244e-06,-0.13010159134864807,0.05927911773324013,0.1397273987531662,0.00023785304802004248,0.45755475759506226,-0.2025921493768692,-6.862484455108643,0.9415296912193298,0.0025628693401813507,-0.0687810555100441,-0.004544161260128021,0.7619848847389221,1.4085227251052856,0.0886441320180893,-0.21703696250915527,-0.37595894932746887,7.6700849533081055,-2.3833351135253906,-9.000978469848633,-17.189620971679688,105.2702865600586,158.7205810546875,-45.8297119140625,-51.75438690185547,30.0,8.622376441955566
0.8300000000000001,0.5,0.0,0.0,0.2979072332382202,0.21940794587135315,0.8966577649116516,0.5198730230331421,0.07302678376436234,0.03337830305099487,-0.33153513073921204,-0.11163277924060822,0.00282490742392838,-0.08483264595270157,0.282074898481369,-0.0001620236726012081,-2.3580183551530354e-05,-0.11129703372716904,0.064249686896801,0.1473742127418518,0.00016220264660660177,0.4684477746486664,-0.2055353969335556,-2.538757801055908,-0.20290015637874603,0.0007744112517684698,0.001179116778075695,1.9552594423294067,0.2645258605480194,0.41840070486068726,-0.003867614082992077,1.2863787412643433,0.8782364130020142,-5.882327079772949,33.739952087402344,-10.79409408569336,-23.414335250854492,82.39404296875,178.03318786621094,-30.22148895263672,-57.606781005859375,30.0,1.6259288787841797
0.84,0.5,0.0,0.0,0.3033809959888458,0.2191416174173355,0.8966920971870422,0.5194065570831299,0.05541638657450676,-0.006281852722167969,0.09500616043806076,-0.3222748041152954,0.009995589964091778,-0.09042009711265564,0.2759439945220947,-0.00010263047443004325,-1.6392139514209703e-05,-0.1504603624343872,0.06860604137182236,0.14883297681808472,0.00010748134081950411,0.4836418032646179,-0.19805093109607697,0.6099308729171753,-0.934922456741333,0.0026639802381396294,-0.00013394391862675548,-4.011892795562744,0.34433528780937195,-0.07501383870840073,0.02156040072441101,1.6577972173690796,1.119093894958496,-0.5617482662200928,22.371002197265625,-12.369290351867676,-11.148991584777832,101.92301177978516,160.81163024902344,-20.719446182250977,-70.927001953125,30.0,1.506561279296875
0.85,0.5,0.0,0.0,0.3090377449989319,0.2190966010093689,0.8961570858955383,0.5217115879058838,0.04035487025976181,-0.07796614617109299,0.5295676589012146,-0.3567769527435303,0.047557394951581955,-0.07539082318544388,0.2626464366912842,-6.458307325374335e-05,-7.924774763523601e-06,-0.207444965839386,0.07208506762981415,0.14517071843147278,7.608075975440443e-05,0.5020596981048584,-0.18933433294296265,1.9898357391357422,-1.6422754526138306,0.002016749931499362,0.0008707368979230523,-5.593483924865723,0.31970739364624023,-0.6067947149276733,-0.004358416423201561,1.908272624015808,1.0999853610992432,-0.8689647912979126,11.380294799804688,-21.43605613708496,-11.960578918457031,120.08294677734375,151.14268493652344,-15.127424240112305,-81.45783996582031,20.45132064819336,0.8353443145751953
0.86,0.5,0.0,0.0,0.31476303935050964,0.2191900610923767,0.894853949546814,0.5394884347915649,0.018574431538581848,-0.1517811417579651,0.6585610508918762,-0.18626755475997925,0.04337359592318535,-0.05302722379565239,0.24670696258544922,0.0004373577539809048,0.0003323561395518482,-0.2402164340019226,0.07289207726716995,0.13663607835769653,5.4983192967483774e-05,0.5195391178131104,-0.18512457609176636,1.7624151706695557,-0.8408313989639282,0.34819889068603516,-0.31485307216644287,2.655381679534912,-0.12065454572439194,-0.8904086351394653,0.0003476198762655258,1.489267349243164,0.24882382154464722,-1.388950228691101,6.62303352355957,-27.568981170654297,5.264467239379883,131.09490966796875,140.19757080078125,-12.42831039428711,-94.956298828125,3.7519915103912354,0.6685066223144531
0.87,0.5,0.0,0.0,0.3205311894416809,0.2192946970462799,0.8941938281059265,0.5068479180335999,0.015344652347266674,-0.015509627759456635,0.9095236659049988,-0.5863289833068848,-0.032584261149168015,-0.013500578701496124,0.23971739411354065,-0.00022403949697036296,-0.00025876116706058383,-0.20928795635700226,0.05711192265152931,0.11820347607135773,0.00014411086158361286,0.5331109166145325,-0.22755034267902374,4.2938008308410645,-0.6411586999893188,0.011805709451436996,0.5879329442977905,1.5987286567687988,-2.3206381797790527,-2.749075174331665,-0.023570146411657333,1.0020196437835693,-4.30897855758667,-6.727607727050781,60.88648986816406,-94.85760498046875,-27.399818420410156,77.44932556152344,200.24180603027344,-27.1744384765625,-2.7380764484405518,-1.780813217163086,-30.0
0.88,0.5,0.0,0.0,0.32624417543411255,0.21923185884952545,0.8950016498565674,0.4630557596683502,0.04905844107270241,0.11234588921070099,-0.007916577160358429,-1.0017834901809692,0.003265268402174115,0.01717907190322876,0.2379286140203476,-0.00017370525165461004,0.022732499986886978,-0.23329389095306396,0.04424077272415161,0.10375215113162994,0.0001424705405952409,0.5284927487373352,-0.26932021975517273,2.1297647953033447,0.23420265316963196,-0.005006023682653904,3.7095983028411865,-5.7848615646362305,-0.7258180975914001,-0.7148780822753906,-0.018669499084353447,-1.4141236543655396,-4.206209182739258,-8.47256088256836,37.310306549072266,41.40754699707031,-64.26139831542969,72.58098602294922,191.67201232910156,-32.0293083190918,39.83108901977539,-2.278615951538086,-30.0
0.89,0.5,0.0,0.0,0.33171236515045166,0.21837250888347626,0.8956214785575867,0.5340957045555115,0.09283500164747238,-0.0017569134943187237,-1.364076018333435,-0.11169656366109848,-0.06222144514322281,0.026118243113160133,0.24891746044158936,0.0005110254278406501,0.010665683075785637,-0.18330708146095276,0.04712396115064621,0.11679260432720184,-7.520135113736615e-05,0.5015087723731995,-0.2664830684661865,-0.2522435486316681,1.7604091167449951,-0.021718556061387062,-3.7180449962615967,4.913543224334717,0.7422910928726196,2.9198427200317383,5.820766091346741e-09,-3.0447845458984375,0.313355028629303,-5.63865852355957,-41.64838790893555,128.98239135742188,-23.539653778076172,196.96107482910156,43.487979888916016,15.483884811401367,-70.6121597290039,0.8652620315551758,-6.297861099243164
0.9,0.5,0.0,0.0,0.3368123769760132,0.21715323626995087,0.8953688740730286,0.5362257957458496,0.07981802523136139,-0.052671369165182114,-0.8568563461303711,0.21104563772678375,-0.07225950807332993,-0.02358914539217949,0.2618890702724457,6.569021206814796e-05,3.360528717166744e-05,-0.1315842568874359,0.05718997120857239,0.14020580053329468,0.00011229499068576843,0.47519510984420776,-0.22158829867839813,-6.597972869873047,0.7174628973007202,-0.18767520785331726,-0.03691176697611809,5.444302558898926,0.7219952940940857,1.069490909576416,0.07484586536884308,0.4194594919681549,-0.802716851234436,3.3588361740112305,-20.276203155517578,13.768716812133789,-41.1661376953125,130.19241333007812,132.6984100341797,-18.444252014160156,-61.155426025390625,30.0,4.7540283203125
0.91,0.5,0.0,0.0,0.3420945405960083,0.21638531982898712,0.8949000239372253,0.5337004065513611,0.052600353956222534,-0.056555021554231644,-0.2837192416191101,-0.08304709941148758,0.015949979424476624,-0.06436868757009506,0.2636722922325134,-0.00015123638149816543,-2.420583950879518e-05,-0.12913945317268372,0.0618380606174469,0.14721490442752838,0.00015933667600620538,0.48738011717796326,-0.2300638109445572,-2.3163509368896484,-0.29439297318458557,0.004988152999430895,-0.0004997077048756182,0.08341844379901886,0.16842789947986603,0.38589656352996826,-0.01258084550499916,1.4437386989593506,0.29347890615463257,-4.868478775024414,32.07246017456055,-1.3614311218261719,-23.2741756439209,78.70207214355469,174.498779296875,-31.660831451416016,-67.90592193603516,30.0,1.9353646039962769
0.92,0.5,0.0,0.0,0.3476472795009613,0.21589715778827667,0.8941792249679565,0.5382807850837708,0.03324107825756073,-0.09760887175798416,0.18742284178733826,-0.18726663291454315,0.022536396980285645,-0.07084483653306961,0.25643810629844666,-0.00010572713654255494,-1.3231150660431013e-05,-0.164335235953331,0.06711497902870178,0.14816811680793762,0.00012798156240023673,0.50218665599823,-0.2286674678325653,0.3448423445224762,-1.0584560632705688,0.005648632533848286,-0.0014005538541823626,-3.540790319442749,0.6800302863121033,-0.1145470067858696,-0.0053163496777415276,1.5129311084747314,0.4858185648918152,0.11435294151306152,19.756731033325195,-16.685245513916016,-10.632890701293945,96.68140411376953,159.92831420898438,-27.103919982910156,-77.1479263305664,30.0,1.334421157836914
0.93,0.5,0.0,0.0,0.35335609316825867,0.21559764444828033,0.8929125070571899,0.5431616306304932,0.010242778807878494,-0.15620601177215576,0.4782964587211609,-0.19843046367168427,0.04841100797057152,-0.05846087262034416,0.24382613599300385,0.00016265200974885374,0.00041723978938534856,-0.19986237585544586,0.07248249650001526,0.14433600008487701,8.194692054530606e-05,0.5189040303230286,-0.22766318917274475,1.0610243082046509,-0.9702418446540833,0.370829701423645,-0.07431868463754654,2.7104506492614746,0.41590258479118347,-0.4535997211933136,0.006708373315632343,1.6970340013504028,0.23674717545509338,-1.0255210399627686,11.84701919555664,-27.06252670288086,-0.8335275650024414,118.16822052001953,149.00938415527344,-16.84987449645996,-91.79259490966797,23.91295051574707,0.9381484985351562
0.9400000000000001,0.5,0.0,0.0,0.3591299057006836,0.21536517143249512,0.8921099901199341,0.5246320366859436,0.011490462347865105,-0.0357208251953125,0.6194329261779785,-0.42653220891952515,-0.045923035591840744,-0.024295533075928688,0.23893436789512634,-0.00017156520334538072,-0.00023566799063701183,-0.17155665159225464,0.06000273674726486,0.129309743642807,0.00012222511577419937,0.532894492149353,-0.24421533942222595,3.3847217559814453,-0.3639651834964752,0.09700015187263489,0.45265018939971924,1.3741501569747925,-2.0718908309936523,-2.325794219970703,-0.041375283151865005,1.1913979053497314,-1.6819809675216675,-5.255792140960693,53.54234313964844,-103.32595825195312,-1.6422040462493896,81.86075592041016,176.4331512451172,-22.025775909423828,-43.1534538269043,-1.4765901565551758,-30.0
0.9500000000000001,0.5,0.0,0.0,0.3648275136947632,0.21509209275245667,0.8928080201148987,0.4985464811325073,0.03811559081077576,0.09847789257764816,-0.023045334964990616,-0.6818199157714844,-0.04752330854535103,0.006158262491226196,0.23847231268882751,-0.00010133211617358029,0.016804009675979614,-0.18991322815418243,0.04441722109913826,0.11420917510986328,0.0001317475689575076,0.5318897366523743,-0.27927982807159424,2.282986640930176,0.2553943395614624,0.03907757252454758,2.5696167945861816,-4.581971645355225,-1.2776516675949097,-1.1045043468475342,-0.012765160761773586,-1.1287423372268677,-3.5789732933044434,-8.500636100769043,39.000213623046875,18.161928176879883,-65.0276107788086,65.56229400634766,184.64585876464844,-30.31830406188965,28.549686431884766,-2.350648880004883,-30.0
0.96,0.5,0.0,0.0,0.37033143639564514,0.21425148844718933,0.8934289813041687,0.5373380780220032,0.07369443029165268,-0.004808987490832806,-1.0538952350616455,-0.14319829642772675,-0.0464361235499382,0.018523642793297768,0.24609819054603577,0.000308667920762673,0.021171318367123604,-0.21843299269676208,0.04397334158420563,0.12108706682920456,-3.6801520764129236e-05,0.5077945590019226,-0.27274325489997864,0.4345674514770508,1.1510025262832642,-0.043705642223358154,-0.8018955588340759,-3.5628223419189453,0.5611003041267395,2.1106934547424316,0.00011728284880518913,-2.85746431350708,0.6762312054634094,-6.5754594802856445,-25.5772762298584,123.99676513671875,-45.62644958496094,163.5921173095703,70.61226654052734,5.087278366088867,-41.83280944824219,0.12712669372558594,-1.1744575500488281
0.97,0.5,0.0,0.0,0.37553051114082336,0.21296219527721405,0.8932206630706787,0.5339146852493286,0.07906795293092728,-0.06333815306425095,-1.221872091293335,0.12436226010322571,0.05747203156352043,-0.008061524480581284,0.2584395110607147,-0.000514164159540087,-7.889140397310257e-05,-0.13980500400066376,0.04868047311902046,0.14115265011787415,0.00014204136095941067,0.48880723118782043,-0.25808072090148926,-7.599748134613037,1.2776474952697754,0.8227291703224182,0.07239073514938354,7.481132984161377,0.46157532930374146,1.505782127380371,0.040872249752283096,0.9884130954742432,-0.9228716492652893,1.5518739223480225,-37.66506576538086,43.601593017578125,-15.03930377960205,137.71310424804688,113.69664764404297,-17.084117889404297,-47.88922882080078,30.0,-3.857013702392578
0.98,0.5,0.0,0.0,0.38077273964881897,0.21188174188137054,0.8927274942398071,0.5590355396270752,0.045869674533605576,-0.06977123767137527,-0.4841459095478058,0.19227847456932068,-0.003173350589349866,-0.046174999326467514,0.26431822776794434,-0.00011217299470445141,-1.5175523003563285e-05,-0.13016508519649506,0.050931282341480255,0.15125620365142822,0.0001185700239147991,0.4977385699748993,-0.2689128816127777,-2.463135004043579,0.08255931735038757,0.0023608608171343803,-0.00444455724209547,0.597072422504425,-0.1764061152935028,0.6056160926818848,0.013437866233289242,0.9866104125976562,-0.29151761531829834,-3.6829495429992676,21.51878547668457,-17.50824737548828,-17.602798461914062,94.62403106689453,138.9601593017578,-26.593807220458984,-71.88455200195312,30.0,2.042369842529297
0.99,0.5,0.0,0.0,0.3862540125846863,0.21117031574249268,0.8920120596885681,0.5577235221862793,0.017574088647961617,-0.09697479754686356,0.2006440907716751,0.03305579721927643,-0.0003155085723847151,-0.05398089811205864,0.2586534023284912,-8.910162432584912e-05,-1.3524177120416425e-05,-0.16084322333335876,0.051006026566028595,0.15273837745189667,9.592697460902855e-05,0.5097354054450989,-0.27051860094070435,0.24549159407615662,-1.0958139896392822,0.0027234312146902084,-1.5500991139560938e-06,-3.1006290912628174,0.09292078763246536,-0.2247389554977417,0.002485376549884677,1.2490323781967163,0.2600632905960083,0.2562275826931,18.11880874633789,-18.263072967529297,-23.0395450592041,95.51374053955078,156.4520263671875,-22.10970687866211,-83.27055358886719,30.0,1.2337818145751953
1.0,0.5,0.0,0.0,0.3918795585632324,0.21065151691436768,0.8908688426017761,0.5727956891059875,-0.013828331604599953,-0.1402609497308731,0.43688276410102844,0.15764735639095306,-0.05913996323943138,-0.04465663060545921,0.24817687273025513,0.00022369860380422324,0.0002866260474547744,-0.17709524929523468,0.048824165016412735,0.14823031425476074,5.489292379934341e-05,0.5238342881202698,-0.2694338262081146,1.138079047203064,-0.33142244815826416,-0.021223096176981926,-0.014155717566609383,1.8825929164886475,-0.3028256297111511,-0.5345030426979065,-0.017790989950299263,1.2199639081954956,0.18102510273456573,-2.1976938247680664,11.54470443725586,-21.76663589477539,-4.644989967346191,114.24219512939453,146.63160705566406,-16.165626525878906,-93.01073455810547,29.68427848815918,0.9156150817871094
1.01,0.5,0.0,0.0,0.397561639547348,0.21023301780223846,0.8905048370361328,0.5405077338218689,-0.007717808708548546,0.009316558949649334,0.6039382815361023,-0.2554550766944885,-0.04853670299053192,-0.014593280851840973,0.24403028190135956,-0.00011621861631283537,-0.00010351103264838457,-0.15802210569381714,0.03148597851395607,0.13438278436660767,0.0001290355867240578,0.5339856147766113,-0.27860575914382935,3.0319390296936035,-0.35201412439346313,0.14920096099376678,0.24362973868846893,0.46841752529144287,-2.503749370574951,-2.154521942138672,-0.0390855148434639,0.6597809195518494,-0.9397738575935364,-8.684314727783203,58.1519775390625,-83.96431732177734,-31.956762313842773,74.94313049316406,194.1128692626953,-24.697166442871094,-20.82626724243164,-1.8597602844238281,-30.0
1.02,0.5,0.0,0.0,0.4031127691268921,0.20977480709552765,0.8917204737663269,0.49907922744750977,0.022385139018297195,0.16327781975269318,-0.16667240858078003,-0.587390661239624,-0.06410163640975952,0.0015756579814478755,0.24335457384586334,-0.00018659234046936035,0.022515740245580673,-0.19151630997657776,0.01811433769762516,0.1232360228896141,0.0001416013401467353,0.5264416933059692,-0.3188910186290741,0.41424834728240967,0.24252237379550934,0.03556709736585617,3.4647152423858643,-6.4158101081848145,-0.6653251051902771,-0.4711272418498993,-0.016385918483138084,-1.8205904960632324,-4.162384033203125,-6.733959197998047,37.03089141845703,28.178319931030273,-70.64524841308594,64.90799713134766,191.0782470703125,-33.05241394042969,43.72988510131836,-2.6782398223876953,-30.0
1.03,0.5,0.0,0.0,0.40839558839797974,0.20865286886692047,0.8929900527000427,0.5693597793579102,0.06789184361696243,0.052592210471630096,-1.3991106748580933,0.3047049045562744,-0.08125260472297668,-0.0008159495191648602,0.25281932950019836,0.0004729963548015803,0.006275455001741648,-0.12872536480426788,0.017249658703804016,0.13720521330833435,-7.256990647874773e-05,0.49373456835746765,-0.288520872592926,-1.048082947731018,1.5020116567611694,-0.021203510463237762,-4.092177391052246,6.211462020874023,0.11490043252706528,2.9100799560546875,4.6566128730773926e-08,-3.544527292251587,3.075324058532715,-7.112425327301025,-37.13227081298828,127.44378662109375,-32.13678741455078,186.31915283203125,56.776824951171875,14.618900299072266,-66.74993896484375,0.8317165374755859,-6.015630722045898
1.04,0.5,0.0,0.0,0.41345879435539246,0.20741528272628784,0.8935263156890869,0.5622050762176514,0.03982919827103615,0.026965821161866188,-0.6081663370132446,0.40587118268013,-0.07837605476379395,-0.045037370175123215,0.26072072982788086,-0.00010373562690801919,1.240807250724174e-06,-0.09708540141582489,0.018381604924798012,0.1532033383846283,0.00018005726451519877,0.48639917373657227,-0.27857765555381775,-5.585550785064697,0.14938746392726898,-0.0006533805280923843,-0.0020447829738259315,3.1855506896972656,0.5668975710868835,0.7812098860740662,0.0002960772253572941,0.19861483573913574,0.17100559175014496,4.764743804931641,-2.5336952209472656,-6.800308704376221,-35.37837219238281,116.36503601074219,148.633056640625,-37.52442932128906,-55.373897552490234,30.0,5.310174942016602
1.05,0.5,0.0,0.0,0.4187191426753998,0.2065703123807907,0.8938659429550171,0.5542149543762207,0.018979942426085472,0.013220923021435738,-0.11228907853364944,0.07187195122241974,0.0020222431048750877,-0.07258038222789764,0.25790998339653015,-0.00013086012040730566,-2.5787687263800763e-05,-0.10140744596719742,0.01994253695011139,0.15730684995651245,0.00012087757932022214,0.4940263330936432,-0.27445343136787415,-0.9299561381340027,-0.6474908590316772,0.00677551468834281,4.15500981034711e-05,-0.5144548416137695,-0.14386337995529175,0.11703813821077347,-0.006952468305826187,1.0759645700454712,0.886076807975769,-6.4809250831604,31.095590591430664,-9.29352855682373,-9.893871307373047,84.55079650878906,169.53770446777344,-26.789384841918945,-64.54425811767578,30.0,1.7571372985839844
1.06,0.5,0.0,0.0,0.424229234457016,0.20595985651016235,0.8938387632369995,0.5544953942298889,0.004496681038290262,-0.03954264521598816,0.3037168085575104,-0.02883276715874672,0.025289207696914673,-0.06726671755313873,0.24813763797283173,-7.782693865010515e-05,-1.1145363714604173e-05,-0.14387871325016022,0.01914258673787117,0.15575391054153442,8.80404477356933e-05,0.5062968134880066,-0.2669235169887543,1.3629627227783203,-1.2329299449920654,0.0014807237312197685,0.00019773750682361424,-4.254334926605225,-0.09802522510290146,-0.3855098485946655,0.009984910488128662,1.2563986778259277,0.9612257480621338,-1.4880249500274658,15.687105178833008,-22.944955825805664,-1.3375988006591797,103.29692840576172,150.61907958984375,-19.578155517578125,-77.65805053710938,30.0,1.1319732666015625
1.07,0.5,0.0,0.0,0.42986080050468445,0.20552490651607513,0.8931312561035156,0.5592727065086365,-0.006094580516219139,-0.1132587343454361,0.5770524144172668,0.03467273339629173,0.04607648029923439,-0.04688187316060066,0.2337990552186966,-3.86704778065905e-05,-3.945764547097497e-05,-0.20335347950458527,0.017253031954169273,0.1497747153043747,6.433792441384867e-05,0.5198171138763428,-0.26123419404029846,2.09116530418396,-1.3923441171646118,0.020653914660215378,-0.31015703082084656,3.3350653648376465,-0.17140299081802368,-0.7220525741577148,-0.047034963965415955,1.3210777044296265,0.5861062407493591,-1.0841882228851318,7.6423444747924805,-24.724714279174805,3.566314935684204,121.09165954589844,138.2334442138672,-14.324318885803223,-91.32272338867188,14.005897521972656,0.6855049133300781
1.08,0.5,0.0,0.0,0.4355044960975647,0.2051236778497696,0.8927971124649048,0.5375797748565674,-0.0050713540986180305,-0.004742475226521492,0.6764971613883972,-0.28823667764663696,-0.07266626507043839,-0.015196979977190495,0.22908391058444977,-0.00011243242624914274,-1.41684415666532e-06,-0.18322451412677765,0.006426303181797266,0.1356484293937683,0.00013855010911356658,0.527985155582428,-0.2819521129131317,4.488872051239014,-0.46105173230171204,0.011990182101726532,-0.04695403203368187,1.0620492696762085,-1.605146884918213,-2.2078895568847656,0.013634217903017998,0.2017638236284256,-2.1363139152526855,-5.159728050231934,55.658042907714844,-89.50323486328125,-1.3623418807983398,71.69137573242188,191.42837524414062,-28.278623580932617,-28.282485961914062,-2.200885772705078,-30.0
1.09,0.5,0.0,0.0,0.44109687209129333,0.20480792224407196,0.8936712145805359,0.5060967206954956,0.01257871463894844,0.10543311387300491,0.18879221379756927,-0.5076521635055542,-0.027851851657032967,0.012958348728716373,0.22683930397033691,-8.634368714410812e-05,0.01433564443141222,-0.2000565379858017,0.0002320181083632633,0.1218251958489418,0.00011322153295623139,0.5156171917915344,-0.29680317640304565,1.4165464639663696,-0.03705703467130661,0.10033968091011047,2.3039603233337402,-4.251430034637451,-0.10772743821144104,-0.9657430052757263,-0.026291344314813614,-2.1278598308563232,-1.5733230113983154,-6.499447822570801,29.715364456176758,28.508098602294922,-76.15068054199219,69.18231201171875,180.8420867919922,-27.09334373474121,27.972278594970703,-2.003040313720703,-30.0
1.1,0.5,0.0,0.0,0.4464672803878784,0.203934445977211,0.8943361043930054,0.547554612159729,0.05640154331922531,-0.004950021393597126,-0.9549262523651123,0.07211536914110184,-0.07108777016401291,0.01934424415230751,0.23337119817733765,0.0003272632893640548,0.010134376585483551,-0.19941121339797974,0.007704506628215313,0.12953299283981323,-5.455758946482092e-05,0.4851214289665222,-0.27738794684410095,-0.10204631835222244,1.1912565231323242,-0.01314524281769991,-2.0356507301330566,0.02724594995379448,1.1030720472335815,2.158764362335205,-1.862645149230957e-09,-3.211455821990967,1.9156110286712646,-5.190860271453857,-24.743730545043945,111.51054382324219,-25.13066864013672,164.9900665283203,68.88192749023438,10.595646858215332,-44.661537170410156,0.6073713302612305,-3.946331024169922
1.11,0.5,0.0,0.0,0.4515683948993683,0.20282705128192902,0.8942434191703796,0.552501380443573,0.03458824008703232,-0.04233897849917412,-0.4792812466621399,0.4083978235721588,-0.08809363096952438,-0.020023761317133904,0.2408057451248169,6.2857499870006e-05,3.448100687819533e-05,-0.12398073077201843,0.01332731544971466,0.14121513068675995,0.00010943919187411666,0.48018133640289307,-0.27539217472076416,-5.92535924911499,0.3372631072998047,-0.143488347530365,-0.03270547091960907,7.8712286949157715,0.5799976587295532,0.6159937381744385,0.006106812506914139,0.3261241316795349,-0.34736016392707825,4.763688564300537,-22.058446884155273,9.08043098449707,-28.792369842529297,136.8274688720703,124.12630462646484,-22.7695255279541,-68.8202133178711,30.0,3.952301025390625
1.12,0.5,0.0,0.0,0.4567776918411255,0.20192798972129822,0.8939003348350525,0.5460094213485718,0.02360464446246624,-0.05641108751296997,-0.1734537035226822,0.08746509999036789,-0.013254036195576191,-0.0502978153526783,0.24155239760875702,-0.00011594376701395959,-2.4408844183199108e-05,-0.13632714748382568,0.014141200110316277,0.1450202465057373,0.00011248084774706513,0.48909738659858704,-0.27777308225631714,-1.2031511068344116,-0.1565718948841095,0.006423505023121834,-0.0011831929441541433,-1.5116260051727295,-0.33642786741256714,0.18219944834709167,0.0055386461317539215,1.2192738056182861,0.16615651547908783,-5.862885475158691,28.978878021240234,6.514542579650879,-5.64631986618042,85.58451080322266,164.41029357910156,-24.240711212158203,-71.8042984008789,30.0,1.9172539710998535
1.1300000000000001,0.5,0.0,0.0,0.4622015953063965,0.2012399435043335,0.893248438835144,0.551385760307312,0.005294489208608866,-0.09794928133487701,0.30626651644706726,0.05394105240702629,0.014327197335660458,-0.050534430891275406,0.23584364354610443,-7.992233440745622e-05,-8.789417734078597e-06,-0.16685248911380768,0.013022173196077347,0.14379730820655823,0.0001106188865378499,0.5015637874603271,-0.27702558040618896,0.6957864761352539,-0.9057531356811523,0.0010404335334897041,0.00022604229161515832,-3.0064797401428223,0.08424299955368042,-0.37400874495506287,0.0022610193118453026,1.1576955318450928,0.2801564931869507,-0.7357073426246643,13.683504104614258,-16.059873580932617,-9.4107084274292,97.72433471679688,148.8434295654297,-25.60592269897461,-79.54447937011719,30.0,0.9378995895385742
1.1400000000000001,0.5,0.0,0.0,0.46771419048309326,0.20064672827720642,0.892143189907074,0.5591217875480652,-0.005850617773830891,-0.12324298173189163,0.40033408999443054,0.12230866402387619,-0.03320829197764397,-0.038828685879707336,0.22870060801506042,-6.66354171698913e-05,0.00018085002375300974,-0.17775723338127136,0.012741132639348507,0.13891954720020294,6.964916974538937e-05,0.5139310956001282,-0.27749714255332947,1.2305853366851807,-0.5919833183288574,0.01592806726694107,-0.4647577404975891,1.6455233097076416,-0.09725457429885864,-0.49785250425338745,0.022039571776986122,1.08390212059021,0.16205865144729614,-1.8935481309890747,10.02981948852539,-17.740123748779297,1.5273842811584473,116.73653411865234,139.7442169189453,-16.83358383178711,-91.59512329101562,30.0,-30.0
1.1500000000000001,0.5,0.0,0.0,0.4732930064201355,0.20017163455486298,0.8917967081069946,0.5436539649963379,-0.001209362642839551,0.005096208769828081,0.5190808176994324,-0.16865938901901245,-0.04016929492354393,-0.008046968840062618,0.22554373741149902,-0.00012342416448518634,-2.1244448362267576e-05,-0.16150088608264923,0.0030085453763604164,0.1288112848997116,0.0001436651946278289,0.5211983919143677,-0.27296212315559387,4.084281921386719,-0.2551315426826477,0.003236595541238785,0.11701513826847076,0.5848227739334106,-1.5363867282867432,-1.5760819911956787,-0.013954977504909039,0.13452544808387756,0.9741103649139404,-7.814106464385986,53.57680892944336,-73.17556762695312,-21.908580780029297,70.35343170166016,190.01414489746094,-29.81079864501953,-22.440208435058594,2.9796183109283447,-30.0
1.16,0.5,0.0,0.0,0.4788052439689636,0.19975368678569794,0.8928874135017395,0.4977441728115082,0.027970409020781517,0.15938504040241241,-0.12613545358181,-0.5484656691551208,0.00021898513659834862,0.018227046355605125,0.22547520697116852,-0.00024002599820960313,0.016614338383078575,-0.1894247829914093,0.0010862272465601563,0.12181076407432556,0.0001477374171372503,0.5106881856918335,-0.30984294414520264,1.1464262008666992,0.2550337016582489,0.10821569710969925,2.8407788276672363,-6.048090934753418,0.5331830978393555,-0.11126752942800522,-0.0240094643086195,-2.067061185836792,-3.8583624362945557,-5.137946128845215,36.17599105834961,23.334421157836914,-73.2806167602539,71.00194549560547,184.18524169921875,-33.71277618408203,42.629112243652344,-2.6212406158447266,-30.0
1.17,0.5,0.0,0.0,0.4840140640735626,0.1987820416688919,0.8941035270690918,0.545241117477417,0.06698904186487198,0.05262840539216995,-1.1934385299682617,0.16608045995235443,-0.09672606736421585,0.017671238631010056,0.23511411249637604,-0.0003028589708264917,-0.0003575933806132525,-0.12287646532058716,0.008833717554807663,0.13517765700817108,-7.92701612226665e-05,0.4794757068157196,-0.2755964398384094,-2.146519184112549,1.5081911087036133,-0.0017369985580444336,-2.3873610496520996,5.727029800415039,0.5850611329078674,2.2798588275909424,0.1275155395269394,-1.9473587274551392,-0.9975912570953369,-3.3953750133514404,-38.44685363769531,96.55794525146484,-14.870553970336914,190.39993286132812,53.361324310302734,19.385799407958984,-66.4563980102539,1.2063865661621094,-5.9232330322265625
1.18,0.5,0.0,0.0,0.4890970289707184,0.1977299302816391,0.8946535587310791,0.5420123934745789,0.03660118207335472,0.024182789027690887,-0.45756247639656067,0.19626054167747498,-0.04969309642910957,-0.01796695403754711,0.24473731219768524,-3.592985012801364e-05,-6.514941105706384e-06,-0.11267751455307007,0.010361069813370705,0.1453838050365448,0.00011265401553828269,0.487541526556015,-0.2746827006340027,-3.572216272354126,0.5159456729888916,0.015135964378714561,0.007064168341457844,1.072977066040039,0.10303041338920593,0.5056840181350708,0.06162937730550766,0.6335650682449341,0.5146212577819824,3.5652241706848145,-0.031213760375976562,-28.033124923706055,-7.087643623352051,100.45956420898438,156.3426513671875,-33.775028228759766,-54.461585998535156,30.0,-1.032707691192627
1.19,0.5,0.0,0.0,0.4943006932735443,0.19697508215904236,0.8949189782142639,0.546884298324585,0.014788021333515644,0.0010682032443583012,0.022008124738931656,0.1325143277645111,-0.009667429141700268,-0.03887185454368591,0.24573206901550293,-8.803642413113266e-05,-1.2457408047339413e-05,-0.12351610511541367,0.01115324068814516,0.14767791330814362,0.00011311064736219123,0.4960566461086273,-0.27081167697906494,-1.1525936126708984,-0.2531939446926117,0.002593758050352335,-0.0005704857176169753,-1.1229441165924072,0.01382628083229065,-0.04877205565571785,0.002067970111966133,0.8594745993614197,0.8292027711868286,-2.1819045543670654,16.528396606445312,-6.287088394165039,-12.30899715423584,93.90640258789062,156.60426330566406,-26.370445251464844,-70.60250854492188,30.0,1.075307846069336
1.2,0.5,0.0,0.0,0.4996590316295624,0.19641920924186707,0.8947780728340149,0.54800945520401,0.006241096183657646,-0.049613792449235916,0.32540321350097656,0.0779714360833168,0.010928894393146038,-0.03982871398329735,0.240519180893898,-5.865928324055858e-05,-8.58101157064084e-06,-0.1579236388206482,0.011876319535076618,0.14527323842048645,7.920581265352666e-05,0.5059195756912231,-0.26506683230400085,0.531592607498169,-0.7355620265007019,0.0002377609780523926,-0.000352377857780084,-3.4204840660095215,0.12225862592458725,-0.40455546975135803,0.005008523818105459,0.9737193584442139,0.7353855967521667,-1.0887948274612427,11.296258926391602,-5.977532863616943,-6.050879955291748,109.54287719726562,146.82083129882812,-18.39883804321289,-76.97061157226562,30.0,0.8259449005126953
1.21,0.5,0.0,0.0,0.5051184296607971,0.1959962546825409,0.8940191268920898,0.5484687685966492,0.0005677564186044037,-0.11702736467123032,0.5645349025726318,0.07151727378368378,0.034307561814785004,-0.02800184115767479,0.23128607869148254,-3.8408881664508954e-05,-5.452202458400279e-06,-0.2052612006664276,0.01195573527365923,0.13955555856227875,5.6454100558767095e-05,0.5171006321907043,-0.261470228433609,1.5153353214263916,-1.0668683052062988,0.0008318155887536705,-0.00025199551600962877,-4.645754814147949,-0.08541180193424225,-0.711326539516449,0.00574813038110733,1.1171164512634277,0.4118519723415375,-1.1014418601989746,6.805027008056641,-10.351739883422852,-1.209641456604004,123.29591369628906,136.9600067138672,-12.634160995483398,-87.49525451660156,27.098979949951172,0.5578708648681641
1.22,0.5,0.0,0.0,0.510576069355011,0.1955299973487854,0.8928013443946838,0.5420315861701965,-0.00016181066166609526,-0.12475161999464035,0.42614370584487915,0.06941977888345718,0.014255387708544731,-0.014634615741670132,0.22506067156791687,-0.00015204661758616567,-0.0002095116360578686,-0.18397772312164307,0.010301310569047928,0.13282711803913116,6.197432230692357e-05,0.5281657576560974,-0.2610923945903778,0.2743498682975769,-0.4489322006702423,0.09850701689720154,0.28574785590171814,3.1247739791870117,0.00518963485956192,-0.5212545990943909,-0.023172371089458466,1.162150502204895,0.2683439254760742,-0.5448111295700073,8.433351516723633,-14.38806438446045,-3.3195197582244873,128.54885864257812,128.3512420654297,-12.467472076416016,-94.63977813720703,17.824661254882812,-30.0
1.23,0.5,0.0,0.0,0.5161058902740479,0.19521594047546387,0.8923860192298889,0.5264790058135986,0.01840607076883316,-0.0016902806237339973,0.461899995803833,-0.24830323457717896,-0.011181479319930077,0.016972364857792854,0.22175976634025574,-0.0001265042374143377,-0.00017102286801673472,-0.1657744199037552,0.001938643166795373,0.12174424529075623,0.00013046490494161844,0.5339953899383545,-0.25747060775756836,3.504404306411743,-0.17392194271087646,0.1737041473388672,0.27700895071029663,0.8520784974098206,-1.3326584100723267,-1.646289348602295,-0.04050428047776222,0.03123021125793457,0.864746630191803,-5.598732948303223,52.569862365722656,-69.63824462890625,-14.318115234375,77.93964385986328,186.755126953125,-25.701906204223633,-21.110498428344727,-1.477010726928711,-30.0
1.24,0.5,0.0,0.0,0.5215659141540527,0.19494901597499847,0.8933702111244202,0.48323431611061096,0.04251205921173096,0.14887948334217072,-0.10066145658493042,-0.6172314882278442,-0.012947380542755127,0.04132756590843201,0.22182197868824005,-0.00022464903304353356,0.01858987845480442,-0.1931096762418747,0.0033465884625911713,0.11450216174125671,0.0001396842853864655,0.5216521620750427,-0.28853702545166016,1.1817561388015747,0.23692142963409424,0.0869598239660263,2.9289944171905518,-5.857884407043457,0.9309065937995911,-0.09570864588022232,-0.018249910324811935,-2.2099075317382812,-3.267836570739746,-5.60380744934082,38.106231689453125,36.4453239440918,-90.60346221923828,73.29806518554688,176.75079345703125,-32.29459762573242,42.988914489746094,-2.581470489501953,-30.0
1.25,0.5,0.0,0.0,0.5267255306243896,0.19410628080368042,0.8944828510284424,0.543671727180481,0.0856073871254921,0.048916466534137726,-1.2287304401397705,0.22004027664661407,-0.10831700265407562,0.037180233746767044,0.23200370371341705,-7.211613410618156e-05,-0.00022401349269784987,-0.11481791734695435,0.014088938944041729,0.12770779430866241,-5.4903608543099836e-05,0.4935140013694763,-0.26476937532424927,-2.4349937438964844,1.5855343341827393,-0.002703547477722168,-3.2034506797790527,7.163898468017578,0.7993330359458923,2.0847079753875732,0.08944692462682724,-1.3528237342834473,-0.9668294191360474,-4.5203046798706055,-41.19548416137695,99.03887176513672,-10.898563385009766,191.04727172851562,48.26181411743164,17.78005027770996,-69.50247955322266,5.874166488647461,-6.209037780761719
1.26,0.5,0.0,0.0,0.5317153334617615,0.19310006499290466,0.8950476050376892,0.5364035367965698,0.04322108253836632,0.03228088468313217,-0.5437082052230835,0.24715904891490936,-0.038708336651325226,-0.007527444511651993,0.24400724470615387,-6.133348506409675e-05,1.5520907936661388e-06,-0.10647580772638321,0.015713131055235863,0.13802094757556915,0.00011861213715746999,0.5024047493934631,-0.26496708393096924,-4.573890209197998,0.8569053411483765,0.002618475118651986,-0.00011604931205511093,0.902997612953186,0.0603414811193943,0.6580199599266052,-0.005995739251375198,0.609731912612915,0.41804707050323486,-1.302931785583496,-0.19101715087890625,-38.07733917236328,6.159574031829834,98.54776763916016,155.77146911621094,-26.386734008789062,-50.21540832519531,30.0,-2.367018699645996
1.27,0.5,0.0,0.0,0.536818265914917,0.19235503673553467,0.8954300284385681,0.5416640639305115,0.020416947081685066,0.01704602688550949,-0.045946650207042694,0.1674785166978836,-0.018573686480522156,-0.037945810705423355,0.24828799068927765,-9.114877320826054e-05,-1.2666746442846488e-05,-0.11112730950117111,0.01694611832499504,0.14121544361114502,0.00011877120414283127,0.5093297958374023,-0.25916239619255066,-2.0671324729919434,0.06666017323732376,0.003100837115198374,-0.00040416745468974113,-0.4959390461444855,-0.006146915256977081,0.040563713759183884,0.008261133916676044,0.732682466506958,0.9269652366638184,-2.8980133533477783,16.54064178466797,-3.86686635017395,-13.025303840637207,94.08424377441406,155.57701110839844,-28.437854766845703,-65.63324737548828,30.0,1.0094027519226074
