DanielTruong99/RLHumanoidRobot/analysis/data/amp/state_log.csv
time_step,base_x,base_y,base_z,base_vx,base_vy,base_vz,base_wx,base_wy,base_wz,pos_R_hip_joint,pos_R_hip2_joint,pos_R_thigh_joint,pos_R_calf_joint,pos_R_toe_joint,pos_L_hip_joint,pos_L_hip2_joint,pos_L_thigh_joint,pos_L_calf_joint,pos_L_toe_joint,vel_R_hip_joint,vel_R_hip2_joint,vel_R_thigh_joint,vel_R_calf_joint,vel_R_toe_joint,vel_L_hip_joint,vel_L_hip2_joint,vel_L_thigh_joint,vel_L_calf_joint,vel_L_toe_joint,torque_R_hip_joint,torque_R_hip2_joint,torque_R_thigh_joint,torque_R_calf_joint,torque_R_toe_joint,torque_L_hip_joint,torque_L_hip2_joint,torque_L_thigh_joint,torque_L_calf_joint,torque_L_toe_joint
0.01,-0.0036416728980839252,-0.0046391235664486885,0.8998798727989197,-0.19477979838848114,-0.5405112504959106,-0.08524756133556366,-0.2217429131269455,0.2747326195240021,0.28697600960731506,0.029028840363025665,0.08126736432313919,-0.05662505328655243,-0.0715828463435173,-0.3820232152938843,-0.19816052913665771,0.4220631718635559,0.4028250277042389,-0.019471950829029083,-0.09777818620204926,-0.45101818442344666,-1.9897587299346924,0.6309539079666138,0.8965499997138977,0.05321171134710312,0.7264562249183655,-0.7069061398506165,-3.45530366897583,-2.1812901496887207,11.446467399597168,0.4922213554382324,0.3128318786621094,0.9027183055877686,13.642436027526855,-0.9804462194442749,-6.120131969451904,1.4585771560668945,-5.941356658935547,-20.15999984741211,20.15999984741211
0.02,-0.00731603242456913,-0.009435075335204601,0.8988240957260132,-0.17315253615379333,-0.5334623456001282,-0.18393276631832123,-0.5550237894058228,0.44283440709114075,0.29486146569252014,0.023058250546455383,0.05587845295667648,-0.04775811731815338,-0.058329347521066666,-0.3826937675476074,-0.18795686960220337,0.41094356775283813,0.3575262129306793,0.05235884338617325,-0.06333772838115692,-0.5641419887542725,-2.66567325592041,1.082552194595337,1.6652212142944336,-0.2871360778808594,1.1277507543563843,-0.473889023065567,-5.5756096839904785,-2.4291234016418457,12.940425872802734,0.21994256973266602,1.9518241882324219,-1.305565357208252,15.412420272827148,-0.8961506485939026,-6.085309982299805,2.4045143127441406,-5.66270637512207,-20.15999984741211,20.15999984741211
0.03,-0.01101148035377264,-0.01431292574852705,0.8967604041099548,-0.15172185003757477,-0.5263281464576721,-0.28950628638267517,-0.707455039024353,0.5633708238601685,0.2796725928783417,0.017381325364112854,0.029881862923502922,-0.036465153098106384,-0.03966232016682625,-0.3867584466934204,-0.17394691705703735,0.4041599631309509,0.2959792912006378,0.11890655755996704,-0.05878493934869766,-0.4992038607597351,-2.468581199645996,1.1983435153961182,2.064148187637329,-0.6177820563316345,1.5629148483276367,0.09293044358491898,-7.17365026473999,-3.2753329277038574,10.30447769165039,-0.7750692367553711,2.1657848358154297,-4.3341875076293945,11.177268028259277,0.23462128639221191,-5.184017181396484,3.4481446743011475,-5.117609024047852,-20.15999984741211,20.15999984741211
0.04,-0.014701367355883121,-0.01917056366801262,0.8936545848846436,-0.13138702511787415,-0.5208103060722351,-0.39856404066085815,-0.6172426342964172,0.6323680281639099,0.2658865749835968,0.01292448490858078,0.010374007746577263,-0.026394033804535866,-0.020059768110513687,-0.3942556381225586,-0.15686804056167603,0.40519803762435913,0.22183199226856232,0.17329657077789307,-0.04179738461971283,-0.38999730348587036,-1.664836049079895,0.9134255647659302,1.9451266527175903,-0.9357982873916626,1.8514524698257446,0.9925561547279358,-8.255749702453613,-4.8311238288879395,11.407187461853027,-2.11700177192688,1.3783626556396484,-7.471866607666016,3.4158754348754883,2.2002923488616943,-4.440704822540283,4.74006986618042,-4.800544738769531,-20.15999984741211,20.15999984741211
0.05,-0.018370769917964935,-0.023920834064483643,0.8895092010498047,-0.1180495098233223,-0.5320038795471191,-0.48626962304115295,-0.20580533146858215,0.7083098292350769,0.35981494188308716,0.011522081680595875,0.0006822036230005324,-0.020626408979296684,-0.004772841930389404,-0.4049784243106842,-0.1384202092885971,0.41579025983810425,0.14205045998096466,0.1939074695110321,-0.06520044058561325,0.3562602698802948,-0.6949702501296997,0.6494768857955933,1.2356011867523193,-1.1870946884155273,1.947913408279419,0.8529033660888672,-8.866219520568848,-3.7812769412994385,7.627468109130859,-5.867312908172607,0.3332977294921875,-11.494195938110352,-4.566573143005371,6.178944110870361,-5.37188720703125,4.276174068450928,-5.346214294433594,20.15999984741211,20.15999984741211
0.06,-0.022154442965984344,-0.028526341542601585,0.8847436904907227,-0.11943046748638153,-0.5580508708953857,-0.5414104461669922,0.5355921983718872,0.8104208707809448,0.5800157785415649,0.011526297777891159,0.0030061251018196344,-0.01793273538351059,-0.0002657140139490366,-0.42438673973083496,-0.12131848186254501,0.43344417214393616,0.0573226697742939,0.1599406898021698,-0.07233522087335587,-0.33944469690322876,0.6127870678901672,-0.021234847605228424,-0.09492224454879761,-2.3300609588623047,1.7779558897018433,2.2645411491394043,-9.237936019897461,-3.0961050987243652,9.542296409606934,-3.2978169918060303,-0.8545410633087158,-13.206171035766602,-10.551011085510254,12.923369407653809,-6.367785930633545,8.844797134399414,-5.725696563720703,20.15999984741211,20.15999984741211
0.07,-0.026115594431757927,-0.0328776091337204,0.8794037103652954,-0.14412479102611542,-0.5842305421829224,-0.604853630065918,1.285268783569336,0.8296152353286743,0.5684165358543396,0.009432273916900158,0.017751630395650864,-0.024100840091705322,-0.009659329429268837,-0.45338889956474304,-0.11591518670320511,0.4649547338485718,-3.693659067494082e-08,0.13694049417972565,-0.1066267341375351,-0.1680864542722702,1.94557523727417,-0.9891248941421509,-1.5157946348190308,-3.174595832824707,-1.5476750135421753,3.5308330059051514,-0.00043666327837854624,-1.7554141283035278,0.37557825446128845,-3.8469972610473633,-3.7426257133483887,-12.84575366973877,-11.849896430969238,21.35302734375,4.211885452270508,13.089599609375,-43.351009368896484,15.730985641479492,20.15999984741211
0.08,-0.030228575691580772,-0.03699645400047302,0.8733546733856201,-0.16397491097450256,-0.6054722666740417,-0.6775950789451599,1.7920085191726685,0.2676793336868286,0.7164634466171265,0.007709633093327284,0.04062987491488457,-0.03801468014717102,-0.030722547322511673,-0.4855489730834961,-0.12593068182468414,0.5081349611282349,-9.403286149733958e-09,0.12020030617713928,-0.18846501410007477,-0.16927412152290344,2.4233782291412354,-1.6596204042434692,-2.493974208831787,-3.153208017349243,-0.742406964302063,4.613673210144043,4.440612974576652e-05,-1.192765235900879,0.42649492621421814,-5.257401943206787,-2.003981590270996,-13.598587989807129,-9.374629974365234,22.53804588317871,-3.236396312713623,16.559310913085938,-42.21588897705078,7.984499931335449,20.15999984741211
0.09,-0.03432350233197212,-0.041072409600019455,0.8668095469474792,-0.18644188344478607,-0.612883985042572,-0.6724141836166382,1.6711666584014893,-0.23704610764980316,0.5470324158668518,0.006338370032608509,0.05827042832970619,-0.05526619777083397,-0.04952749237418175,-0.5174394249916077,-0.13406866788864136,0.571029543876648,-6.523198680952191e-05,0.08886390179395676,-0.11235060542821884,-0.05107320472598076,0.6786479353904724,-1.6841506958007812,-1.3959057331085205,-2.9340367317199707,-0.8286848068237305,7.409012794494629,0.18258008360862732,-13.760723114013672,15.78647232055664,-6.644758224487305,3.5230536460876465,-16.553524017333984,-14.01370620727539,23.390655517578125,-6.226398468017578,15.629377365112305,-41.71286392211914,-20.15999984741211,-20.15999984741211
0.1,-0.03812144696712494,-0.04508502036333084,0.86136394739151,-0.22535459697246552,-0.48436978459358215,-0.3262515068054199,0.2562096118927002,-0.6124926209449768,-0.048798393458127975,0.007154399529099464,0.05806630849838257,-0.06889598816633224,-0.05811597406864166,-0.5407135486602783,-0.13730253279209137,0.6431520581245422,8.765912753005978e-06,0.051197201013565063,0.01115266140550375,0.31751009821891785,0.16073158383369446,-0.25817108154296875,0.3385322690010071,-1.8266651630401611,-0.019247423857450485,7.561269760131836,0.09371732175350189,-12.999110221862793,6.231282711029053,-9.29084300994873,8.071150779724121,-25.844501495361328,-16.015869140625,24.057987213134766,-16.827913284301758,16.74506378173828,-42.77885437011719,-20.15999984741211,-20.15999984741211
0.11,-0.041321832686662674,-0.04868234321475029,0.8601236939430237,-0.23996402323246002,-0.35832515358924866,-0.017536908388137817,-0.7786741852760315,-0.628415048122406,-0.3671855330467224,0.010197574272751808,0.061496801674366,-0.0670398622751236,-0.04804711788892746,-0.5556147694587708,-0.13501302897930145,0.7141934633255005,-1.534447437734343e-05,0.06844229251146317,0.03259376063942909,0.38250595331192017,0.43997788429260254,0.42350414395332336,1.4912196397781372,-1.2513877153396606,0.31400570273399353,7.717852592468262,0.0905473530292511,-8.521889686584473,-0.6294528841972351,-13.439095497131348,0.2913968563079834,-34.461524963378906,-17.533432006835938,24.76642608642578,-25.906810760498047,16.237953186035156,-42.508419036865234,-20.15999984741211,-20.15999984741211
0.12,-0.04408926144242287,-0.051901768893003464,0.8608192205429077,-0.22292813658714294,-0.3047921061515808,0.09727536886930466,-0.9145081043243408,-0.5174842476844788,-0.3312566876411438,0.010523349978029728,0.06560638546943665,-0.06542772054672241,-0.032776713371276855,-0.5646252036094666,-0.13113868236541748,0.7848504185676575,-1.8486207409296185e-05,0.07084512710571289,0.01219884492456913,-0.14282718300819397,0.4399612843990326,-0.05177788436412811,1.5781280994415283,-0.6664361953735352,0.343311071395874,7.364398956298828,0.08161406219005585,-9.287724494934082,-2.8848416805267334,-14.86931037902832,-5.055408477783203,-35.874759674072266,-13.997849464416504,25.18697166442871,-31.78006935119629,14.36981201171875,-39.42218017578125,-20.15999984741211,-20.15999984741211
0.13,-0.046513017266988754,-0.0547913983464241,0.8623645305633545,-0.1969848871231079,-0.2706800699234009,0.15725934505462646,-0.8416234254837036,-0.33330732583999634,-0.20798619091510773,0.0055664354003965855,0.06905040889978409,-0.07054943591356277,-0.018106788396835327,-0.5675163865089417,-0.12789902091026306,0.8475291728973389,-1.273596535611432e-05,0.1030091643333435,-0.024030480533838272,-0.6769809722900391,0.37177279591560364,-0.8448176980018616,1.4177104234695435,-0.0575055293738842,0.23616930842399597,6.521999835968018,0.06371316313743591,-8.101861000061035,-4.002431392669678,-14.167998313903809,-7.2002949714660645,-34.63058090209961,-10.901128768920898,25.26066780090332,-34.516849517822266,13.390241622924805,-35.09801483154297,-20.15999984741211,-18.372817993164062
0.14,-0.04864491894841194,-0.05739143490791321,0.8641672134399414,-0.16583698987960815,-0.2555036246776581,0.15652665495872498,-0.5744352340698242,-0.14685752987861633,-0.06459669023752213,-0.0038349246606230736,0.07157906144857407,-0.08517731726169586,-0.0063370405696332455,-0.5638576745986938,-0.1262696236371994,0.8995945453643799,-1.2731946299027186e-05,0.1486426591873169,-0.06253093481063843,-1.0845831632614136,0.2223673164844513,-1.8832734823226929,1.0471795797348022,0.6150784492492676,0.06756804883480072,5.360987186431885,0.004166159313172102,-6.969334602355957,-3.8021926879882812,-12.529020309448242,-7.0881123542785645,-30.565929412841797,-8.270196914672852,24.600252151489258,-34.46541213989258,12.859569549560547,-29.788965225219727,-20.15999984741211,-19.311298370361328
0.15,-0.05051592364907265,-0.059750333428382874,0.8659936785697937,-0.13785655796527863,-0.23675499856472015,0.16217505931854248,-0.4352228343486786,0.018631597980856895,0.015243899077177048,-0.01658312790095806,0.07338155806064606,-0.10873553901910782,0.002642465755343437,-0.5530261397361755,-0.1275501251220703,0.9383431077003479,0.0022620344534516335,0.19809629023075104,-0.10034627467393875,-1.3905298709869385,0.16171503067016602,-2.670727252960205,0.833018958568573,1.344347357749939,-0.23388218879699707,3.7664875984191895,0.26319772005081177,-2.501093626022339,-3.5162596702575684,-10.766342163085938,-5.993901252746582,-25.732152938842773,-7.364815711975098,22.330078125,-31.63710594177246,11.23482894897461,-25.504167556762695,-15.304893493652344,-20.045825958251953
0.16,-0.05214354768395424,-0.061915185302495956,0.8678470849990845,-0.11190348118543625,-0.21870364248752594,0.15915247797966003,-0.37803223729133606,0.13576790690422058,0.049488894641399384,-0.032535795122385025,0.07513855397701263,-0.13858458399772644,0.01017441600561142,-0.534804105758667,-0.13294672966003418,0.9614171385765076,0.010251258499920368,0.24715597927570343,-0.14180180430412292,-1.7133225202560425,0.1471821516752243,-3.2098288536071777,0.7237535119056702,2.0772573947906494,-0.5801430344581604,2.299362897872925,0.7655050754547119,-6.126239776611328,-4.698091506958008,-9.006072044372559,-4.315936088562012,-20.176937103271484,-7.857118129730225,18.635025024414062,-26.46039390563965,10.242591857910156,-22.710880279541016,-20.15999984741211,-12.385847091674805
0.17,-0.053551819175481796,-0.06394749134778976,0.8696871995925903,-0.0901029035449028,-0.1986556500196457,0.165913924574852,-0.4546900689601898,0.2292301207780838,0.023176265880465508,-0.052709341049194336,0.07486347109079361,-0.17192219197750092,0.017566924914717674,-0.5095514059066772,-0.14242291450500488,0.9666118025779724,0.026001863181591034,0.2922940254211426,-0.19042986631393433,-2.1753339767456055,-0.006846735253930092,-3.3945109844207764,0.7950926423072815,2.7451303005218506,-1.054222822189331,0.4132837653160095,1.786799430847168,-5.806515216827393,-5.208239555358887,-7.346208572387695,-1.9000509977340698,-14.381162643432617,-9.665168762207031,13.873127937316895,-20.07968521118164,7.829566955566406,-19.626554489135742,-20.15999984741211,-15.875768661499023
0.18,-0.05474669486284256,-0.06588661670684814,0.8715683817863464,-0.06951252371072769,-0.18154364824295044,0.16383150219917297,-0.5642446875572205,0.2833329141139984,0.012412711046636105,-0.07892997562885284,0.07483360916376114,-0.20574888586997986,0.025971485301852226,-0.47809600830078125,-0.1556599736213684,0.9511042833328247,0.04957110434770584,0.3449303209781647,-0.25080612301826477,-2.8575239181518555,-0.01775171048939228,-3.3736319541931152,0.902965784072876,3.287193775177002,-1.3487069606781006,-1.7136480808258057,2.4005775451660156,-4.500536918640137,-6.178158760070801,-5.33168888092041,-1.4573233127593994,-8.296030044555664,-11.893814086914062,8.608098983764648,-13.461424827575684,5.916260719299316,-15.576833724975586,-20.15999984741211,-12.531673431396484
0.19,-0.05576419085264206,-0.06778157502412796,0.873322606086731,-0.049636419862508774,-0.169562429189682,0.14424026012420654,-0.6784022450447083,0.3282836675643921,0.013838443905115128,-0.11233215779066086,0.07485610246658325,-0.23863521218299866,0.035521525889635086,-0.441976934671402,-0.17174868285655975,0.913045346736908,0.07928307354450226,0.4127277135848999,-0.3212119936943054,-3.594001531600952,0.024037795141339302,-3.2227704524993896,1.0208567380905151,3.667269229888916,-1.6148371696472168,-3.962461233139038,2.976362705230713,-3.0711889266967773,-7.09450626373291,-2.8080997467041016,-1.904018759727478,-2.2903785705566406,-13.523536682128906,3.597433090209961,-7.201488494873047,4.361608505249023,-11.426664352416992,-20.15999984741211,-9.199935913085938
0.2,-0.05665425956249237,-0.0696769580245018,0.8747631907463074,-0.031373415142297745,-0.16168606281280518,0.10621223598718643,-0.8108054399490356,0.3680996298789978,0.01311387401074171,-0.1516968458890915,0.07448135316371918,-0.26949939131736755,0.04643545672297478,-0.40247642993927,-0.19044871628284454,0.8525696396827698,0.11449592560529709,0.4961121678352356,-0.39816272258758545,-4.110596656799316,-0.07174350321292877,-2.9654319286346436,1.1775306463241577,3.9381396770477295,-1.8798149824142456,-6.098017692565918,3.5269994735717773,-1.637325644493103,-7.623556613922119,0.023836135864257812,-2.3276989459991455,3.2363758087158203,-14.263465881347656,-0.30280303955078125,-1.845942497253418,3.7897682189941406,-7.729259490966797,-20.15999984741211,-6.581737518310547
0.21,-0.0574740469455719,-0.07161586731672287,0.8756498098373413,-0.013221043162047863,-0.15824195742607117,0.04015243425965309,-0.9375860691070557,0.4108330011367798,0.005896733142435551,-0.19353850185871124,0.07187284529209137,-0.2975965440273285,0.058971405029296875,-0.36038148403167725,-0.2104463428258896,0.772936999797821,0.15282388031482697,0.5928009748458862,-0.4790512025356293,-4.2076215744018555,-0.3543687164783478,-2.649383068084717,1.35061776638031,4.135992050170898,-1.9932781457901,-7.772892951965332,3.763823986053467,-0.4693295955657959,-7.818881034851074,2.4756088256835938,-2.429795503616333,8.70720100402832,-14.183266639709473,-2.460084915161133,1.2705078125,4.3360748291015625,-3.8575010299682617,-20.15999984741211,-4.338714599609375
0.22,-0.05828939378261566,-0.07363373041152954,0.8757328391075134,0.005259107332676649,-0.1558346450328827,-0.048399947583675385,-1.0878665447235107,0.4797026813030243,-0.008881696499884129,-0.23396100103855133,0.06505651772022247,-0.32209259271621704,0.07351434975862503,-0.3166505992412567,-0.23052285611629486,0.6803009510040283,0.19109944999217987,0.6986461281776428,-0.5572236180305481,-3.9317314624786377,-0.8347856998443604,-2.2363312244415283,1.5775548219680786,4.233872890472412,-2.0282022953033447,-8.752569198608398,3.786789655685425,0.2722228169441223,-7.451348304748535,3.8706207275390625,-1.9387116432189941,13.432632446289062,-13.517995834350586,-3.243783950805664,3.1606669425964355,5.368927001953125,-1.2355499267578125,-20.15999984741211,-2.0633392333984375
0.23,-0.059148699045181274,-0.07575143128633499,0.8748740553855896,0.024109316989779472,-0.1501256227493286,-0.14494748413562775,-1.2869043350219727,0.5535603761672974,-0.024341966956853867,-0.27035775780677795,0.05308552458882332,-0.34178870916366577,0.09067784249782562,-0.27238383889198303,-0.24985308945178986,0.5824261903762817,0.22716449201107025,0.7999999523162842,-0.6273238062858582,-3.432056427001953,-1.3420848846435547,-1.7133500576019287,1.8759888410568237,4.336504936218262,-1.952531337738037,-9.22620677947998,3.551877498626709,-3.9592196117155254e-05,-6.641116619110107,4.143316268920898,-1.3254070281982422,16.812938690185547,-12.740592956542969,-2.208650588989258,4.624855041503906,-1.3486518859863281,-0.03275108337402344,20.15999984741211,-0.7463874816894531
0.24,-0.06004512310028076,-0.0779762789607048,0.8732040524482727,0.04170294478535652,-0.13418854773044586,-0.2231798768043518,-1.603216290473938,0.599761962890625,-0.020767120644450188,-0.3014819920063019,0.03694462403655052,-0.35489124059677124,0.11172838509082794,-0.22740447521209717,-0.26829269528388977,0.48766085505485535,0.26251065731048584,0.7999999523162842,-0.655167281627655,-2.9415314197540283,-1.730628490447998,-1.024059772491455,2.2093610763549805,4.480874538421631,-1.5680055618286133,-9.4105806350708,2.6916556358337402,-3.562687925295904e-05,6.549609184265137,4.180171012878418,-1.2323074340820312,18.946374893188477,-11.74964427947998,-3.207094192504883,5.717009544372559,1.6544303894042969,-1.377537727355957,20.12709617614746,20.15999984741211
0.25,-0.060984157025814056,-0.08029544353485107,0.8705700039863586,0.0646759420633316,-0.11563681811094284,-0.32766076922416687,-1.8840954303741455,0.7064829468727112,-0.0046527814120054245,-0.3255453407764435,0.01611720211803913,-0.3617474436759949,0.1359577476978302,-0.18277257680892944,-0.27979913353919983,0.3987540304660797,0.2810823917388916,0.7999999523162842,-0.6678730845451355,-2.1099157333374023,-2.1481566429138184,-0.38644132018089294,2.5565121173858643,4.379401683807373,-0.9697494506835938,-8.512321472167969,1.1910251379013062,-3.347174060763791e-05,7.529271602630615,3.8673810958862305,-0.3180122375488281,19.187959671020508,-7.452908039093018,-2.192798614501953,4.0778326988220215,2.1393814086914062,-0.9346456527709961,18.6531925201416,20.15999984741211
0.26,-0.06198381260037422,-0.08269064128398895,0.8669312000274658,0.0885125920176506,-0.09136432409286499,-0.43058842420578003,-2.145977258682251,0.7995089292526245,0.007993850857019424,-0.34139493107795715,-0.007828417234122753,-0.36246293783187866,0.1634795367717743,-0.13962872326374054,-0.2852870523929596,0.32081910967826843,0.2852318286895752,0.7999998927116394,-0.6716894507408142,-1.3083070516586304,-2.409196615219116,0.2074185311794281,2.877253770828247,4.226979732513428,-0.3599352240562439,-7.363235950469971,-0.20086462795734406,-3.7309313484001905e-05,8.3527250289917,3.229126453399658,0.33187103271484375,17.285207748413086,-5.674269676208496,-2.4431076049804688,4.554882526397705,1.6117935180664062,-0.5256028175354004,18.20915412902832,20.15999984741211
0.27,-0.06302037835121155,-0.08512904495000839,0.8623042702674866,0.1119113564491272,-0.06304824352264404,-0.5310763120651245,-2.314089059829712,0.8241031169891357,0.023700319230556488,-0.3500632345676422,-0.03199104592204094,-0.3582153916358948,0.19282075762748718,-0.09806407243013382,-0.2845992147922516,0.2544407546520233,0.27618610858917236,0.7999999523162842,-0.6685346961021423,-0.6525524854660034,-2.339061975479126,0.6324062347412109,2.9760961532592773,4.075586795806885,0.2796386778354645,-6.230739593505859,-1.4817454814910889,-3.598254261305556e-05,8.968352317810059,2.5035665035247803,0.6338205337524414,13.90709114074707,-6.657998561859131,-2.9078903198242188,5.736076831817627,1.0538349151611328,0.02919769287109375,18.3447265625,20.15999984741211
0.28,-0.06407080590724945,-0.08760762214660645,0.857577919960022,0.1040286123752594,-0.016570430248975754,-0.493634432554245,-2.9937479496002197,0.6307727694511414,-0.09030333906412125,-0.35441306233406067,-0.051923301070928574,-0.34586915373802185,0.23020373284816742,-0.05685674399137497,-0.29078859090805054,0.1983826905488968,0.28478333353996277,0.7999999523162842,-0.6735460162162781,-0.3697655200958252,-1.6814178228378296,1.5475237369537354,3.9784092903137207,4.250267028808594,-0.4360506236553192,-5.249941825866699,1.0622934103012085,-3.477338032098487e-05,-1.5959640741348267,2.376394271850586,-1.0068168640136719,5.989138126373291,-16.792999267578125,-3.807077407836914,13.250070571899414,1.1955318450927734,-15.408536911010742,18.5869083404541,-11.300955772399902
0.29,-0.06492061913013458,-0.09009550511837006,0.8531477451324463,0.09646724164485931,0.01738188974559307,-0.46346667408943176,-3.3112244606018066,0.23366013169288635,-0.03361982852220535,-0.3602280914783478,-0.06644237041473389,-0.328462153673172,0.271487832069397,-0.014029212296009064,-0.28813597559928894,0.15167354047298431,0.2882828414440155,0.7999999523162842,-0.6914286613464355,-0.6649324297904968,-1.2587876319885254,1.866757869720459,4.2186737060546875,4.340658664703369,0.7023289799690247,-4.3405303955078125,-0.0937267616391182,-3.2377349270973355e-05,-1.34120774269104,2.526132583618164,-1.6034746170043945,1.3740272521972656,-32.53089904785156,-6.019097328186035,13.316195487976074,0.08913230895996094,-17.87959861755371,17.007938385009766,-9.99703598022461
0.3,-0.06579498946666718,-0.09250640869140625,0.8490412831306458,0.13451683521270752,0.02921285480260849,-0.4327683746814728,-3.171238899230957,1.2884162664413452,0.07309821248054504,-0.3889804482460022,-0.07815758883953094,-0.307862251996994,0.3132864236831665,-6.476799899246544e-05,-0.2861717939376831,0.1387760490179062,0.28504276275634766,0.800000011920929,-0.7138616442680359,-3.3910868167877197,-1.0176901817321777,2.205202102661133,4.1148362159729,0.0014082427369430661,-0.17219023406505585,-0.5021849870681763,-0.6980393528938293,-2.959978155558929e-05,-1.2827279567718506,17.449951171875,-1.2466845512390137,-1.76397705078125,-46.9084587097168,16.17861557006836,21.008821487426758,-18.054325103759766,-20.971437454223633,15.140172958374023,-10.176902770996094
0.31,-0.06661239266395569,-0.09469851851463318,0.8454275727272034,0.1403176635503769,0.04264821484684944,-0.3759952783584595,-2.99709153175354,1.317535638809204,-0.05022645741701126,-0.4163174033164978,-0.08773534744977951,-0.28571727871894836,0.35312607884407043,-4.174862988293171e-05,-0.28650861978530884,0.13001714646816254,0.27702054381370544,0.7999999523162842,-0.7409393787384033,-2.304152250289917,-0.8575074672698975,2.211768627166748,3.8833515644073486,0.00039033452048897743,0.14026784896850586,-1.1342774629592896,-1.1640509366989136,-1.783973493729718e-05,-1.8054996728897095,10.54544734954834,-1.480513572692871,-1.2797107696533203,-58.56993103027344,21.591337203979492,22.27971076965332,-10.470417022705078,-17.203731536865234,9.771333694458008,-9.745499610900879
0.32,-0.06725050508975983,-0.09668944776058197,0.8423094153404236,0.13339295983314514,0.04786904156208038,-0.3262462913990021,-2.743134021759033,1.1116456985473633,-0.10749632865190506,-0.4348076581954956,-0.09633354842662811,-0.2645638883113861,0.3899610638618469,-2.589839459687937e-05,-0.28269872069358826,0.11857622861862183,0.2651168406009674,0.7999999523162842,-0.7709494233131409,-1.5808613300323486,-0.7849550247192383,2.044299602508545,3.5330517292022705,-1.4237120922189206e-06,0.5688666701316833,-1.1888827085494995,-1.4103143215179443,-1.5528741641901433e-05,-2.2173943519592285,6.9982404708862305,-1.804964303970337,1.252150535583496,-66.98885345458984,28.01993179321289,21.483205795288086,-7.103811740875244,-13.279214859008789,5.984628677368164,-8.376480102539062
0.33,-0.06771279126405716,-0.0984843447804451,0.8395978212356567,0.12147753685712814,0.04801805689930916,-0.28347817063331604,-2.4259815216064453,0.8291687369346619,-0.13288576900959015,-0.4461234211921692,-0.10383255779743195,-0.24558404088020325,0.4227023124694824,-1.599300048837904e-05,-0.2750362455844879,0.1080031618475914,0.25108712911605835,0.7999999523162842,-0.7998582124710083,-0.908549964427948,-0.6758170127868652,1.803985834121704,3.0912632942199707,0.00038415001472458243,0.8936079144477844,-1.0252201557159424,-1.4878166913986206,-6.939550075912848e-06,-2.169745683670044,4.955676555633545,-2.244886636734009,4.41480827331543,-73.20479583740234,34.04232406616211,19.678924560546875,-5.225045204162598,-10.587055206298828,3.704491376876831,-7.160167694091797
0.34,-0.06801341474056244,-0.10006936639547348,0.8370698094367981,0.11053973436355591,0.0457192100584507,-0.2633608281612396,-1.9755727052688599,0.5336897373199463,-0.13097292184829712,-0.4495011568069458,-0.10932008922100067,-0.23015032708644867,0.44938206672668457,-1.1354502021276858e-05,-0.26337212324142456,0.09940359741449356,0.229118213057518,0.7999999523162842,-0.7985153794288635,-0.10838598012924194,-0.4661862850189209,1.4412719011306763,2.4906136989593506,0.001549459993839264,1.070520281791687,-0.8211750388145447,-1.8986928462982178,-5.1206734497100115e-06,0.17769035696983337,3.1720995903015137,-2.919910430908203,8.120046615600586,-77.39227294921875,39.052032470703125,16.950416564941406,-3.587198257446289,-5.7343597412109375,2.733313798904419,-20.15999984741211
0.35000000000000003,-0.0681702122092247,-0.10145236551761627,0.83481764793396,0.09527761489152908,0.04158446937799454,-0.2254997044801712,-1.634247899055481,0.23135563731193542,-0.12923207879066467,-0.4451224207878113,-0.11138887703418732,-0.21704736351966858,0.4712543189525604,-1.1394538887543604e-05,-0.25370410084724426,0.09405133128166199,0.21302571892738342,0.7999999523162842,-0.7983892560005188,0.6314544081687927,-0.048057861626148224,1.2450259923934937,1.9897433519363403,0.002554580569267273,0.9103426337242126,-0.42182692885398865,-1.4370136260986328,-5.0817334340536036e-06,0.4227793216705322,2.365450382232666,-3.3721585273742676,10.882370948791504,-81.45669555664062,42.84377670288086,15.132688522338867,-2.5137722492218018,-7.746834754943848,2.9167325496673584,-16.25082015991211
0.36,-0.06815878301858902,-0.10264109075069427,0.8329106569290161,0.08100779354572296,0.03451947122812271,-0.18212734162807465,-1.328324556350708,-0.039171986281871796,-0.13262590765953064,-0.43282169103622437,-0.10975947231054306,-0.20537197589874268,0.4884312152862549,-1.5105996681086253e-05,-0.24518364667892456,0.09317933022975922,0.20065224170684814,0.7999999523162842,-0.7983734011650085,1.4351691007614136,0.19473621249198914,1.1439411640167236,1.5522624254226685,0.000731485546566546,0.8748378157615662,0.03787759691476822,-1.1484445333480835,-6.349167961161584e-06,0.2335527241230011,1.7586402893066406,-2.952855110168457,13.059714317321777,-84.99212646484375,45.127052307128906,12.501140594482422,-1.7325928211212158,-9.334779739379883,3.63639760017395,-10.9080810546875
0.37,-0.06796577572822571,-0.10362425446510315,0.8313497304916382,0.05627116188406944,0.004859481006860733,-0.1211869865655899,-0.2736181914806366,-0.4780880808830261,-0.1407785415649414,-0.4113588035106659,-0.10368949174880981,-0.1953790932893753,0.5000508427619934,-1.5205713680188637e-05,-0.23778986930847168,0.09684547781944275,0.1895131915807724,0.7999999523162842,-0.7896978259086609,2.8711533546447754,2.8158936500549316,0.1776992380619049,-0.19888409972190857,0.0036270327400416136,-0.499141126871109,0.4011293053627014,-0.49004480242729187,-1.2716756828012876e-05,4.287614345550537,0.4352407455444336,-2.7190215587615967,15.428882598876953,-87.12095642089844,46.10219192504883,9.663448333740234,-0.5413007736206055,-10.2272367477417,4.722440242767334,-7.872189998626709
0.38,-0.06751036643981934,-0.10422664135694504,0.8307417631149292,0.03250591829419136,-0.026493368670344353,-0.03374918922781944,-0.030155744403600693,-0.753136396408081,-0.12405532598495483,-0.37764766812324524,-0.08696971833705902,-0.19292199611663818,0.49923014640808105,-2.4251801733043976e-05,-0.23763491213321686,0.10636261105537415,0.1853797882795334,0.7999999523162842,-0.7647848129272461,3.5199642181396484,1.2355507612228394,0.34102776646614075,-0.227284774184227,0.00862377043813467,0.5572628378868103,1.1950699090957642,-0.7917085886001587,-1.4460041711572558e-05,3.03120756149292,0.2725181579589844,-0.6802105903625488,20.434829711914062,-84.80107879638672,46.2526969909668,8.029637336730957,0.5484614372253418,-17.347787857055664,6.430524826049805,0.940794825553894
0.39,-0.0668182522058487,-0.10467499494552612,0.8304461240768433,0.036305613815784454,-0.02150134928524494,-0.0019802998285740614,0.1524173617362976,-0.9188875555992126,-0.2307482808828354,-0.33765876293182373,-0.07163722068071365,-0.19377893209457397,0.496079683303833,-3.687000207719393e-05,-0.2312965840101242,0.12928996980190277,0.1743103414773941,0.800014317035675,-0.7317770719528198,4.0193681716918945,1.5907195806503296,-0.5508139729499817,-0.3888516426086426,0.0015281777596101165,0.7254579067230225,2.9429585933685303,-1.3232871294021606,-0.09922894090414047,3.832399606704712,1.5587100982666016,-3.2629904747009277,26.93270492553711,-83.89639282226562,44.72291946411133,2.461683750152588,-2.956784248352051,-12.855135917663574,8.077230453491211,-8.078563690185547
0.4,-0.06594022363424301,-0.10494261234998703,0.8301915526390076,0.04850992187857628,-0.01807943359017372,0.0019620375242084265,0.37382033467292786,-0.8409871459007263,-0.19472163915634155,-0.29092565178871155,-0.0528717115521431,-0.19938156008720398,0.4900475740432739,-3.979499888373539e-05,-0.22538158297538757,0.1599792093038559,0.1595992147922516,0.8000339269638062,-0.6850152611732483,4.869530200958252,1.829660415649414,-0.5417007207870483,-0.6992229223251343,0.014911593869328499,0.5405851006507874,3.039476156234741,-1.3347347974777222,-0.11376212537288666,4.616812705993652,0.001068115234375,-4.049433708190918,28.056055068969727,-85.58602142333984,42.83283996582031,-1.0917106866836548,0.8831348419189453,-11.749593734741211,10.273415565490723,-10.578429222106934
0.41000000000000003,-0.06496669352054596,-0.1050848662853241,0.8298579454421997,0.06222926452755928,-0.01335190050303936,-0.00868647638708353,0.6429516077041626,-0.7594988346099854,-0.10265956819057465,-0.23907704651355743,-0.03221554309129715,-0.20556971430778503,0.4813217222690582,-3.8179350667633116e-05,-0.22181950509548187,0.1908499300479889,0.14430241286754608,0.8000036478042603,-0.6295367479324341,5.303356647491455,2.1896774768829346,-0.6456100344657898,-1.092775583267212,0.004154220223426819,0.28143423795700073,3.0801045894622803,-1.67914617061615,-0.029988788068294525,6.4641032218933105,-1.5422859191894531,-5.7908525466918945,27.352508544921875,-82.08558654785156,38.63313293457031,-2.683018207550049,1.797642707824707,-12.505717277526855,9.591371536254883,0.8982772827148438
0.42,-0.06390918046236038,-0.10512027889490128,0.8294885754585266,0.0696265697479248,-0.016601040959358215,0.0010083618108183146,0.8185029029846191,-0.7059800624847412,-0.054826244711875916,-0.18090444803237915,-0.010710557922720909,-0.2103092223405838,0.4706171751022339,-4.153773988946341e-05,-0.22080302238464355,0.22532320022583008,0.13145065307617188,0.8000052571296692,-0.5713884830474854,5.925780296325684,2.105252981185913,-0.39164215326309204,-1.1612221002578735,0.0024370227474719286,0.03859352320432663,3.5538623332977295,-1.074252724647522,-0.04489868879318237,5.519208908081055,-2.4589672088623047,-4.155664920806885,26.083667755126953,-83.32512664794922,36.882362365722656,-2.7573060989379883,2.7532730102539062,-11.785372734069824,10.731322288513184,-10.790136337280273
0.43,-0.06274966895580292,-0.10505663603544235,0.8291003108024597,0.07668977975845337,-0.019965359941124916,0.00989198312163353,0.9998846054077148,-0.6870265603065491,0.012745093554258347,-0.11802767962217331,0.012225938960909843,-0.21358276903629303,0.45731833577156067,-4.361256287666038e-05,-0.2207047939300537,0.26454439759254456,0.1190369725227356,0.8000013828277588,-0.5098408460617065,6.3627119064331055,2.055337905883789,-0.13502231240272522,-1.3345692157745361,0.0003784489817917347,-0.023404918611049652,4.042281627655029,-1.0036472082138062,-0.013022985309362411,5.933581352233887,-3.1596240997314453,-3.7022433280944824,24.810237884521484,-81.69792938232422,34.926002502441406,-1.984745979309082,2.7404613494873047,-12.47882080078125,11.2253999710083,-16.26018524169922
0.44,-0.06148409843444824,-0.10491838306188583,0.8287262916564941,0.08663983643054962,-0.023364122956991196,0.007199302781373262,1.2670257091522217,-0.6961145401000977,0.1084975153207779,-0.051931023597717285,0.03522609919309616,-0.21413232386112213,0.4414971172809601,-4.206374433124438e-05,-0.2206251174211502,0.30814671516418457,0.10730890184640884,0.800001323223114,-0.4450204372406006,6.624029159545898,2.2654337882995605,0.06663516163825989,-1.707693338394165,0.007119922433048487,0.01941274106502533,4.438113689422607,-1.0292768478393555,-0.012666245922446251,7.640383243560791,-3.556781768798828,-3.4226231575012207,22.723007202148438,-78.61492156982422,32.86762619018555,-1.6374330520629883,2.452180862426758,-11.812074661254883,11.590766906738281,-8.212688446044922
0.45,-0.060100115835666656,-0.10473822802305222,0.8284620642662048,0.09685932099819183,-0.028696836903691292,0.013772904872894287,1.4684253931045532,-0.7093513011932373,0.16782301664352417,0.015690123662352562,0.05705277621746063,-0.21099816262722015,0.4242232143878937,-3.8802274502813816e-05,-0.22038361430168152,0.35466688871383667,0.09838657826185226,0.7999999523162842,-0.3857552707195282,6.742592811584473,2.408637285232544,0.3792658746242523,-1.9879010915756226,0.015583908185362816,0.13608384132385254,4.714509963989258,-1.1481692790985107,-1.7261612811125815e-05,5.922405242919922,-3.656351089477539,-3.8250904083251953,19.82428550720215,-74.14257049560547,30.40514373779297,-1.5178769826889038,2.2213134765625,-11.411104202270508,11.738884925842285,-6.906499862670898
0.46,-0.05858544260263443,-0.10453242808580399,0.8282814025878906,0.1039615347981453,-0.037230733782052994,0.045066118240356445,1.473718285560608,-0.6987249255180359,0.14938640594482422,0.08312392234802246,0.0777566209435463,-0.20433366298675537,0.4055645763874054,-4.2260977352270856e-05,-0.2192232310771942,0.4024299085140228,0.09090764820575714,0.7999999523162842,-0.3267289698123932,6.65449333190918,1.8737155199050903,0.9031291007995605,-1.86782705783844,0.0021487222984433174,0.10317018628120422,4.722898960113525,-0.36213409900665283,-1.6276804672088474e-05,6.7893171310424805,-3.659912109375,-0.957911491394043,15.397342681884766,-70.55143737792969,27.69793128967285,-1.4920803308486938,2.4452056884765625,-13.905101776123047,11.984480857849121,-13.954456329345703
0.47000000000000003,-0.05690521001815796,-0.10433096438646317,0.8283703327178955,0.11595093458890915,-0.04340405389666557,0.06896848231554031,1.527979850769043,-0.715640664100647,0.1368899792432785,0.14799562096595764,0.09546313434839249,-0.19345931708812714,0.38695818185806274,-4.1737650462891906e-05,-0.21666021645069122,0.44919124245643616,0.086988665163517,0.7999999523162842,-0.2783015966415405,6.337331295013428,1.6395745277404785,1.2577639818191528,-1.869585633277893,-8.130235073622316e-05,0.34588518738746643,4.5739216804504395,-0.32821130752563477,-1.7433852917747572e-05,7.1889448165893555,-3.7625999450683594,-0.9255547523498535,11.52354907989502,-65.42446899414062,24.30417823791504,-2.951453685760498,2.729135513305664,-15.031676292419434,12.149316787719727,-17.252893447875977
0.48,-0.05504127964377403,-0.10412804782390594,0.8286492824554443,0.13136303424835205,-0.04749014228582382,0.08600038290023804,1.6147866249084473,-0.7124685049057007,0.11976025998592377,0.2085694819688797,0.1115250289440155,-0.17989185452461243,0.3678959608078003,-4.077723860973492e-05,-0.21205857396125793,0.4934174418449402,0.08338531106710434,0.7999999523162842,-0.2347729206085205,5.864227771759033,1.4985113143920898,1.4604754447937012,-1.9344323873519897,-7.530511356890202e-05,0.5403828024864197,4.277827739715576,-0.3333251476287842,-1.735608748276718e-05,6.946572303771973,-3.8293724060058594,-1.1502704620361328,7.8458075523376465,-60.221160888671875,20.458316802978516,-5.0135498046875,3.1946563720703125,-15.539398193359375,12.367049217224121,-17.26495361328125
0.49,-0.052992258220911026,-0.10391015559434891,0.8290053606033325,0.15309558808803558,-0.04960744455456734,0.07754606008529663,1.8377262353897095,-0.6655348539352417,0.13357722759246826,0.263375848531723,0.1266736090183258,-0.1654496192932129,0.34767675399780273,-3.915443812729791e-05,-0.20556817948818207,0.5340621471405029,0.07858669012784958,0.7999999523162842,-0.19151049852371216,5.241335868835449,1.626163363456726,1.363353967666626,-2.1740987300872803,0.0007827720255590975,0.8022077679634094,3.9398598670959473,-0.8859685063362122,-1.723428795230575e-05,4.910789489746094,-3.7519702911376953,-2.6005516052246094,5.08983039855957,-54.3356819152832,16.127408981323242,-7.752350807189941,3.4281768798828125,-13.289121627807617,12.561829566955566,-10.189287185668945
0.5,-0.050821151584386826,-0.10371515154838562,0.8292321562767029,0.18105559051036835,-0.05692987143993378,0.06920237839221954,1.9821354150772095,-0.4084736406803131,-0.0965491235256195,0.3122502565383911,0.1250428855419159,-0.1524869203567505,0.32601237297058105,-0.0007721483707427979,-0.1934375911951065,0.570090115070343,0.07233742624521255,0.7999999523162842,-0.14260366559028625,4.695323467254639,-0.4497798979282379,1.208487629890442,-2.2796502113342285,-0.09228602796792984,1.1749699115753174,3.3684113025665283,-0.5397406816482544,-2.12210688914638e-05,5.453728199005127,-4.451498031616211,7.15238094329834,2.480621814727783,-48.7987060546875,11.845576286315918,-11.347505569458008,4.272634506225586,-14.969627380371094,12.764547348022461,-13.00461483001709
0.51,-0.04853151738643646,-0.10353651642799377,0.8293101191520691,0.21419739723205566,-0.05762671306729317,0.05569592863321304,2.093984603881836,-0.08960466086864471,-0.2168458253145218,0.3508438766002655,0.11898110806941986,-0.14261579513549805,0.3033185303211212,-0.0048698014579713345,-0.18381434679031372,0.6033308506011963,0.06782002747058868,0.7999999523162842,-0.09250009804964066,3.4553558826446533,-0.6068455576896667,0.856934666633606,-2.3307242393493652,-0.542479395866394,0.7923171520233154,3.1928493976593018,-0.44746384024620056,-2.2070064005674794e-05,5.4387288093566895,-4.1720781326293945,3.9784910678863525,1.4972805976867676,-44.01941680908203,8.09971809387207,-10.941640853881836,3.1034183502197266,-15.782474517822266,13.35409164428711,-14.97339916229248
0.52,-0.046065595000982285,-0.10337574779987335,0.8303702473640442,0.21512532234191895,-0.0283663310110569,0.2767210602760315,0.8969116806983948,0.19283980131149292,-0.3843255341053009,0.3752423822879791,0.11918476223945618,-0.12926079332828522,0.2855130136013031,-0.016785888001322746,-0.18025319278240204,0.6345012784004211,0.06733343750238419,0.800000011920929,-0.07670566439628601,1.9034136533737183,0.5407714247703552,1.963955283164978,-1.1363227367401123,-1.6589345932006836,0.4364926218986511,2.904688596725464,-0.4204629361629486,-2.777017652988434e-05,-2.111283302307129,-2.2103991508483887,-5.277701377868652,-6.167573928833008,-45.56319046020508,7.258217811584473,-8.730070114135742,2.0972652435302734,-17.146127700805664,13.750078201293945,19.89080810546875
0.53,-0.04342780262231827,-0.10316547751426697,0.8328217267990112,0.24188107252120972,-0.020342769101262093,0.27008169889450073,1.1468546390533447,0.6113079190254211,-0.2685526907444,0.3846053183078766,0.12620191276073456,-0.11306525766849518,0.2724049985408783,-0.03721977025270462,-0.17345598340034485,0.6616199016571045,0.049807023257017136,0.800000011920929,-0.07395890355110168,0.5465958118438721,0.9460776448249817,1.1091845035552979,-1.8428599834442139,-2.129329204559326,0.5362914204597473,2.5158145427703857,-2.1887688636779785,-2.604520705062896e-05,1.2994663715362549,-2.0817861557006836,-9.208548545837402,-6.6486334800720215,-39.42317199707031,5.011192798614502,-9.965075492858887,2.366954803466797,-3.86676025390625,13.464076042175293,3.502657413482666
0.54,-0.040801189839839935,-0.10278082638978958,0.8345027565956116,0.2689822018146515,-0.02093542367219925,0.19110003113746643,1.6426475048065186,0.9577901363372803,-0.06562137603759766,0.38260287046432495,0.13480301201343536,-0.10813266038894653,0.25030508637428284,-0.06042975187301636,-0.170564666390419,0.6861317157745361,0.030085274949669838,0.800000011920929,-0.06806669384241104,-0.5325977206230164,0.7544262409210205,0.11525721102952957,-2.3304216861724854,-2.4085752964019775,0.20556312799453735,2.3600449562072754,-1.9304909706115723,-2.6749105018097907e-05,2.0062832832336426,-1.6373991966247559,-9.200897216796875,-4.041530132293701,-33.817726135253906,3.301464080810547,-6.667143821716309,1.7621288299560547,-1.0108184814453125,13.187108039855957,8.889176368713379
0.55,-0.03816995397210121,-0.10236212611198425,0.8363788723945618,0.2752115726470947,-0.005608895793557167,0.24260088801383972,1.4219391345977783,1.2242909669876099,-0.07680865377187729,0.37169721722602844,0.13811416923999786,-0.10523217171430588,0.23180615901947021,-0.0887216255068779,-0.17174026370048523,0.7085527181625366,0.015389625914394855,0.800000011920929,-0.06126644089818001,-1.3094890117645264,0.5054721236228943,0.1076446995139122,-2.0622692108154297,-2.8746933937072754,-0.2110511213541031,2.058809518814087,-1.5610570907592773,-2.5153709430014715e-05,0.6880948543548584,-0.8901386260986328,-6.487042427062988,-6.705078601837158,-33.77770233154297,2.9617137908935547,-1.291401743888855,1.9271907806396484,0.8793039321899414,12.506241798400879,3.662452220916748
0.56,-0.03549822419881821,-0.10182727873325348,0.838126003742218,0.28066039085388184,0.006370882503688335,0.25100019574165344,1.4207593202590942,1.3484506607055664,-0.025675754994153976,0.35297271609306335,0.14122545719146729,-0.10598442703485489,0.21107499301433563,-0.11892996728420258,-0.1753513067960739,0.7283782958984375,0.002453140215948224,0.800000011920929,-0.056499022990465164,-2.110569953918457,0.28516554832458496,-0.06513124704360962,-1.9970189332962036,-3.1119301319122314,-0.4126836955547333,1.8573302030563354,-1.3184306621551514,-2.420309101580642e-05,0.7292807698249817,-0.6374921798706055,-5.213140964508057,-8.047112464904785,-31.676067352294922,2.0022268295288086,4.030864238739014,1.7251739501953125,3.2503511905670166,11.51041316986084,5.400799751281738
0.5700000000000001,-0.032794512808322906,-0.10119494795799255,0.8398828506469727,0.27740365266799927,0.017927207052707672,0.24918869137763977,1.4810680150985718,1.3278322219848633,0.012890780344605446,0.3265935182571411,0.14297185838222504,-0.10832909494638443,0.1902301013469696,-0.15057845413684845,-0.1843881756067276,0.7460204362869263,-4.1320968193758745e-06,0.7999999523162842,-0.05650788173079491,-2.8707175254821777,0.11721239238977432,-0.2180342972278595,-2.0463521480560303,-3.167167901992798,-0.9942864179611206,1.6525651216506958,0.0017368793487548828,-1.6687721654307097e-05,-0.23197348415851593,-0.36528682708740234,-4.40184211730957,-9.335029602050781,-28.467735290527344,0.3602914810180664,11.298440933227539,1.566162109375,1.3609015941619873,10.394048690795898,3.688894510269165
0.58,-0.029991891235113144,-0.10046650469303131,0.8416469097137451,0.2749481499195099,0.03279025852680206,0.251935750246048,1.5046734809875488,1.1768004894256592,0.0950896367430687,0.2921719253063202,0.1430814266204834,-0.11120465397834778,0.16938070952892303,-0.18202199041843414,-0.1930714249610901,0.7615248560905457,-6.21178742221673e-06,0.7999999523162842,-0.05761709064245224,-3.6684064865112305,-0.03542489930987358,-0.25912100076675415,-2.063974142074585,-3.1241202354431152,-0.797659158706665,1.4603238105773926,0.0242941752076149,-1.5978086594259366e-05,-0.1623675376176834,0.06454086303710938,-3.1104376316070557,-11.141959190368652,-24.595848083496094,-2.0706090927124023,14.83044719696045,0.9255490303039551,5.054525852203369,9.179569244384766,-2.18874454498291
0.59,-0.027063407003879547,-0.09963899105787277,0.843416154384613,0.2708755433559418,0.04946195334196091,0.25517576932907104,1.5033196210861206,0.972210168838501,0.16559258103370667,0.2501910328865051,0.1419508308172226,-0.11407506465911865,0.14863474667072296,-0.2128552943468094,-0.20170041918754578,0.7747670412063599,0.004534914158284664,0.7999999523162842,-0.06173063442111015,-4.404759883880615,-0.15283998847007751,-0.24760183691978455,-2.0500614643096924,-3.0292952060699463,-0.8329952359199524,1.222257375717163,0.6174090504646301,-1.449041155865416e-05,-0.414553165435791,0.3269615173339844,-1.989879846572876,-13.2036714553833,-20.019710540771484,-3.880847930908203,18.432783126831055,0.29128360748291016,6.054548263549805,8.227701187133789,-7.950798988342285
0.6,-0.02397637814283371,-0.09866932779550552,0.8452343940734863,0.2652524411678314,0.07221557945013046,0.2586037218570709,1.510472059249878,0.678082287311554,0.2608352303504944,0.20357990264892578,0.1396217942237854,-0.1188724935054779,0.1283576637506485,-0.24233396351337433,-0.21174439787864685,0.7890905141830444,0.018239902332425117,0.7999897599220276,-0.07275121659040451,-4.841213703155518,-0.3083565831184387,-0.6029115319252014,-2.0360267162323,-2.7857673168182373,-0.9463446736335754,1.3357799053192139,1.5942864418029785,-0.052961885929107666,-0.881442666053772,-1.2438602447509766,-0.5701987743377686,-13.620245933532715,-14.357439041137695,-5.1555023193359375,21.153934478759766,-2.821066379547119,5.27441930770874,7.882633209228516,-13.40259838104248
0.61,-0.02068343013525009,-0.09757460653781891,0.8471436500549316,0.25759443640708923,0.09866724908351898,0.27959778904914856,1.3674126863479614,0.32579463720321655,0.29391059279441833,0.1494002789258957,0.1365029215812683,-0.12520307302474976,0.10926104336977005,-0.2688855230808258,-0.22412899136543274,0.8008524179458618,0.04513338953256607,0.7999919652938843,-0.09618380665779114,-5.688065052032471,-0.338200181722641,-0.6630799770355225,-1.8427925109863281,-2.4832205772399902,-1.1811803579330444,1.0330966711044312,2.985870599746704,-0.0322546511888504,-2.484387159347534,-1.7872638702392578,1.0167202949523926,-16.845102310180664,-7.712352752685547,-3.371129035949707,20.21162986755371,-1.8218929767608643,1.8095664978027344,5.9854888916015625,-15.526859283447266
0.62,-0.017142940312623978,-0.09636237472295761,0.8492249846458435,0.25103163719177246,0.12921558320522308,0.29948920011520386,1.1748783588409424,-0.09230851382017136,0.29852429032325745,0.08802177011966705,0.13352710008621216,-0.13279539346694946,0.09241532534360886,-0.29086747765541077,-0.23847153782844543,0.8083724975585938,0.08630895614624023,0.799993097782135,-0.13945193588733673,-6.383426189422607,-0.2989952266216278,-0.8325157165527344,-1.5893858671188354,-1.9346320629119873,-1.3139418363571167,0.5475414991378784,4.373175621032715,-0.026222258806228638,-4.692659854888916,-2.937793731689453,1.9626909494400024,-17.746788024902344,0.4553489685058594,-1.431997299194336,17.12100601196289,-2.973008394241333,-1.1748790740966797,5.937453746795654,-13.801071166992188
0.63,-0.013324059545993805,-0.09504140168428421,0.8513780832290649,0.2522087097167969,0.1601942479610443,0.2986048460006714,0.9539929032325745,-0.5341769456863403,0.30612713098526,0.021533196792006493,0.13123641908168793,-0.14296962320804596,0.07836107909679413,-0.3053944408893585,-0.25356876850128174,0.8094794154167175,0.14088355004787445,0.8000051975250244,-0.20672163367271423,-6.867305278778076,-0.2394362986087799,-1.1476362943649292,-1.2930184602737427,-1.0835624933242798,-1.2887734174728394,-0.14823883771896362,5.613058090209961,-0.22516725957393646,-6.647129058837891,-3.7681846618652344,1.4093704223632812,-15.161992073059082,9.699987411499023,0.10574674606323242,10.921133995056152,-5.983688831329346,-3.4339046478271484,9.41105842590332,-8.684852600097656
0.64,-0.009230786003172398,-0.09367497265338898,0.8532160520553589,0.2706581950187683,0.18205514550209045,0.24908791482448578,0.7633720636367798,-0.9033794403076172,0.2981179654598236,-0.04741712659597397,0.12809227406978607,-0.15667299926280975,0.06750351190567017,-0.30933499336242676,-0.2659047842025757,0.8022825121879578,0.2016150802373886,0.8017812967300415,-0.29185768961906433,-6.898672103881836,-0.4773940443992615,-1.5802555084228516,-0.926374614238739,0.13718928396701813,-0.9278526306152344,-1.0947456359863281,5.830948829650879,0.3097381591796875,-8.536236763000488,-2.9644508361816406,0.9254916906356812,-9.581867218017578,18.15082550048828,0.9991267323493958,1.2076544761657715,-14.173050880432129,-2.555910110473633,20.15999984741211,-3.026325225830078
0.65,-0.004948203451931477,-0.092429518699646,0.8543125987052917,0.3024444282054901,0.1900111436843872,0.17639091610908508,0.4556635618209839,-1.0355615615844727,0.17398160696029663,-0.11694172769784927,0.11682776361703873,-0.17121350765228271,0.06323587894439697,-0.3015495836734772,-0.27549612522125244,0.787582278251648,0.2639711797237396,0.7999999523162842,-0.37620076537132263,-6.8628435134887695,-1.3298630714416504,-1.4656869173049927,-0.1467616856098175,1.2754642963409424,-0.8649988174438477,-1.9360017776489258,5.945736408233643,-6.322401168290526e-05,1.4919744729995728,-2.1395034790039062,1.4591526985168457,-2.240802764892578,23.85097885131836,0.9688405990600586,-5.789850234985352,-18.0357723236084,-7.804668426513672,18.232742309570312,20.15999984741211
0.66,-0.0004858309403061867,-0.0913751870393753,0.8548270463943481,0.3390081822872162,0.1882617473602295,0.1367512196302414,0.2135888636112213,-0.985113799571991,0.05072440579533577,-0.18237712979316711,0.09681439399719238,-0.184474915266037,0.06745512038469315,-0.2868811786174774,-0.2817402482032776,0.7689489722251892,0.3166455030441284,0.7994437217712402,-0.4316438138484955,-6.284048557281494,-2.1665539741516113,-1.2096384763717651,0.7894286513328552,1.5570589303970337,-0.5469232201576233,-1.9941368103027344,4.430354118347168,2.7302393913269043,4.414952754974365,-2.305757522583008,3.7807226181030273,3.403602123260498,27.256650924682617,3.3002729415893555,-12.16762638092041,-24.541053771972656,-6.6836090087890625,8.311031341552734,20.15999984741211
0.67,0.004200897179543972,-0.09051384776830673,0.8551205396652222,0.3749418556690216,0.18528135120868683,0.132072314620018,0.08714492619037628,-0.9170547723770142,-0.0812142938375473,-0.2393507957458496,0.06988658756017685,-0.1961619257926941,0.07965144515037537,-0.27010849118232727,-0.2858736515045166,0.7496147751808167,0.3565172851085663,0.7978630661964417,-0.4782796800136566,-5.279487609863281,-2.806954860687256,-1.1142560243606567,1.5134837627410889,1.7005908489227295,-0.38245144486427307,-1.815646767616272,3.274393320083618,2.0375704765319824,4.607901573181152,-4.241542816162109,2.8507843017578125,8.909622192382812,27.0142822265625,8.397644996643066,-16.934207916259766,-27.453615188598633,-7.715333938598633,11.777795791625977,20.15999984741211
0.68,0.00919426791369915,-0.08980211615562439,0.8554933667182922,0.4118538498878479,0.182662233710289,0.14753249287605286,0.005245275795459747,-0.8470681309700012,-0.1842871904373169,-0.2877022922039032,0.0381198488175869,-0.20770107209682465,0.09784063696861267,-0.2533665895462036,-0.28806108236312866,0.7294910550117493,0.3838743269443512,0.793576180934906,-0.5225334167480469,-4.630086421966553,-3.2464582920074463,-1.0215163230895996,2.106684684753418,1.7159241437911987,-0.18672500550746918,-2.0074939727783203,2.059736728668213,-0.9770507216453552,4.4752020835876465,-6.088113784790039,1.9845409393310547,14.108875274658203,25.511953353881836,12.935678482055664,-19.65001106262207,-20.969829559326172,-8.107479095458984,-20.15999984741211,20.15999984741211
0.6900000000000001,0.014527139253914356,-0.08924823254346848,0.8559777140617371,0.44866761565208435,0.1820887178182602,0.1769922375679016,0.0020919835660606623,-0.7801842093467712,-0.2677450478076935,-0.32940998673439026,0.003517386969178915,-0.2181132733821869,0.12160036712884903,-0.23497232794761658,-0.28804293274879456,0.7069124579429626,0.3986784517765045,0.7969775199890137,-0.5615609884262085,-3.7891101837158203,-3.424806594848633,-1.0629286766052246,2.5004076957702637,1.5349990129470825,0.023824593052268028,-1.7637064456939697,0.8335980176925659,0.4076380729675293,5.326578140258789,-8.347587585449219,1.0724983215332031,17.463455200195312,22.688940048217773,19.184368133544922,-20.711009979248047,-29.310922622680664,-8.05931282043457,11.608959197998047,20.15999984741211
0.7000000000000001,0.020234020426869392,-0.08881039917469025,0.8566542863845825,0.48944008350372314,0.18597453832626343,0.18383651971817017,-0.11579987406730652,-0.7255502343177795,-0.3424297869205475,-0.36412182450294495,-0.03149506077170372,-0.22827337682247162,0.1492990404367447,-0.2158821076154709,-0.2854159474372864,0.6827049851417542,0.40059468150138855,0.797046422958374,-0.5928923487663269,-3.1970553398132324,-3.4097609519958496,-0.9717502593994141,2.9619388580322266,1.9843173027038574,0.27572867274284363,-2.4405364990234375,-0.38933876156806946,-0.0084761381149292,5.276683330535889,-9.589151382446289,0.3923454284667969,19.955514907836914,18.68233299255371,19.896976470947266,-20.92676544189453,-23.238094329833984,-7.902862548828125,20.15999984741211,19.0789794921875
0.71,0.026292994618415833,-0.08848418295383453,0.8573745489120483,0.5290877819061279,0.19112887978553772,0.18857312202453613,-0.19855040311813354,-0.6662049889564514,-0.3828973174095154,-0.393084317445755,-0.06535866856575012,-0.23751957714557648,0.1806458830833435,-0.19466310739517212,-0.28047454357147217,0.6559808850288391,0.39050525426864624,0.7977300882339478,-0.6182858347892761,-2.6389355659484863,-3.2598116397857666,-0.8811880946159363,3.2915585041046143,2.2322280406951904,0.5196396112442017,-2.756417751312256,-1.5631451606750488,0.16518402099609375,6.257787227630615,-9.970967292785645,-0.47768402099609375,21.527851104736328,15.05833625793457,21.28406524658203,-20.048189163208008,-19.093549728393555,-7.393507957458496,20.15999984741211,20.15999984741211
0.72,0.032691504806280136,-0.08824767172336578,0.858043909072876,0.5678078532218933,0.19810117781162262,0.18455485999584198,-0.25742754340171814,-0.6121757626533508,-0.4032667577266693,-0.41625523567199707,-0.0967293456196785,-0.2458816021680832,0.2147073596715927,-0.17081110179424286,-0.27330338954925537,0.6268305778503418,0.3692683279514313,0.7976294755935669,-0.6363558769226074,-2.0487494468688965,-2.973010540008545,-0.805973470211029,3.5013351440429688,2.4468626976013184,0.7407219409942627,-2.988358974456787,-2.6431660652160645,0.34369319677352905,6.7356672286987305,-9.762154579162598,-1.3237543106079102,22.38939666748047,11.391149520874023,21.67401123046875,-18.63714599609375,-14.863768577575684,-6.838352203369141,20.15999984741211,20.15999984741211
0.73,0.03941015154123306,-0.08806946873664856,0.8585615754127502,0.6052941083908081,0.20719972252845764,0.16565023362636566,-0.3118061423301697,-0.5621731281280518,-0.4032389223575592,-0.4329908490180969,-0.12437541782855988,-0.25343194603919983,0.25031304359436035,-0.1443743109703064,-0.26428547501564026,0.5956509709358215,0.33775222301483154,0.7975141406059265,-0.6434767246246338,-1.4185912609100342,-2.576692581176758,-0.7193033695220947,3.6156082153320312,2.714317560195923,0.908983588218689,-3.177013635635376,-3.6139519214630127,0.20644855499267578,7.389649868011475,-9.213869094848633,-2.115220069885254,22.50397300720215,7.300573348999023,20.73762321472168,-16.86589813232422,-10.46103286743164,-6.203265190124512,20.15999984741211,18.73271942138672
0.74,0.04642225801944733,-0.0879136174917221,0.8588022589683533,0.6405268907546997,0.21822631359100342,0.1337617188692093,-0.34039542078971863,-0.5200555324554443,-0.3785180151462555,-0.44279441237449646,-0.14699694514274597,-0.2602809965610504,0.2861299514770508,-0.11563294380903244,-0.25425592064857483,0.5631322264671326,0.29735350608825684,0.7978739142417908,-0.644540011882782,-0.7330033779144287,-2.0590837001800537,-0.6401603817939758,3.5979361534118652,2.957359790802002,1.007138967514038,-3.2901923656463623,-4.509991645812988,0.09580004215240479,8.419598579406738,-8.43720817565918,-2.8020877838134766,22.248769760131836,2.968271255493164,19.032962799072266,-14.718671798706055,-6.415349960327148,-5.766229629516602,20.15999984741211,20.15999984741211
0.75,0.05369652435183525,-0.08774298429489136,0.8586258888244629,0.672290027141571,0.2309381514787674,0.08841028809547424,-0.3281382918357849,-0.5008592009544373,-0.3298860490322113,-0.44516193866729736,-0.1630098670721054,-0.26653730869293213,0.3206830322742462,-0.0846085473895073,-0.24428510665893555,0.52997225522995,0.24935132265090942,0.7981576323509216,-0.6371977925300598,-0.010541927069425583,-1.3769292831420898,-0.589087963104248,3.4067118167877197,3.157979965209961,0.9919081926345825,-3.293043851852417,-5.258691787719727,-0.023612231016159058,9.033782958984375,-7.344178199768066,-3.3699121475219727,21.61531639099121,-1.9365482330322266,16.73735809326172,-12.01223373413086,-2.9654903411865234,-5.177656173706055,20.15999984741211,20.15999984741211
0.76,0.061196744441986084,-0.08751179277896881,0.8578816056251526,0.6986809968948364,0.24570788443088531,0.025805383920669556,-0.27445095777511597,-0.5182042121887207,-0.24513491988182068,-0.4385821223258972,-0.17075811326503754,-0.27227073907852173,0.35206761956214905,-0.05102745443582535,-0.23545518517494202,0.49699562788009644,0.19487246870994568,0.7983614206314087,-0.6215001940727234,0.9171956777572632,-0.5353770852088928,-0.54076087474823,3.010462522506714,3.4114530086517334,0.8690363168716431,-3.2298779487609863,-5.912601470947266,-0.07827521860599518,10.22688102722168,-6.610511302947998,-3.827874183654785,20.143749237060547,-8.091869354248047,13.606266021728516,-8.718674659729004,0.47077465057373047,-4.270772933959961,20.15999984741211,19.363937377929688
0.77,0.06887435168027878,-0.08716652542352676,0.8564012050628662,0.7161165475845337,0.2615438401699066,-0.05717375874519348,-0.16837945580482483,-0.611894965171814,-0.12470662593841553,-0.4224085807800293,-0.16847378015518188,-0.2778688073158264,0.377746045589447,-0.014730216935276985,-0.22889511287212372,0.4651235342025757,0.13535307347774506,0.7986563444137573,-0.5978997349739075,1.8354506492614746,0.47906559705734253,-0.5433802008628845,2.3400347232818604,3.692976713180542,0.658477783203125,-3.061856508255005,-6.430579662322998,-0.163313090801239,10.79704761505127,-4.867170810699463,-4.359199047088623,17.862646102905273,-16.076759338378906,10.491662979125977,-4.988304138183594,3.8753175735473633,-3.462160110473633,20.15999984741211,19.367393493652344
0.78,0.07646000385284424,-0.08658671379089355,0.8539596199989319,0.765749990940094,0.2621098458766937,-0.16376957297325134,0.2976771891117096,0.5103586912155151,0.14542452991008759,-0.4110863208770752,-0.15700626373291016,-0.28252413868904114,0.3953796327114105,-6.836100510554388e-05,-0.23403501510620117,0.4589335322380066,0.07454507797956467,0.7999999523162842,-0.5740113258361816,0.8124311566352844,1.2132728099822998,-0.30178016424179077,1.4304994344711304,4.858612555835862e-06,-1.0443588495254517,0.46617621183395386,-6.727056980133057,-3.7209116271696985e-05,10.61535358428955,8.113701820373535,-3.428283452987671,14.244189262390137,-25.480358123779297,29.19095802307129,6.0001654624938965,-10.493468284606934,-2.1935901641845703,20.151145935058594,20.15999984741211
0.79,0.08397042751312256,-0.08567851036787033,0.8505761623382568,0.7798923254013062,0.26562464237213135,-0.24546045064926147,0.800597071647644,0.5511125922203064,0.21946942806243896,-0.3883555233478546,-0.13660889863967896,-0.28549063205718994,0.4000694155693054,-5.015606075176038e-05,-0.2503795623779297,0.4654780328273773,0.01435600034892559,0.800000011920929,-0.5554311275482178,2.9214670658111572,2.182579755783081,-0.28972887992858887,-0.13160711526870728,0.00034299123217351735,-1.562898874282837,0.6489936113357544,-6.478294372558594,-2.826820855261758e-05,10.701855659484863,4.116877555847168,-3.760411262512207,13.917482376098633,-34.524925231933594,34.75679397583008,12.717893600463867,-4.395319938659668,1.721059799194336,15.160970687866211,20.15999984741211
0.8,0.09145233780145645,-0.08446326851844788,0.8466311097145081,0.7706128358840942,0.2704516351222992,-0.3118059039115906,1.1980823278427124,0.2723630964756012,0.37705162167549133,-0.3475165069103241,-0.10818298906087875,-0.287341445684433,0.38599053025245667,-1.836441151681356e-05,-0.2801460325717926,0.47868525981903076,0.00022587025887332857,0.800000011920929,-0.4348258078098297,4.455682754516602,2.557598114013672,-0.36349090933799744,-2.146941661834717,0.06739044189453125,-2.570341110229492,1.630537748336792,-0.5233471393585205,-2.3670418158872053e-05,-14.636688232421875,2.8014888763427734,-2.648660659790039,15.256905555725098,-37.97709655761719,41.8729133605957,20.537357330322266,-2.533843517303467,-13.589824676513672,10.822063446044922,-20.15999984741211
0.81,0.09887941181659698,-0.08329830318689346,0.8426101803779602,0.7427317500114441,0.25680238008499146,-0.25332993268966675,0.8029472231864929,0.1666029840707779,0.2116232067346573,-0.2978900969028473,-0.08903982490301132,-0.28530561923980713,0.3678898811340332,-1.8960927263833582e-05,-0.2956697940826416,0.5030154585838318,-1.4718735656060744e-05,0.7999999523162842,-0.2883984446525574,5.2948455810546875,1.6847056150436401,0.5450449585914612,-1.6174821853637695,0.004982776008546352,-1.1088536977767944,2.700113534927368,-0.00563087360933423,-1.2302998584345914e-05,12.51900577545166,2.750246047973633,3.259674072265625,10.51109504699707,-46.36616134643555,44.761993408203125,19.171222686767578,-1.8960847854614258,-16.234172821044922,6.781977653503418,-20.15999984741211
0.8200000000000001,0.10611464828252792,-0.08234675228595734,0.839078426361084,0.7139731645584106,0.23878802359104156,-0.21389493346214294,0.6462870240211487,0.01177793275564909,0.10271977633237839,-0.23874373733997345,-0.07683596014976501,-0.27601853013038635,0.3540400564670563,-1.1314071343804244e-05,-0.30219635367393494,0.5347182154655457,-2.066436172754038e-05,0.7999999523162842,-0.18009060621261597,6.157407760620117,1.0214556455612183,1.172315239906311,-1.269315481185913,6.534019485116005e-05,-0.39586567878723145,3.2970821857452393,0.05075440928339958,-7.3078135756077245e-06,9.836057662963867,1.598123550415039,0.8906049728393555,10.94311809539795,-54.27857971191406,44.11914825439453,18.494640350341797,-1.7801055908203125,-15.341361045837402,3.9786229133605957,-20.15999984741211
0.8300000000000001,0.11317947506904602,-0.08157273381948471,0.8359507322311401,0.6841180324554443,0.21923010051250458,-0.18030856549739838,0.5883234739303589,-0.19998130202293396,0.06101083755493164,-0.1730116754770279,-0.06932514905929565,-0.26138603687286377,0.3422464430332184,-8.366813744942192e-06,-0.3025645613670349,0.5703780055046082,-2.2244343199417926e-05,0.7999999523162842,-0.08907940238714218,6.714380741119385,0.6455073952674866,1.6577399969100952,-1.1251935958862305,9.748619049787521e-06,0.14201338589191437,3.6056137084960938,0.05366712063550949,-4.675902346207295e-06,8.666141510009766,0.4976310729980469,-1.286314606666565,10.971335411071777,-58.64866638183594,42.48257064819336,17.232219696044922,-1.3530616760253906,-14.787161827087402,3.0339627265930176,-20.15999984741211
0.84,0.12009640783071518,-0.08096271008253098,0.8331848382949829,0.6550763249397278,0.19840656220912933,-0.15295498073101044,0.596104621887207,-0.4456132650375366,0.057628996670246124,-0.10332436114549637,-0.0642675831913948,-0.24254094064235687,0.3311426639556885,-9.78640491666738e-06,-0.2980680763721466,0.6077024936676025,-2.0867082639597356e-05,0.7999999523162842,-0.009062203578650951,7.030947208404541,0.4312717616558075,2.031496286392212,-1.1073298454284668,-3.2261013984680176e-06,0.6145410537719727,3.7117905616760254,0.059572964906692505,-6.2386579884332605e-06,7.610747814178467,-0.33051300048828125,-2.529102325439453,9.99850082397461,-60.240074157714844,39.6541633605957,14.952744483947754,-0.8339996337890625,-14.678427696228027,3.5525007247924805,-20.15999984741211
0.85,0.12683922052383423,-0.08057402819395065,0.8308318853378296,0.6250182390213013,0.16939418017864227,-0.10439462214708328,0.48316866159439087,-0.5566942095756531,-0.2142411321401596,-0.030887525528669357,-0.07432788610458374,-0.21953262388706207,0.3234553933143616,-1.4104271031101234e-05,-0.2846962809562683,0.6440913081169128,-2.936600321845617e-05,0.7999999523162842,0.05849580839276314,7.39937686920166,-2.375977039337158,2.5393378734588623,-0.4027075171470642,-6.688535358989611e-05,1.8811851739883423,3.4226975440979004,0.038454703986644745,-1.2929011063533835e-05,6.433635234832764,-2.0546836853027344,11.367220878601074,6.614182472229004,-63.84868240356445,35.594696044921875,7.254727363586426,0.8226051330566406,-15.08875560760498,5.132504940032959,-20.15999984741211
0.86,0.13342028856277466,-0.08042444288730621,0.8290079832077026,0.5921790599822998,0.15454304218292236,-0.03181089460849762,0.3138562738895416,-0.7379064559936523,-0.5164527893066406,0.041064366698265076,-0.0929715633392334,-0.19365891814231873,0.3177216947078705,-2.0126784875174053e-05,-0.2659885585308075,0.676407516002655,4.3603076846920885e-06,0.7999999523162842,0.11284845322370529,7.077427864074707,-1.4922593832015991,2.9124836921691895,-0.4147888720035553,-0.000494438165333122,1.8294970989227295,2.9963760375976562,0.1332768052816391,-1.2829472325392999e-05,4.451595783233643,-3.6498565673828125,3.949779987335205,4.646945953369141,-61.382057189941406,29.850910186767578,4.086814880371094,2.3095903396606445,-17.486120223999023,7.561304569244385,-20.15999984741211
0.87,0.13967914879322052,-0.0807165652513504,0.8293129801750183,0.5146547555923462,0.16296570003032684,0.21403947472572327,-0.69940584897995,-1.0248098373413086,-0.85258948802948,0.1064060851931572,-0.09138195216655731,-0.15644222497940063,0.317927747964859,-2.534485793148633e-05,-0.24705268442630768,0.7018404603004456,5.5679301169675455e-08,0.7999999523162842,0.1119612380862236,6.139655113220215,0.9066439867019653,4.157454967498779,0.3055732846260071,-0.00019444606732577085,1.9761099815368652,2.26739501953125,0.027225691825151443,-1.5411642380058765e-05,-2.2844531536102295,-3.8017120361328125,-13.602184295654297,-5.569058418273926,-64.02371978759766,22.987476348876953,-0.5313072204589844,5.406152725219727,-18.36078643798828,9.990368843078613,-3.4798946380615234
0.88,0.14567357301712036,-0.08122396469116211,0.8309285044670105,0.4844571053981781,0.1414313018321991,0.22887426614761353,-0.33056408166885376,-1.283747911453247,-0.6587331295013428,0.15895569324493408,-0.08132117241621017,-0.11796852946281433,0.3189491033554077,-2.5446903237025253e-05,-0.22590017318725586,0.7222300171852112,-3.89403709277758e-07,0.7999999523162842,0.08784769475460052,4.722246170043945,0.80780029296875,3.4113361835479736,-0.27649518847465515,0.00488702766597271,2.167201280593872,2.0045888423919678,0.0036385664716362953,-1.9387622160138562e-05,1.024651288986206,-2.754983901977539,-15.671600341796875,-7.424674987792969,-59.37192916870117,15.575102806091309,-7.306200981140137,5.60733699798584,-18.231138229370117,11.612208366394043,3.9578256607055664
0.89,0.15161900222301483,-0.08161599189043045,0.8321102857589722,0.4883888363838196,0.11157947778701782,0.1720004826784134,0.3191116452217102,-1.2048887014389038,-0.489872008562088,0.20084811747074127,-0.07740917801856995,-0.09073276072740555,0.3120729923248291,-0.0002729821135289967,-0.20441345870494843,0.740999162197113,-8.982877261587419e-06,0.800000011920929,0.08395884186029434,3.9239401817321777,-0.3795880377292633,2.3603689670562744,-0.6935438513755798,-0.09579847753047943,2.213907480239868,1.8083688020706177,0.04113663360476494,-2.821008092723787e-05,0.44933241605758667,-1.6927452087402344,-8.895402908325195,-5.942645072937012,-52.22615051269531,9.977567672729492,-15.143117904663086,4.547696113586426,-19.370887756347656,14.014533996582031,-8.741134643554688
0.9,0.15734025835990906,-0.08205252885818481,0.8336465954780579,0.4867335557937622,0.09963227808475494,0.21344594657421112,0.385312557220459,-0.7423845529556274,-0.4534052908420563,0.23249928653240204,-0.07393942028284073,-0.06939277052879333,0.30496206879615784,-0.007543562445789576,-0.18689894676208496,0.76088547706604,3.2271822419716045e-05,0.800000011920929,0.07567909359931946,2.7997193336486816,0.01571284979581833,1.7440284490585327,-0.7596505880355835,-1.0117744207382202,1.5942364931106567,1.989435076713562,0.011414512991905212,-3.108233795501292e-05,-0.3498784303665161,-0.7020578384399414,-11.556026458740234,-9.583961486816406,-48.918949127197266,5.232036113739014,-15.687511444091797,2.814394950866699,-19.796852111816406,15.668304443359375,4.92509126663208
0.91,0.16283084452152252,-0.08245619386434555,0.8352876305580139,0.49365875124931335,0.08777732402086258,0.22798305749893188,0.5774160027503967,-0.19806987047195435,-0.38341453671455383,0.25378262996673584,-0.07129115611314774,-0.05722351744771004,0.29605281352996826,-0.023273581638932228,-0.17550595104694366,0.7819324135780334,9.433743980480358e-05,0.800000011920929,0.0683935135602951,1.817514181137085,0.31933706998825073,0.881895124912262,-0.953768253326416,-1.8959943056106567,0.8506668210029602,2.0548338890075684,0.0057698944583535194,-2.797108027152717e-05,-0.730728805065155,-0.03565788269042969,-11.84571361541748,-11.198638916015625,-43.58309555053711,2.583202362060547,-14.135143280029297,1.5594491958618164,-18.998300552368164,16.62238311767578,5.164220809936523
0.92,0.16809560358524323,-0.08281894028186798,0.8370502591133118,0.49968960881233215,0.07790146768093109,0.23651587963104248,0.7555122375488281,0.31281912326812744,-0.30883491039276123,0.26620522141456604,-0.06768433749675751,-0.05372726172208786,0.28533533215522766,-0.04688727483153343,-0.17091305553913116,0.8026038408279419,0.00010755841503851116,0.800000011920929,0.0621633343398571,0.9800859093666077,0.4258471727371216,0.04836983233690262,-1.1144431829452515,-2.6433770656585693,0.19039206206798553,1.9728435277938843,0.0009846086613833904,-3.0295333999674767e-05,-0.692719578742981,0.4218311309814453,-11.62588119506836,-12.177483558654785,-38.272705078125,1.5310630798339844,-11.428930282592773,1.058608055114746,-16.902856826782227,17.139684677124023,7.154913902282715
0.93,0.1731586754322052,-0.0831451341509819,0.8388892412185669,0.5023647546768188,0.07025280594825745,0.24081134796142578,0.9024266600608826,0.71737140417099,-0.23464153707027435,0.2708587944507599,-0.0635782852768898,-0.05793014168739319,0.27316445112228394,-0.07674314826726913,-0.17205294966697693,0.8216306567192078,9.435095853405073e-05,0.800000011920929,0.057057738304138184,0.23437821865081787,0.45818275213241577,-0.6745634078979492,-1.249890685081482,-3.1986236572265625,-0.32802116870880127,1.7815115451812744,0.0030681765638291836,-3.028140781680122e-05,-0.5841314196586609,0.5908721685409546,-10.758124351501465,-12.746047019958496,-33.14601135253906,1.4281854629516602,-8.032483100891113,1.0937929153442383,-14.14258861541748,17.318618774414062,6.990325450897217
0.9400000000000001,0.17805424332618713,-0.08344762027263641,0.8407654166221619,0.5011428594589233,0.06476780772209167,0.24284766614437103,1.0054357051849365,0.991485059261322,-0.16454894840717316,0.26826974749565125,-0.05941363796591759,-0.06841422617435455,0.2599157392978668,-0.11106237769126892,-0.1773388683795929,0.8382889032363892,6.441831646952778e-05,0.800000011920929,0.05272877588868141,-0.4764246642589569,0.44250795245170593,-1.2465479373931885,-1.3482331037521362,-3.575906753540039,-0.6758528351783752,1.5364573001861572,0.006796767469495535,-2.5927540264092386e-05,-0.4883430302143097,0.5659140348434448,-9.461469650268555,-13.287187576293945,-28.3857479095459,1.681396484375,-4.452518939971924,1.3801636695861816,-11.067902565002441,17.180578231811523,5.073138236999512
0.9500000000000001,0.18282194435596466,-0.08374469727277756,0.8426441550254822,0.49692341685295105,0.06095006316900253,0.24337169528007507,1.0633738040924072,1.138651967048645,-0.09908606112003326,0.2584652900695801,-0.055627889931201935,-0.08366206288337708,0.24597899615764618,-0.14832282066345215,-0.1850874274969101,0.8523311018943787,1.823534330469556e-05,0.800000011920929,0.0489974319934845,-1.1982407569885254,0.39419928193092346,-1.6639084815979004,-1.4054090976715088,-3.8148133754730225,-0.8597738146781921,1.279097557067871,0.014938192442059517,-2.5496628950349987e-05,-0.4500579237937927,0.41518115997314453,-7.885212421417236,-14.090792655944824,-23.995128631591797,1.9109325408935547,-1.0712156295776367,1.6922564506530762,-7.8079423904418945,16.757410049438477,1.6700811386108398
0.96,0.18750543892383575,-0.08405748754739761,0.8444963097572327,0.4912063777446747,0.05838167294859886,0.24265645444393158,1.081310510635376,1.1727632284164429,-0.03614808991551399,0.24116285145282745,-0.05253184586763382,-0.1022411659359932,0.23172453045845032,-0.18738201260566711,-0.19378399848937988,0.863801121711731,-1.024174821395718e-06,0.800000011920929,0.045391760766506195,-1.9549059867858887,0.31706979870796204,-1.9403462409973145,-1.4231376647949219,-3.9544577598571777,-0.8987243175506592,1.0314325094223022,0.018581528216600418,-3.0659888579975814e-05,-0.41724762320518494,0.18320655822753906,-6.229768753051758,-15.332401275634766,-19.86949920654297,2.0075931549072266,1.8914594650268555,1.9412379264831543,-4.4373931884765625,16.070005416870117,-3.1795365810394287
0.97,0.1921449452638626,-0.084405317902565,0.8463077545166016,0.48483359813690186,0.05684434249997139,0.2402878701686859,1.0697145462036133,1.1109535694122314,0.02147670090198517,0.21610867977142334,-0.05022940784692764,-0.12283549457788467,0.21751056611537933,-0.22747009992599487,-0.20281703770160675,0.8728737235069275,0.0013528424315154552,0.800000011920929,0.0407775342464447,-2.732727289199829,0.23218870162963867,-2.100201368331909,-1.4154465198516846,-4.020140647888184,-0.9030354022979736,0.8029449582099915,0.2089560329914093,-2.9889371944591403e-05,-0.5431822538375854,-0.1541614532470703,-4.522687911987305,-16.919567108154297,-15.859054565429688,2.1619815826416016,4.518840312957764,2.161778450012207,-1.8148224353790283,15.155965805053711,-9.248273849487305
0.98,0.19677019119262695,-0.0848049446940422,0.8480682373046875,0.4773905277252197,0.0543479397892952,0.22809447348117828,1.0354304313659668,0.9240193367004395,0.05426875129342079,0.1830417364835739,-0.04865230992436409,-0.14411257207393646,0.20369265973567963,-0.2679761052131653,-0.21368618309497833,0.8811134696006775,0.009450499899685383,0.795674741268158,0.03200441226363182,-3.6055188179016113,0.1341039538383484,-2.053708076477051,-1.3821111917495728,-4.174700736999512,-1.082849383354187,2.1481423377990723,1.046161413192749,-4.291501045227051,-0.9238860607147217,0.4035511016845703,-2.740023136138916,-19.48957061767578,-11.967564582824707,3.0576343536376953,7.648625373840332,0.7220110893249512,-2.2025864124298096,-20.15999984741211,-15.388212203979492
0.99,0.20143857598304749,-0.08527679741382599,0.8497655391693115,0.4661528170108795,0.055157370865345,0.2400243580341339,0.9928743243217468,0.6603821516036987,0.07061100751161575,0.14099054038524628,-0.04789077863097191,-0.16515791416168213,0.19016706943511963,-0.3079610764980316,-0.2259136289358139,0.8954721689224243,0.026370739564299583,0.7999999523162842,0.018027734011411667,-4.45546817779541,0.1296539157629013,-2.1269969940185547,-1.3582236766815186,-3.868938684463501,-1.2280622720718384,1.2440078258514404,2.007054328918457,-1.8218612240161747e-05,-1.7603237628936768,-2.0446205139160156,-1.7405006885528564,-23.59981918334961,-8.850058555603027,4.463562965393066,8.542137145996094,2.495452404022217,-4.967287063598633,10.639039993286133,-20.15999984741211
1.0,0.2061792016029358,-0.08582746237516403,0.8515456318855286,0.45305174589157104,0.05938350409269333,0.25234928727149963,0.8677026629447937,0.3067139983177185,0.06736160069704056,0.09163934737443924,-0.04676702246069908,-0.18600237369537354,0.1773865669965744,-0.344465970993042,-0.23849618434906006,0.9032881259918213,0.05216170847415924,0.7999999523162842,-0.005728161893785,-5.126842975616455,0.1948188990354538,-2.054887294769287,-1.2484204769134521,-3.4689462184906006,-1.20476496219635,0.5350012183189392,2.8756721019744873,-1.7243251932086423e-05,-2.838052749633789,-2.4398880004882812,-0.9873681664466858,-24.077733993530273,-3.5772933959960938,4.392019271850586,10.056356430053711,2.1908833980560303,-5.310370445251465,10.330408096313477,-20.15999984741211
1.01,0.21101205050945282,-0.08647932857275009,0.8534203767776489,0.43940332531929016,0.06580450385808945,0.2640001177787781,0.6725039482116699,-0.11083833128213882,0.07155797630548477,0.03559581935405731,-0.0444406233727932,-0.20548298954963684,0.1660899817943573,-0.3763640522956848,-0.25067105889320374,0.9033820033073425,0.08733490854501724,0.7999999523162842,-0.04341279715299606,-5.7989983558654785,0.3392544686794281,-1.8763806819915771,-1.0572401285171509,-2.9706146717071533,-1.1452986001968384,-0.2551446557044983,3.87558913230896,-1.6855432477314025e-05,-4.569585800170898,-3.1785850524902344,-1.1174941062927246,-23.79277801513672,0.9878978729248047,4.965452194213867,10.01680850982666,2.059576988220215,-6.772341728210449,10.56983757019043,-20.15999984741211
1.02,0.21598051488399506,-0.0872747153043747,0.8553916215896606,0.4293566048145294,0.07384468615055084,0.27893200516700745,0.41789108514785767,-0.6085707545280457,0.06603442132472992,-0.02613179385662079,-0.039641812443733215,-0.22208918631076813,0.15710832178592682,-0.40201616287231445,-0.26187780499458313,0.9043991565704346,0.13297425210475922,0.800000011920929,-0.10082593560218811,-6.288783550262451,0.7109230160713196,-1.6122609376907349,-0.8328931331634521,-2.1019790172576904,-1.0389529466629028,-0.4422239065170288,4.956421375274658,-2.450927786412649e-05,-6.840026378631592,-3.8160953521728516,-2.30415678024292,-21.95520782470703,4.763830184936523,4.864258766174316,8.086441993713379,-2.6867246627807617,-9.75489616394043,11.259230613708496,-20.15999984741211
1.03,0.22111928462982178,-0.08824542164802551,0.8575085997581482,0.4253178536891937,0.07852105051279068,0.28988492488861084,0.12779372930526733,-1.0909101963043213,0.11225622147321701,-0.09203027933835983,-0.030894163995981216,-0.23537245392799377,0.15093430876731873,-0.4177977740764618,-0.2721214294433594,0.8994055390357971,0.18954502046108246,0.7999999523162842,-0.18552400171756744,-6.655849456787109,0.9725325703620911,-1.2338675260543823,-0.4653618335723877,-1.029178261756897,-0.7785702347755432,-0.7948206663131714,5.806536674499512,-2.1483330783667043e-05,-9.71192455291748,-2.777477264404297,-5.370922565460205,-18.491287231445312,7.890127182006836,4.166618347167969,4.759583473205566,-8.30115795135498,-14.04145622253418,11.881338119506836,-12.029129028320312
1.04,0.22642916440963745,-0.08944425731897354,0.8596055507659912,0.43393149971961975,0.06622437387704849,0.2732870578765869,-0.06993352621793747,-1.4028271436691284,0.10177096724510193,-0.16046012938022614,-0.026553111150860786,-0.2439190149307251,0.1482619047164917,-0.42266738414764404,-0.2771751284599304,0.8874541521072388,0.25126898288726807,0.7998055219650269,-0.2966976761817932,-6.950829029083252,-0.283322811126709,-0.5300614237785339,-0.10993141680955887,-0.1656254529953003,-0.027098046615719795,-0.8291805982589722,5.988417148590088,-2.2248449325561523,-11.863231658935547,0.8888664245605469,-1.3481625318527222,-14.339615821838379,10.456620216369629,4.359418869018555,-3.7061076164245605,-15.005744934082031,-12.699953079223633,20.15999984741211,-7.141845703125
1.05,0.2318732887506485,-0.09087854623794556,0.8612900972366333,0.458528071641922,0.05260324850678444,0.225884810090065,-0.07177889347076416,-1.4361228942871094,-0.04052148386836052,-0.22587314248085022,-0.03522174432873726,-0.2478693276643753,0.14840251207351685,-0.41707906126976013,-0.2747226059436798,0.8770272135734558,0.30757972598075867,0.8013882040977478,-0.41745543479919434,-6.129789352416992,-0.7131026387214661,-0.42822521924972534,-0.1303059607744217,1.0131564140319824,-0.15221340954303741,-1.29193115234375,6.9859137535095215,6.2404961585998535,-14.322432518005371,-0.3249549865722656,-3.5367612838745117,-6.308897972106934,14.193002700805664,6.504838466644287,-11.919700622558594,-19.821548461914062,-16.023834228515625,12.790117263793945,-16.893978118896484
1.06,0.23743358254432678,-0.09245343506336212,0.8626230955123901,0.4902610182762146,0.036636870354413986,0.18200430274009705,-0.06853005290031433,-1.2488218545913696,-0.10715414583683014,-0.2813979983329773,-0.052813563495874405,-0.25276973843574524,0.15071801841259003,-0.40226978063583374,-0.2714095413684845,0.8631505966186523,0.3596549928188324,0.7981893420219421,-0.4808623790740967,-5.189059257507324,-2.1165714263916016,-0.5769627094268799,0.33040040731430054,1.5427756309509277,0.2297305017709732,-1.446836233139038,5.059813022613525,0.8781818151473999,-14.357808113098145,-2.826833724975586,-1.9984502792358398,2.607609748840332,15.629447937011719,10.339723587036133,-19.929134368896484,-25.14957618713379,-5.8059844970703125,12.634937286376953,-20.15999984741211
1.07,0.24307622015476227,-0.0941508486866951,0.8637758493423462,0.519005537033081,0.024926865473389626,0.17343856394290924,-0.0008006361313164234,-1.0180261135101318,-0.1382346749305725,-0.32778194546699524,-0.07928482443094254,-0.25889676809310913,0.1556565910577774,-0.3864530622959137,-0.2672838568687439,0.8478162288665771,0.39550045132637024,0.7980385422706604,-0.5395252704620361,-4.24064826965332,-2.8096120357513428,-0.6815513372421265,0.528079628944397,1.5441102981567383,0.24716384708881378,-1.5814852714538574,3.4497485160827637,0.4986799955368042,-14.185639381408691,-5.82989501953125,-2.5116777420043945,11.214605331420898,14.955223083496094,18.539627075195312,-24.076528549194336,-27.764015197753906,-7.25446891784668,11.738566398620605,-20.15999984741211
1.08,0.24884337186813354,-0.09597867727279663,0.8649359941482544,0.5486752986907959,0.01702251099050045,0.17088736593723297,-0.010220250114798546,-0.8616670966148376,-0.17452049255371094,-0.36514976620674133,-0.11056382954120636,-0.26553237438201904,0.16252799332141876,-0.3688589334487915,-0.2633267939090729,0.8302959203720093,0.416678249835968,0.7985742688179016,-0.5905884504318237,-3.3451144695281982,-3.2049179077148438,-0.6920130848884583,0.7654292583465576,1.9987419843673706,0.24923956394195557,-1.9148619174957275,2.0137381553649902,0.00225946307182312,-13.795379638671875,-8.646738052368164,-2.824186325073242,17.040699005126953,13.642887115478516,23.196876525878906,-25.558467864990234,-27.613500595092773,-7.5792436599731445,18.393936157226562,-20.15999984741211
1.09,0.25477010011672974,-0.09794110059738159,0.8661801815032959,0.5743783116340637,0.011125855147838593,0.18727730214595795,0.03567861020565033,-0.7442893981933594,-0.15994182229042053,-0.39429354667663574,-0.14409437775611877,-0.27233070135116577,0.17114463448524475,-0.34863340854644775,-0.25985580682754517,0.8100925087928772,0.42500630021095276,0.7980133295059204,-0.633878231048584,-2.6135077476501465,-3.3606505393981934,-0.7170194983482361,0.8828721046447754,2.021984100341797,0.21287722885608673,-2.111236810684204,0.7313485145568848,0.07529056072235107,-12.277962684631348,-10.788119316101074,-2.861318588256836,21.200454711914062,12.64785385131836,27.92082977294922,-24.771278381347656,-26.131916046142578,-6.962479114532471,12.085298538208008,-20.15999984741211
1.1,0.2608891725540161,-0.10003557801246643,0.8675774335861206,0.5997306108474731,0.007380632217973471,0.2004646509885788,0.0408257357776165,-0.7156581878662109,-0.14899662137031555,-0.41568654775619507,-0.17750078439712524,-0.2793393135070801,0.18106842041015625,-0.3255549371242523,-0.2562893331050873,0.7870227098464966,0.4216211438179016,0.7971391677856445,-0.6699948310852051,-1.877769947052002,-3.2729415893554688,-0.739243745803833,1.0062509775161743,2.34421968460083,0.2503299415111542,-2.399188756942749,-0.3918626606464386,0.01879480481147766,-12.242691040039062,-11.751633644104004,-2.647062301635742,23.807741165161133,11.299686431884766,29.70853042602539,-23.127670288085938,-23.756872177124023,-6.253762722015381,14.817188262939453,-20.15999984741211
1.11,0.26722341775894165,-0.10226012766361237,0.8691234588623047,0.623948872089386,0.005226252134889364,0.21044909954071045,0.02396979369223118,-0.7456173300743103,-0.13385145366191864,-0.42980527877807617,-0.2088635265827179,-0.2865247130393982,0.19199569523334503,-0.2991611957550049,-0.2522349953651428,0.761060357093811,0.4079739451408386,0.797162652015686,-0.6997014880180359,-1.1600028276443481,-3.021667957305908,-0.7441831231117249,1.1106503009796143,2.7570912837982178,0.328387588262558,-2.7115066051483154,-1.3769075870513916,-0.024560019373893738,-11.384105682373047,-12.357015609741211,-2.3997459411621094,25.721263885498047,9.894586563110352,29.911399841308594,-20.93231773376465,-20.74388885498047,-5.149486541748047,14.37335205078125,-20.15999984741211
1.12,0.2737886905670166,-0.1046120673418045,0.8707669377326965,0.6473901271820068,0.004501372575759888,0.21454276144504547,-0.007430550176650286,-0.8127629160881042,-0.11015427112579346,-0.4365502595901489,-0.2368454486131668,-0.2936752140522003,0.20374207198619843,-0.2686278223991394,-0.24736832082271576,0.7323196530342102,0.3855181932449341,0.7972235083580017,-0.7213500142097473,-0.43472781777381897,-2.649482488632202,-0.7326547503471375,1.1818660497665405,3.179701566696167,0.42311403155326843,-2.965649127960205,-2.196293830871582,0.05533990263938904,-10.831084251403809,-12.498363494873047,-2.111416816711426,27.286624908447266,8.477067947387695,29.038684844970703,-18.350143432617188,-17.57683563232422,-4.068113327026367,17.554187774658203,-20.15999984741211
1.1300000000000001,0.2805921733379364,-0.107085220515728,0.8724279999732971,0.6705578565597534,0.005044009070843458,0.20811039209365845,-0.07055114209651947,-0.9025477170944214,-0.0798419639468193,-0.4360799789428711,-0.2603454291820526,-0.3004571497440338,0.21607685089111328,-0.23353621363639832,-0.2415313720703125,0.701166570186615,0.3557436764240265,0.7972640991210938,-0.7383928298950195,0.25054222345352173,-2.1724414825439453,-0.6765413880348206,1.2364065647125244,3.6475563049316406,0.527597963809967,-3.192150354385376,-2.882585048675537,0.03304801136255264,-10.046820640563965,-12.216777801513672,-1.7680683135986328,28.4775390625,6.883892059326172,27.005422592163086,-15.602886199951172,-14.234122276306152,-2.858123779296875,16.444499969482422,-20.15999984741211
1.1400000000000001,0.2876332104206085,-0.10967033356428146,0.8740130662918091,0.6927245855331421,0.006444488186389208,0.19046859443187714,-0.1599987894296646,-1.0112032890319824,-0.04821980372071266,-0.42936253547668457,-0.278359979391098,-0.306510865688324,0.22870157659053802,-0.1941310465335846,-0.23473195731639862,0.6682707071304321,0.3199756443500519,0.7974775433540344,-0.750117838382721,0.7462390065193176,-1.600311517715454,-0.591422438621521,1.2604012489318848,4.055044174194336,0.6305088400840759,-3.33335542678833,-3.430497884750366,0.02626744657754898,-9.295680046081543,-10.993521690368652,-1.4180335998535156,29.371980667114258,5.0923662185668945,24.355022430419922,-12.747114181518555,-11.148124694824219,-1.669647216796875,17.04654312133789,-20.15999984741211
1.1500000000000001,0.29490479826927185,-0.11235962808132172,0.8754054307937622,0.7130892872810364,0.00906433816999197,0.15968908369541168,-0.272582471370697,-1.1344802379608154,-0.02651483565568924,-0.4180026352405548,-0.29001325368881226,-0.3114874064922333,0.24135564267635345,-0.1506936401128769,-0.22696025669574738,0.6344056725502014,0.2794560492038727,0.7975550889968872,-0.7569341659545898,1.2457282543182373,-0.943532407283783,-0.46438097953796387,1.2456953525543213,4.456745624542236,0.720862627029419,-3.391644239425659,-3.8375730514526367,-0.03508217632770538,-9.135931015014648,-9.526243209838867,-1.1073203086853027,29.823049545288086,2.9915971755981445,20.949020385742188,-9.801685333251953,-8.19221305847168,-0.6290512084960938,16.735448837280273,-20.15999984741211
1.16,0.3023932874202728,-0.11512942612171173,0.8764887452125549,0.7307785749435425,0.01263818796724081,0.11775095015764236,-0.38222259283065796,-1.2603682279586792,0.012623942457139492,-0.40113651752471924,-0.29459628462791443,-0.31481942534446716,0.2535189688205719,-0.10335355252027512,-0.2184605449438095,0.6005344986915588,0.23541386425495148,0.7981041669845581,-0.7626639604568481,1.7777916193008423,-0.22320899367332458,-0.28238755464553833,1.1538288593292236,4.766472339630127,0.7813084721565247,-3.3531763553619385,-4.145777225494385,2.3436532020568848,-8.928221702575684,-8.792556762695312,-0.7996819019317627,29.63368797302246,0.5044054985046387,17.262727737426758,-6.71926212310791,-5.634513854980469,0.5072174072265625,15.314892768859863,-20.15999984741211
1.17,0.31008225679397583,-0.11795183271169662,0.8771427869796753,0.7445419430732727,0.018082737922668457,0.053347885608673096,-0.5359323024749756,-1.3954966068267822,0.07282114773988724,-0.37841811776161194,-0.29148945212364197,-0.3158864676952362,0.26443976163864136,-0.05241210758686066,-0.20927883684635162,0.567843496799469,0.1885126531124115,0.7978904843330383,-0.7663443684577942,2.405402660369873,0.5469158291816711,-0.005594297312200069,1.0372753143310547,5.219335079193115,0.8466461300849915,-3.1819040775299072,-4.3796515464782715,-0.4603811204433441,-8.767647743225098,-7.806239128112793,-0.35243844985961914,28.318849563598633,-2.8054161071777344,12.649280548095703,-3.500037431716919,-2.936616897583008,1.6584892272949219,3.1746606826782227,-20.15999984741211
1.18,0.31792446970939636,-0.12078670412302017,0.877200186252594,0.7908746004104614,0.009438877925276756,-0.056051939725875854,-0.5586851835250854,-0.0828656554222107,0.4918004870414734,-0.35083842277526855,-0.28037649393081665,-0.3138491213321686,0.27348440885543823,6.176253464218462e-06,-0.20063988864421844,0.5391861796379089,0.14039388298988342,0.8001154661178589,-0.7663893699645996,-1.6791020631790161,0.7085448503494263,0.2543075680732727,1.3280476331710815,-0.2203817367553711,-0.9847931861877441,2.437300205230713,-3.8646416664123535,1.4764962196350098,-8.2914457321167,-7.047491073608398,-0.1499476432800293,26.397754669189453,-6.7250823974609375,8.248611450195312,-0.35062408447265625,-1.4142284393310547,2.776264190673828,16.4215087890625,-20.15999984741211
1.19,0.325427770614624,-0.12344849854707718,0.876177191734314,0.82132488489151,0.006868180353194475,-0.13699063658714294,-0.42142781615257263,0.4184128940105438,0.3689254820346832,-0.3508145809173584,-0.2646287977695465,-0.30575478076934814,0.28380516171455383,-3.148571340716444e-05,-0.21195906400680542,0.5531363487243652,0.09057208150625229,0.800000011920929,-0.7891111969947815,0.8655364513397217,1.8930509090423584,1.1517517566680908,0.8138842582702637,2.5678862130007474e-06,-1.379881739616394,0.7224563956260681,-4.927522659301758,-2.4333741748705506e-05,-10.251568794250488,9.250391960144043,3.0001087188720703,21.56720733642578,-15.375171661376953,37.8822021484375,16.112266540527344,-13.081005096435547,6.779016494750977,9.918306350708008,-20.15999984741211
1.2,0.332988440990448,-0.125939279794693,0.8743172883987427,0.8213759064674377,0.011711829341948032,-0.21548862755298615,-0.28163862228393555,0.3547666370868683,0.37734976410865784,-0.32927072048187256,-0.23884956538677216,-0.2934340238571167,0.2866237759590149,-3.210002978448756e-05,-0.22549396753311157,0.567326009273529,0.03874894231557846,0.7999182939529419,-0.7999988794326782,2.84749698638916,2.7967529296875,1.1262129545211792,-0.10077548772096634,0.0058942437171936035,-1.2744510173797607,1.8948549032211304,-5.093212604522705,-0.6796330213546753,0.0054656220600008965,3.307821273803711,2.5944480895996094,19.856836318969727,-20.238248825073242,43.375694274902344,22.4527587890625,-10.229586601257324,8.265979766845703,10.60013484954834,-20.15999984741211
1.21,0.34060603380203247,-0.12824766337871552,0.8716211915016174,0.8034763932228088,0.011464070528745651,-0.2998198866844177,-0.12050154060125351,0.21351070702075958,0.3927551805973053,-0.2923428416252136,-0.20668844878673553,-0.2813838720321655,0.2798161208629608,-3.2946660212473944e-05,-0.24100178480148315,0.590057909488678,-3.910885425284505e-06,0.7998024225234985,-0.7999982237815857,4.208036422729492,3.398331642150879,1.2424911260604858,-1.0906485319137573,0.003961845301091671,-2.706122636795044,2.5026118755340576,0.039408065378665924,-1.2807247638702393,0.006954723037779331,1.8072891235351562,-0.06607627868652344,17.66672134399414,-22.365074157714844,49.884639739990234,31.343076705932617,-6.5725202560424805,-13.191560745239258,12.057703018188477,-20.15999984741211
1.22,0.3481766879558563,-0.13041187822818756,0.8680890798568726,0.7835135459899902,0.002794060856103897,-0.38206154108047485,-0.010393472388386726,-0.13929051160812378,0.5567507743835449,-0.24523170292377472,-0.1739366501569748,-0.2681732177734375,0.2642432451248169,-1.4092406672716606e-05,-0.2626047432422638,0.6194234490394592,-3.69597341887129e-06,0.799842357635498,-0.7999993562698364,4.931797027587891,3.2186365127563477,1.3718054294586182,-1.915684461593628,-0.007092510350048542,-1.7551443576812744,3.255014657974243,0.03931106626987457,-1.6142148971557617,0.0069827549159526825,3.1449527740478516,1.2616043090820312,14.610185623168945,-22.908992767333984,54.208961486816406,26.30214500427246,-5.018933296203613,-11.61277961730957,3.746243953704834,-20.15999984741211
1.23,0.35576483607292175,-0.1324942708015442,0.863723874092102,0.7648308277130127,-0.009308423846960068,-0.4692556858062744,0.1595565378665924,-0.422782301902771,0.7079010605812073,-0.1907884180545807,-0.14178691804409027,-0.2540610730648041,0.24033187329769135,-2.564229362178594e-06,-0.27571168541908264,0.6547285914421082,-3.34217952513427e-06,0.8000041246414185,-0.7999999523162842,5.649712085723877,3.186387538909912,1.4338442087173462,-2.73720645904541,0.007092759478837252,-0.9626613259315491,3.6431589126586914,0.04081510752439499,-0.038208454847335815,0.0002261801273562014,3.051187515258789,-0.6841831207275391,10.239906311035156,-21.389968872070312,57.17502975463867,21.121335983276367,-4.554862976074219,-11.227044105529785,1.6723116636276245,-20.15999984741211
1.24,0.36306706070899963,-0.13464763760566711,0.8590826392173767,0.6902195811271667,-0.013588677160441875,-0.3552996516227722,-0.7694064974784851,-0.3626480996608734,0.20561496913433075,-0.1288183480501175,-0.11593741178512573,-0.23522813618183136,0.22249026596546173,-3.776933954213746e-05,-0.2838495671749115,0.6933128833770752,0.0015328776789829135,0.8001978397369385,-0.7305855751037598,6.630748748779297,1.8229496479034424,2.8296148777008057,0.4269788861274719,0.012278791517019272,-1.1644272804260254,3.7267301082611084,0.9652158617973328,0.7193261384963989,17.851932525634766,0.31461334228515625,4.589764595031738,-0.9768667221069336,-38.86220169067383,60.60459518432617,21.50088119506836,-5.374614715576172,-13.501337051391602,20.15999984741211,-20.15999984741211
1.25,0.3695787191390991,-0.13715077936649323,0.855931282043457,0.6436106562614441,-0.012497789226472378,-0.27393484115600586,-1.06349778175354,-0.649929940700531,0.13536812365055084,-0.06572052091360092,-0.0955873355269432,-0.2058658003807068,0.22766904532909393,-4.524924406723585e-06,-0.2851927876472473,0.7292283177375793,0.003394130617380142,0.7999995946884155,-0.6146665811538696,6.1330485343933105,2.13728404045105,3.049119472503662,0.6682568788528442,-0.00114361010491848,0.4874439239501953,3.402430772781372,-0.19800645112991333,0.0013651475310325623,8.703125,1.5638542175292969,-4.144999980926514,-8.321558952331543,-41.490318298339844,60.93587875366211,8.504631042480469,-1.8055295944213867,-13.24581527709961,1.9227328300476074,-20.15999984741211
1.26,0.37569111585617065,-0.139761820435524,0.8536176085472107,0.5933164358139038,-0.01646188646554947,-0.19786766171455383,-1.2140226364135742,-0.8115789294242859,-0.0016919756308197975,-0.007130440790206194,-0.07669281959533691,-0.17536522448062897,0.23620158433914185,3.997385192633374e-06,-0.2759774327278137,0.7606172561645508,5.465448703034781e-05,0.7994678020477295,-0.5510589480400085,5.70828914642334,1.7323756217956543,3.0382699966430664,0.9825683832168579,0.01839669980108738,1.0376734733581543,2.901169538497925,-0.020406503230333328,-1.4823241233825684,4.124760627746582,0.9343471527099609,-7.261484622955322,-13.772565841674805,-43.84449768066406,60.82496643066406,1.913489818572998,1.2364168167114258,-15.12591552734375,-1.384893536567688,-20.15999984741211
1.27,0.38137370347976685,-0.14242327213287354,0.8520607352256775,0.5499749779701233,-0.027013950049877167,-0.13389036059379578,-1.2152906656265259,-0.9112831950187683,-0.11131294071674347,0.04497058317065239,-0.06279212236404419,-0.14694996178150177,0.2472497671842575,-6.869488515803823e-06,-0.2634004056453705,0.7863839268684387,0.00010235039371764287,0.7992458343505859,-0.5201334953308105,4.887299060821533,1.151466727256775,2.6920671463012695,1.1675479412078857,-0.026328982785344124,1.4675390720367432,2.4743189811706543,-0.009605981409549713,1.0029053688049316,1.920371651649475,0.8343429565429688,-8.304740905761719,-17.821317672729492,-44.57261276245117,59.52372360229492,-4.60659122467041,3.1756534576416016,-15.691618919372559,-1.9463309049606323,-20.15999984741211
1.28,0.38667917251586914,-0.1450953334569931,0.851145327091217,0.5154849886894226,-0.040732599794864655,-0.07958023250102997,-1.0577703714370728,-0.9016788005828857,-0.2036740928888321,0.0875580906867981,-0.05451709404587746,-0.12454832345247269,0.2588757574558258,-3.109137833234854e-05,-0.24777692556381226,0.8073126077651978,0.00014862460375297815,0.800000011920929,-0.5069841146469116,3.914304256439209,0.617098867893219,1.8797298669815063,1.1252870559692383,-0.000638522207736969,1.6504422426223755,1.8114715814590454,0.023998014628887177,-0.00019828867516480386,0.353356271982193,0.9533596038818359,-10.366728782653809,-23.132442474365234,-43.7207145690918,56.913230895996094,-12.285390853881836,4.205568313598633,-17.279726028442383,20.15999984741211,-20.15999984741211
